; This file was automatically generated by DXF Halftone 2.1 (c) Metalfusion 2011
; Creation date: 11 Apr 2016 09:18:02
; Source image filename: krystal-jung.jpg
; To be cut with 90 degree V-bit.
; The pattern contains 8140 dots.
; Use at your own risk.
;
G17
G40
G80
G90
G97 S10000
;
M3
;
G0 Z5.00000000
G0 X0.00000000 Y0.00000000
G0 Z10.0000000
;
G0 X7.31342363 Y6.93823242
G0 Z5.00000000
G1 Z-1.90528464 F400
G0 Z5.00000000
G0 X7.31342363 Y14.0092773
G0 Z5.00000000
G1 Z-1.88409591 F400
G0 Z5.00000000
G0 X10.8489580 Y10.4737549
G0 Z5.00000000
G1 Z-1.88130569 F400
G0 Z5.00000000
G0 X14.3844919 Y6.93823242
G0 Z5.00000000
G1 Z-1.88550210 F400
G0 Z5.00000000
G0 X21.4555588 Y6.93823242
G0 Z5.00000000
G1 Z-1.82921314 F400
G0 Z5.00000000
G0 X17.9200249 Y10.4737549
G0 Z5.00000000
G1 Z-1.82142842 F400
G0 Z5.00000000
G0 X14.3844919 Y14.0092773
G0 Z5.00000000
G1 Z-1.84827006 F400
G0 Z5.00000000
G0 X10.8489580 Y17.5448608
G0 Z5.00000000
G1 Z-1.85312498 F400
G0 Z5.00000000
G0 X7.31342363 Y21.0803833
G0 Z5.00000000
G1 Z-1.80465114 F400
G0 Z5.00000000
G0 X7.31342363 Y28.1514282
G0 Z5.00000000
G1 Z-1.65098214 F400
G0 Z5.00000000
G0 X10.8489580 Y24.6159058
G0 Z5.00000000
G1 Z-1.72811091 F400
G0 Z5.00000000
G0 X14.3844919 Y21.0803833
G0 Z5.00000000
G1 Z-1.75769806 F400
G0 Z5.00000000
G0 X17.9200249 Y17.5448608
G0 Z5.00000000
G1 Z-1.79157364 F400
G0 Z5.00000000
G0 X21.4555588 Y14.0092773
G0 Z5.00000000
G1 Z-1.77818084 F400
G0 Z5.00000000
G0 X24.9910927 Y10.4737549
G0 Z5.00000000
G1 Z-1.78063059 F400
G0 Z5.00000000
G0 X28.5266266 Y6.93823242
G0 Z5.00000000
G1 Z-1.82587874 F400
G0 Z5.00000000
G0 X35.5976944 Y6.93823242
G0 Z5.00000000
G1 Z-1.84473217 F400
G0 Z5.00000000
G0 X32.0621605 Y10.4737549
G0 Z5.00000000
G1 Z-1.78789055 F400
G0 Z5.00000000
G0 X28.5266266 Y14.0092773
G0 Z5.00000000
G1 Z-1.73441970 F400
G0 Z5.00000000
G0 X24.9910927 Y17.5448608
G0 Z5.00000000
G1 Z-1.73174942 F400
G0 Z5.00000000
G0 X21.4555588 Y21.0803833
G0 Z5.00000000
G1 Z-1.69574499 F400
G0 Z5.00000000
G0 X17.9200249 Y24.6159058
G0 Z5.00000000
G1 Z-1.64770651 F400
G0 Z5.00000000
G0 X14.3844919 Y28.1514282
G0 Z5.00000000
G1 Z-1.58541286 F400
G0 Z5.00000000
G0 X10.8489580 Y31.6869812
G0 Z5.00000000
G1 Z-1.54396760 F400
G0 Z5.00000000
G0 X7.31342363 Y35.2225037
G0 Z5.00000000
G1 Z-1.50618863 F400
G0 Z5.00000000
G0 X7.31342363 Y42.2935791
G0 Z5.00000000
G1 Z-1.43505025 F400
G0 Z5.00000000
G0 X10.8489580 Y38.7580566
G0 Z5.00000000
G1 Z-1.36685252 F400
G0 Z5.00000000
G0 X14.3844919 Y35.2225037
G0 Z5.00000000
G1 Z-1.40262830 F400
G0 Z5.00000000
G0 X17.9200249 Y31.6869812
G0 Z5.00000000
G1 Z-1.46161270 F400
G0 Z5.00000000
G0 X21.4555588 Y28.1514282
G0 Z5.00000000
G1 Z-1.50189722 F400
G0 Z5.00000000
G0 X24.9910927 Y24.6159058
G0 Z5.00000000
G1 Z-1.58269525 F400
G0 Z5.00000000
G0 X28.5266266 Y21.0803833
G0 Z5.00000000
G1 Z-1.64283478 F400
G0 Z5.00000000
G0 X32.0621605 Y17.5448608
G0 Z5.00000000
G1 Z-1.70257819 F400
G0 Z5.00000000
G0 X35.5976944 Y14.0092773
G0 Z5.00000000
G1 Z-1.75042403 F400
G0 Z5.00000000
G0 X39.1332283 Y10.4737549
G0 Z5.00000000
G1 Z-1.78132808 F400
G0 Z5.00000000
G0 X42.6687622 Y6.93823242
G0 Z5.00000000
G1 Z-1.82682478 F400
G0 Z5.00000000
G0 X49.7398300 Y6.93823242
G0 Z5.00000000
G1 Z-1.81744134 F400
G0 Z5.00000000
G0 X46.2042961 Y10.4737549
G0 Z5.00000000
G1 Z-1.80099332 F400
G0 Z5.00000000
G0 X42.6687622 Y14.0092773
G0 Z5.00000000
G1 Z-1.77839279 F400
G0 Z5.00000000
G0 X39.1332283 Y17.5448608
G0 Z5.00000000
G1 Z-1.74183583 F400
G0 Z5.00000000
G0 X35.5976944 Y21.0803833
G0 Z5.00000000
G1 Z-1.65468466 F400
G0 Z5.00000000
G0 X32.0621605 Y24.6159058
G0 Z5.00000000
G1 Z-1.54530692 F400
G0 Z5.00000000
G0 X28.5266266 Y28.1514282
G0 Z5.00000000
G1 Z-1.43939722 F400
G0 Z5.00000000
G0 X24.9910927 Y31.6869812
G0 Z5.00000000
G1 Z-1.41059697 F400
G0 Z5.00000000
G0 X21.4555588 Y35.2225037
G0 Z5.00000000
G1 Z-1.28061104 F400
G0 Z5.00000000
G0 X17.9200249 Y38.7580566
G0 Z5.00000000
G1 Z-1.04886436 F400
G0 Z5.00000000
G0 X14.3844919 Y42.2935791
G0 Z5.00000000
G1 Z-1.21449208 F400
G0 Z5.00000000
G0 X10.8489580 Y45.8291016
G0 Z5.00000000
G1 Z-1.47718740 F400
G0 Z5.00000000
G0 X7.31342363 Y49.3646545
G0 Z5.00000000
G1 Z-1.93961763 F400
G0 Z5.00000000
G0 X7.31342363 Y56.4356995
G0 Z5.00000000
G1 Z-2.14155126 F400
G0 Z5.00000000
G0 X10.8489580 Y52.9001770
G0 Z5.00000000
G1 Z-1.86284041 F400
G0 Z5.00000000
G0 X14.3844919 Y49.3646545
G0 Z5.00000000
G1 Z-1.44636440 F400
G0 Z5.00000000
G0 X17.9200249 Y45.8291016
G0 Z5.00000000
G1 Z-1.06196976 F400
G0 Z5.00000000
G0 X21.4555588 Y42.2935791
G0 Z5.00000000
G1 Z-0.860128284 F400
G0 Z5.00000000
G0 X24.9910927 Y38.7580566
G0 Z5.00000000
G1 Z-1.08126116 F400
G0 Z5.00000000
G0 X28.5266266 Y35.2225037
G0 Z5.00000000
G1 Z-1.32011986 F400
G0 Z5.00000000
G0 X32.0621605 Y31.6869812
G0 Z5.00000000
G1 Z-1.36288500 F400
G0 Z5.00000000
G0 X35.5976944 Y28.1514282
G0 Z5.00000000
G1 Z-1.45334816 F400
G0 Z5.00000000
G0 X39.1332283 Y24.6159058
G0 Z5.00000000
G1 Z-1.60424101 F400
G0 Z5.00000000
G0 X42.6687622 Y21.0803833
G0 Z5.00000000
G1 Z-1.72518420 F400
G0 Z5.00000000
G0 X46.2042961 Y17.5448608
G0 Z5.00000000
G1 Z-1.79039049 F400
G0 Z5.00000000
G0 X49.7398300 Y14.0092773
G0 Z5.00000000
G1 Z-1.79429686 F400
G0 Z5.00000000
G0 X53.2753639 Y10.4737549
G0 Z5.00000000
G1 Z-1.80043519 F400
G0 Z5.00000000
G0 X56.8108978 Y6.93823242
G0 Z5.00000000
G1 Z-1.82464266 F400
G0 Z5.00000000
G0 X63.8819656 Y6.93823242
G0 Z5.00000000
G1 Z-1.84084809 F400
G0 Z5.00000000
G0 X60.3464317 Y10.4737549
G0 Z5.00000000
G1 Z-1.81460655 F400
G0 Z5.00000000
G0 X56.8108978 Y14.0092773
G0 Z5.00000000
G1 Z-1.80517852 F400
G0 Z5.00000000
G0 X53.2753639 Y17.5448608
G0 Z5.00000000
G1 Z-1.79569185 F400
G0 Z5.00000000
G0 X49.7398300 Y21.0803833
G0 Z5.00000000
G1 Z-1.79544353 F400
G0 Z5.00000000
G0 X46.2042961 Y24.6159058
G0 Z5.00000000
G1 Z-1.72660148 F400
G0 Z5.00000000
G0 X42.6687622 Y28.1514282
G0 Z5.00000000
G1 Z-1.56695032 F400
G0 Z5.00000000
G0 X39.1332283 Y31.6869812
G0 Z5.00000000
G1 Z-1.41253340 F400
G0 Z5.00000000
G0 X35.5976944 Y35.2225037
G0 Z5.00000000
G1 Z-1.28768134 F400
G0 Z5.00000000
G0 X32.0621605 Y38.7580566
G0 Z5.00000000
G1 Z-1.21497202 F400
G0 Z5.00000000
G0 X28.5266266 Y42.2935791
G0 Z5.00000000
G1 Z-0.916707575 F400
G0 Z5.00000000
G0 X24.9910927 Y45.8291016
G0 Z5.00000000
G1 Z-0.830181360 F400
G0 Z5.00000000
G0 X21.4555588 Y49.3646545
G0 Z5.00000000
G1 Z-0.994464278 F400
G0 Z5.00000000
G0 X17.9200249 Y52.9001770
G0 Z5.00000000
G1 Z-1.51180232 F400
G0 Z5.00000000
G0 X14.3844919 Y56.4356995
G0 Z5.00000000
G1 Z-2.03216219 F400
G0 Z5.00000000
G0 X10.8489580 Y59.9712524
G0 Z5.00000000
G1 Z-2.21980190 F400
G0 Z5.00000000
G0 X7.31342363 Y63.5067749
G0 Z5.00000000
G1 Z-2.20002222 F400
G0 Z5.00000000
G0 X7.31342363 Y70.5778503
G0 Z5.00000000
G1 Z-2.04921031 F400
G0 Z5.00000000
G0 X10.8489580 Y67.0423279
G0 Z5.00000000
G1 Z-2.17224026 F400
G0 Z5.00000000
G0 X14.3844919 Y63.5067749
G0 Z5.00000000
G1 Z-2.14847660 F400
G0 Z5.00000000
G0 X17.9200249 Y59.9712524
G0 Z5.00000000
G1 Z-2.06397319 F400
G0 Z5.00000000
G0 X21.4555588 Y56.4356995
G0 Z5.00000000
G1 Z-1.43631685 F400
G0 Z5.00000000
G0 X24.9910927 Y52.9001770
G0 Z5.00000000
G1 Z-0.835198045 F400
G0 Z5.00000000
G0 X28.5266266 Y49.3646545
G0 Z5.00000000
G1 Z-0.777614415 F400
G0 Z5.00000000
G0 X32.0621605 Y45.8291016
G0 Z5.00000000
G1 Z-0.799232721 F400
G0 Z5.00000000
G0 X35.5976944 Y42.2935791
G0 Z5.00000000
G1 Z-1.14345694 F400
G0 Z5.00000000
G0 X39.1332283 Y38.7580566
G0 Z5.00000000
G1 Z-1.23944187 F400
G0 Z5.00000000
G0 X42.6687622 Y35.2225037
G0 Z5.00000000
G1 Z-1.35164618 F400
G0 Z5.00000000
G0 X46.2042961 Y31.6869812
G0 Z5.00000000
G1 Z-1.52246094 F400
G0 Z5.00000000
G0 X49.7398300 Y28.1514282
G0 Z5.00000000
G1 Z-1.71767282 F400
G0 Z5.00000000
G0 X53.2753639 Y24.6159058
G0 Z5.00000000
G1 Z-1.79346538 F400
G0 Z5.00000000
G0 X56.8108978 Y21.0803833
G0 Z5.00000000
G1 Z-1.80741620 F400
G0 Z5.00000000
G0 X60.3464317 Y17.5448608
G0 Z5.00000000
G1 Z-1.81382811 F400
G0 Z5.00000000
G0 X63.8819656 Y14.0092773
G0 Z5.00000000
G1 Z-1.81757247 F400
G0 Z5.00000000
G0 X67.4175034 Y10.4737549
G0 Z5.00000000
G1 Z-1.82835102 F400
G0 Z5.00000000
G0 X70.9530334 Y6.93823242
G0 Z5.00000000
G1 Z-1.85952008 F400
G0 Z5.00000000
G0 X78.0241013 Y6.93823242
G0 Z5.00000000
G1 Z-1.89670205 F400
G0 Z5.00000000
G0 X74.4885712 Y10.4737549
G0 Z5.00000000
G1 Z-1.83838165 F400
G0 Z5.00000000
G0 X70.9530334 Y14.0092773
G0 Z5.00000000
G1 Z-1.81103790 F400
G0 Z5.00000000
G0 X67.4175034 Y17.5448608
G0 Z5.00000000
G1 Z-1.81300485 F400
G0 Z5.00000000
G0 X63.8819656 Y21.0803833
G0 Z5.00000000
G1 Z-1.80967069 F400
G0 Z5.00000000
G0 X60.3464317 Y24.6159058
G0 Z5.00000000
G1 Z-1.80357134 F400
G0 Z5.00000000
G0 X56.8108978 Y28.1514282
G0 Z5.00000000
G1 Z-1.79492188 F400
G0 Z5.00000000
G0 X53.2753639 Y31.6869812
G0 Z5.00000000
G1 Z-1.70524001 F400
G0 Z5.00000000
G0 X49.7398300 Y35.2225037
G0 Z5.00000000
G1 Z-1.50827289 F400
G0 Z5.00000000
G0 X46.2042961 Y38.7580566
G0 Z5.00000000
G1 Z-1.32297993 F400
G0 Z5.00000000
G0 X42.6687622 Y42.2935791
G0 Z5.00000000
G1 Z-1.21915174 F400
G0 Z5.00000000
G0 X39.1332283 Y45.8291016
G0 Z5.00000000
G1 Z-1.09203672 F400
G0 Z5.00000000
G0 X35.5976944 Y49.3646545
G0 Z5.00000000
G1 Z-0.753013372 F400
G0 Z5.00000000
G0 X32.0621605 Y52.9001770
G0 Z5.00000000
G1 Z-0.704497755 F400
G0 Z5.00000000
G0 X28.5266266 Y56.4356995
G0 Z5.00000000
G1 Z-0.714400053 F400
G0 Z5.00000000
G0 X24.9910927 Y59.9712524
G0 Z5.00000000
G1 Z-1.00101840 F400
G0 Z5.00000000
G0 X21.4555588 Y63.5067749
G0 Z5.00000000
G1 Z-1.86806917 F400
G0 Z5.00000000
G0 X17.9200249 Y67.0423279
G0 Z5.00000000
G1 Z-1.96239936 F400
G0 Z5.00000000
G0 X14.3844919 Y70.5778503
G0 Z5.00000000
G1 Z-2.00033760 F400
G0 Z5.00000000
G0 X10.8489580 Y74.1133728
G0 Z5.00000000
G1 Z-2.07043505 F400
G0 Z5.00000000
G0 X7.31342363 Y77.6489258
G0 Z5.00000000
G1 Z-1.79140615 F400
G0 Z5.00000000
G0 X7.31342363 Y84.7199707
G0 Z5.00000000
G1 Z-1.36752784 F400
G0 Z5.00000000
G0 X10.8489580 Y81.1844482
G0 Z5.00000000
G1 Z-1.66735768 F400
G0 Z5.00000000
G0 X14.3844919 Y77.6489258
G0 Z5.00000000
G1 Z-1.74435544 F400
G0 Z5.00000000
G0 X17.9200249 Y74.1133728
G0 Z5.00000000
G1 Z-1.54657364 F400
G0 Z5.00000000
G0 X21.4555588 Y70.5778503
G0 Z5.00000000
G1 Z-1.33910155 F400
G0 Z5.00000000
G0 X24.9910927 Y67.0423279
G0 Z5.00000000
G1 Z-1.54093468 F400
G0 Z5.00000000
G0 X28.5266266 Y63.5067749
G0 Z5.00000000
G1 Z-0.917664587 F400
G0 Z5.00000000
G0 X32.0621605 Y59.9712524
G0 Z5.00000000
G1 Z-0.647260070 F400
G0 Z5.00000000
G0 X35.5976944 Y56.4356995
G0 Z5.00000000
G1 Z-0.656883359 F400
G0 Z5.00000000
G0 X39.1332283 Y52.9001770
G0 Z5.00000000
G1 Z-0.667304695 F400
G0 Z5.00000000
G0 X42.6687622 Y49.3646545
G0 Z5.00000000
G1 Z-1.04527342 F400
G0 Z5.00000000
G0 X46.2042961 Y45.8291016
G0 Z5.00000000
G1 Z-1.14041853 F400
G0 Z5.00000000
G0 X49.7398300 Y42.2935791
G0 Z5.00000000
G1 Z-1.30263114 F400
G0 Z5.00000000
G0 X53.2753639 Y38.7580566
G0 Z5.00000000
G1 Z-1.48864114 F400
G0 Z5.00000000
G0 X56.8108978 Y35.2225037
G0 Z5.00000000
G1 Z-1.68530965 F400
G0 Z5.00000000
G0 X60.3464317 Y31.6869812
G0 Z5.00000000
G1 Z-1.77602124 F400
G0 Z5.00000000
G0 X63.8819656 Y28.1514282
G0 Z5.00000000
G1 Z-1.79185259 F400
G0 Z5.00000000
G0 X67.4175034 Y24.6159058
G0 Z5.00000000
G1 Z-1.79827011 F400
G0 Z5.00000000
G0 X70.9530334 Y21.0803833
G0 Z5.00000000
G1 Z-1.80169642 F400
G0 Z5.00000000
G0 X74.4885712 Y17.5448608
G0 Z5.00000000
G1 Z-1.81131697 F400
G0 Z5.00000000
G0 X78.0241013 Y14.0092773
G0 Z5.00000000
G1 Z-1.83100450 F400
G0 Z5.00000000
G0 X81.5596390 Y10.4737549
G0 Z5.00000000
G1 Z-1.90297985 F400
G0 Z5.00000000
G0 X85.0951691 Y6.93823242
G0 Z5.00000000
G1 Z-1.96256971 F400
G0 Z5.00000000
G0 X92.1662369 Y6.93823242
G0 Z5.00000000
G1 Z-1.96699214 F400
G0 Z5.00000000
G0 X88.6307068 Y10.4737549
G0 Z5.00000000
G1 Z-1.96067250 F400
G0 Z5.00000000
G0 X85.0951691 Y14.0092773
G0 Z5.00000000
G1 Z-1.91819751 F400
G0 Z5.00000000
G0 X81.5596390 Y17.5448608
G0 Z5.00000000
G1 Z-1.82987726 F400
G0 Z5.00000000
G0 X78.0241013 Y21.0803833
G0 Z5.00000000
G1 Z-1.79882812 F400
G0 Z5.00000000
G0 X74.4885712 Y24.6159058
G0 Z5.00000000
G1 Z-1.79101562 F400
G0 Z5.00000000
G0 X70.9530334 Y28.1514282
G0 Z5.00000000
G1 Z-1.78208709 F400
G0 Z5.00000000
G0 X67.4175034 Y31.6869812
G0 Z5.00000000
G1 Z-1.76306081 F400
G0 Z5.00000000
G0 X63.8819656 Y35.2225037
G0 Z5.00000000
G1 Z-1.74175775 F400
G0 Z5.00000000
G0 X60.3464317 Y38.7580566
G0 Z5.00000000
G1 Z-1.67646205 F400
G0 Z5.00000000
G0 X56.8108978 Y42.2935791
G0 Z5.00000000
G1 Z-1.49534321 F400
G0 Z5.00000000
G0 X53.2753639 Y45.8291016
G0 Z5.00000000
G1 Z-1.23477399 F400
G0 Z5.00000000
G0 X49.7398300 Y49.3646545
G0 Z5.00000000
G1 Z-1.09965682 F400
G0 Z5.00000000
G0 X46.2042961 Y52.9001770
G0 Z5.00000000
G1 Z-0.966414571 F400
G0 Z5.00000000
G0 X42.6687622 Y56.4356995
G0 Z5.00000000
G1 Z-0.723895073 F400
G0 Z5.00000000
G0 X39.1332283 Y59.9712524
G0 Z5.00000000
G1 Z-0.573228240 F400
G0 Z5.00000000
G0 X35.5976944 Y63.5067749
G0 Z5.00000000
G1 Z-0.571944714 F400
G0 Z5.00000000
G0 X32.0621605 Y67.0423279
G0 Z5.00000000
G1 Z-0.710488260 F400
G0 Z5.00000000
G0 X28.5266266 Y70.5778503
G0 Z5.00000000
G1 Z-0.992502749 F400
G0 Z5.00000000
G0 X24.9910927 Y74.1133728
G0 Z5.00000000
G1 Z-0.930295706 F400
G0 Z5.00000000
G0 X21.4555588 Y77.6489258
G0 Z5.00000000
G1 Z-1.07066405 F400
G0 Z5.00000000
G0 X17.9200249 Y81.1844482
G0 Z5.00000000
G1 Z-1.34549665 F400
G0 Z5.00000000
G0 X14.3844919 Y84.7199707
G0 Z5.00000000
G1 Z-1.29806364 F400
G0 Z5.00000000
G0 X10.8489580 Y88.2555237
G0 Z5.00000000
G1 Z-1.30598772 F400
G0 Z5.00000000
G0 X7.31342363 Y91.7910461
G0 Z5.00000000
G1 Z-1.60808027 F400
G0 Z5.00000000
G0 X7.31342363 Y98.8621216
G0 Z5.00000000
G1 Z-1.92813885 F400
G0 Z5.00000000
G0 X10.8489580 Y95.3265991
G0 Z5.00000000
G1 Z-1.28814733 F400
G0 Z5.00000000
G0 X14.3844919 Y91.7910461
G0 Z5.00000000
G1 Z-1.12139785 F400
G0 Z5.00000000
G0 X17.9200249 Y88.2555237
G0 Z5.00000000
G1 Z-1.26908481 F400
G0 Z5.00000000
G0 X21.4555588 Y84.7199707
G0 Z5.00000000
G1 Z-0.895089269 F400
G0 Z5.00000000
G0 X24.9910927 Y81.1844482
G0 Z5.00000000
G1 Z-0.693909049 F400
G0 Z5.00000000
G0 X28.5266266 Y77.6489258
G0 Z5.00000000
G1 Z-0.710524559 F400
G0 Z5.00000000
G0 X32.0621605 Y74.1133728
G0 Z5.00000000
G1 Z-0.746777296 F400
G0 Z5.00000000
G0 X35.5976944 Y70.5778503
G0 Z5.00000000
G1 Z-0.650725424 F400
G0 Z5.00000000
G0 X39.1332283 Y67.0423279
G0 Z5.00000000
G1 Z-0.522254467 F400
G0 Z5.00000000
G0 X42.6687622 Y63.5067749
G0 Z5.00000000
G1 Z-0.549355447 F400
G0 Z5.00000000
G0 X46.2042961 Y59.9712524
G0 Z5.00000000
G1 Z-0.747480512 F400
G0 Z5.00000000
G0 X49.7398300 Y56.4356995
G0 Z5.00000000
G1 Z-0.909059703 F400
G0 Z5.00000000
G0 X53.2753639 Y52.9001770
G0 Z5.00000000
G1 Z-1.04357982 F400
G0 Z5.00000000
G0 X56.8108978 Y49.3646545
G0 Z5.00000000
G1 Z-1.25035715 F400
G0 Z5.00000000
G0 X60.3464317 Y45.8291016
G0 Z5.00000000
G1 Z-1.45974600 F400
G0 Z5.00000000
G0 X63.8819656 Y42.2935791
G0 Z5.00000000
G1 Z-1.65430808 F400
G0 Z5.00000000
G0 X67.4175034 Y38.7580566
G0 Z5.00000000
G1 Z-1.72384202 F400
G0 Z5.00000000
G0 X70.9530334 Y35.2225037
G0 Z5.00000000
G1 Z-1.75128341 F400
G0 Z5.00000000
G0 X74.4885712 Y31.6869812
G0 Z5.00000000
G1 Z-1.77016175 F400
G0 Z5.00000000
G0 X78.0241013 Y28.1514282
G0 Z5.00000000
G1 Z-1.78433037 F400
G0 Z5.00000000
G0 X81.5596390 Y24.6159058
G0 Z5.00000000
G1 Z-1.79122758 F400
G0 Z5.00000000
G0 X85.0951691 Y21.0803833
G0 Z5.00000000
G1 Z-1.83016181 F400
G0 Z5.00000000
G0 X88.6307068 Y17.5448608
G0 Z5.00000000
G1 Z-1.92579520 F400
G0 Z5.00000000
G0 X92.1662369 Y14.0092773
G0 Z5.00000000
G1 Z-1.97085929 F400
G0 Z5.00000000
G0 X95.7017746 Y10.4737549
G0 Z5.00000000
G1 Z-1.97338176 F400
G0 Z5.00000000
G0 X99.2373047 Y6.93823242
G0 Z5.00000000
G1 Z-1.93936944 F400
G0 Z5.00000000
G0 X106.308372 Y6.93823242
G0 Z5.00000000
G1 Z-1.94391739 F400
G0 Z5.00000000
G0 X102.772842 Y10.4737549
G0 Z5.00000000
G1 Z-1.94341516 F400
G0 Z5.00000000
G0 X99.2373047 Y14.0092773
G0 Z5.00000000
G1 Z-1.97170758 F400
G0 Z5.00000000
G0 X95.7017746 Y17.5448608
G0 Z5.00000000
G1 Z-1.96082580 F400
G0 Z5.00000000
G0 X92.1662369 Y21.0803833
G0 Z5.00000000
G1 Z-1.92810535 F400
G0 Z5.00000000
G0 X88.6307068 Y24.6159058
G0 Z5.00000000
G1 Z-1.84082031 F400
G0 Z5.00000000
G0 X85.0951691 Y28.1514282
G0 Z5.00000000
G1 Z-1.77922988 F400
G0 Z5.00000000
G0 X81.5596390 Y31.6869812
G0 Z5.00000000
G1 Z-1.76165175 F400
G0 Z5.00000000
G0 X78.0241013 Y35.2225037
G0 Z5.00000000
G1 Z-1.75916278 F400
G0 Z5.00000000
G0 X74.4885712 Y38.7580566
G0 Z5.00000000
G1 Z-1.73953116 F400
G0 Z5.00000000
G0 X70.9530334 Y42.2935791
G0 Z5.00000000
G1 Z-1.70486319 F400
G0 Z5.00000000
G0 X67.4175034 Y45.8291016
G0 Z5.00000000
G1 Z-1.62358260 F400
G0 Z5.00000000
G0 X63.8819656 Y49.3646545
G0 Z5.00000000
G1 Z-1.45677459 F400
G0 Z5.00000000
G0 X60.3464317 Y52.9001770
G0 Z5.00000000
G1 Z-1.22719860 F400
G0 Z5.00000000
G0 X56.8108978 Y56.4356995
G0 Z5.00000000
G1 Z-1.04356861 F400
G0 Z5.00000000
G0 X53.2753639 Y59.9712524
G0 Z5.00000000
G1 Z-0.869034588 F400
G0 Z5.00000000
G0 X49.7398300 Y63.5067749
G0 Z5.00000000
G1 Z-0.693337083 F400
G0 Z5.00000000
G0 X46.2042961 Y67.0423279
G0 Z5.00000000
G1 Z-0.541861057 F400
G0 Z5.00000000
G0 X42.6687622 Y70.5778503
G0 Z5.00000000
G1 Z-0.498077571 F400
G0 Z5.00000000
G0 X39.1332283 Y74.1133728
G0 Z5.00000000
G1 Z-0.636138380 F400
G0 Z5.00000000
G0 X35.5976944 Y77.6489258
G0 Z5.00000000
G1 Z-0.739871621 F400
G0 Z5.00000000
G0 X32.0621605 Y81.1844482
G0 Z5.00000000
G1 Z-0.710463166 F400
G0 Z5.00000000
G0 X28.5266266 Y84.7199707
G0 Z5.00000000
G1 Z-0.678055227 F400
G0 Z5.00000000
G0 X24.9910927 Y88.2555237
G0 Z5.00000000
G1 Z-0.668091536 F400
G0 Z5.00000000
G0 X21.4555588 Y91.7910461
G0 Z5.00000000
G1 Z-0.963281274 F400
G0 Z5.00000000
G0 X17.9200249 Y95.3265991
G0 Z5.00000000
G1 Z-1.27241063 F400
G0 Z5.00000000
G0 X14.3844919 Y98.8621216
G0 Z5.00000000
G1 Z-0.971598804 F400
G0 Z5.00000000
G0 X10.8489580 Y102.397644
G0 Z5.00000000
G1 Z-1.47208977 F400
G0 Z5.00000000
G0 X7.31342363 Y105.933197
G0 Z5.00000000
G1 Z-2.20159602 F400
G0 Z5.00000000
G0 X7.31342363 Y113.004242
G0 Z5.00000000
G1 Z-2.22762275 F400
G0 Z5.00000000
G0 X10.8489580 Y109.468719
G0 Z5.00000000
G1 Z-1.82577837 F400
G0 Z5.00000000
G0 X14.3844919 Y105.933197
G0 Z5.00000000
G1 Z-0.991210938 F400
G0 Z5.00000000
G0 X17.9200249 Y102.397644
G0 Z5.00000000
G1 Z-1.18075609 F400
G0 Z5.00000000
G0 X21.4555588 Y98.8621216
G0 Z5.00000000
G1 Z-1.17162657 F400
G0 Z5.00000000
G0 X24.9910927 Y95.3265991
G0 Z5.00000000
G1 Z-0.665351570 F400
G0 Z5.00000000
G0 X28.5266266 Y91.7910461
G0 Z5.00000000
G1 Z-0.645524502 F400
G0 Z5.00000000
G0 X32.0621605 Y88.2555237
G0 Z5.00000000
G1 Z-0.616886139 F400
G0 Z5.00000000
G0 X35.5976944 Y84.7199707
G0 Z5.00000000
G1 Z-0.612865508 F400
G0 Z5.00000000
G0 X39.1332283 Y81.1844482
G0 Z5.00000000
G1 Z-0.617921352 F400
G0 Z5.00000000
G0 X42.6687622 Y77.6489258
G0 Z5.00000000
G1 Z-0.602547407 F400
G0 Z5.00000000
G0 X46.2042961 Y74.1133728
G0 Z5.00000000
G1 Z-0.508395672 F400
G0 Z5.00000000
G0 X49.7398300 Y70.5778503
G0 Z5.00000000
G1 Z-0.571841478 F400
G0 Z5.00000000
G0 X53.2753639 Y67.0423279
G0 Z5.00000000
G1 Z-0.633328676 F400
G0 Z5.00000000
G0 X56.8108978 Y63.5067749
G0 Z5.00000000
G1 Z-0.838272870 F400
G0 Z5.00000000
G0 X60.3464317 Y59.9712524
G0 Z5.00000000
G1 Z-1.03309989 F400
G0 Z5.00000000
G0 X63.8819656 Y56.4356995
G0 Z5.00000000
G1 Z-1.22700334 F400
G0 Z5.00000000
G0 X67.4175034 Y52.9001770
G0 Z5.00000000
G1 Z-1.44353795 F400
G0 Z5.00000000
G0 X70.9530334 Y49.3646545
G0 Z5.00000000
G1 Z-1.60917962 F400
G0 Z5.00000000
G0 X74.4885712 Y45.8291016
G0 Z5.00000000
G1 Z-1.69973779 F400
G0 Z5.00000000
G0 X78.0241013 Y42.2935791
G0 Z5.00000000
G1 Z-1.73207581 F400
G0 Z5.00000000
G0 X81.5596390 Y38.7580566
G0 Z5.00000000
G1 Z-1.74742198 F400
G0 Z5.00000000
G0 X85.0951691 Y35.2225037
G0 Z5.00000000
G1 Z-1.75272310 F400
G0 Z5.00000000
G0 X88.6307068 Y31.6869812
G0 Z5.00000000
G1 Z-1.78904009 F400
G0 Z5.00000000
G0 X92.1662369 Y28.1514282
G0 Z5.00000000
G1 Z-1.85561657 F400
G0 Z5.00000000
G0 X95.7017746 Y24.6159058
G0 Z5.00000000
G1 Z-1.92403448 F400
G0 Z5.00000000
G0 X99.2373047 Y21.0803833
G0 Z5.00000000
G1 Z-1.94786537 F400
G0 Z5.00000000
G0 X102.772842 Y17.5448608
G0 Z5.00000000
G1 Z-1.94202006 F400
G0 Z5.00000000
G0 X106.308372 Y14.0092773
G0 Z5.00000000
G1 Z-1.93525386 F400
G0 Z5.00000000
G0 X109.843910 Y10.4737549
G0 Z5.00000000
G1 Z-1.93247759 F400
G0 Z5.00000000
G0 X113.379440 Y6.93823242
G0 Z5.00000000
G1 Z-1.92801332 F400
G0 Z5.00000000
G0 X120.450508 Y6.93823242
G0 Z5.00000000
G1 Z-1.89806914 F400
G0 Z5.00000000
G0 X116.914978 Y10.4737549
G0 Z5.00000000
G1 Z-1.89396763 F400
G0 Z5.00000000
G0 X113.379440 Y14.0092773
G0 Z5.00000000
G1 Z-1.91517842 F400
G0 Z5.00000000
G0 X109.843910 Y17.5448608
G0 Z5.00000000
G1 Z-1.92578125 F400
G0 Z5.00000000
G0 X106.308372 Y21.0803833
G0 Z5.00000000
G1 Z-1.94159317 F400
G0 Z5.00000000
G0 X102.772842 Y24.6159058
G0 Z5.00000000
G1 Z-1.94438052 F400
G0 Z5.00000000
G0 X99.2373047 Y28.1514282
G0 Z5.00000000
G1 Z-1.91289067 F400
G0 Z5.00000000
G0 X95.7017746 Y31.6869812
G0 Z5.00000000
G1 Z-1.87890625 F400
G0 Z5.00000000
G0 X92.1662369 Y35.2225037
G0 Z5.00000000
G1 Z-1.81017852 F400
G0 Z5.00000000
G0 X88.6307068 Y38.7580566
G0 Z5.00000000
G1 Z-1.76197541 F400
G0 Z5.00000000
G0 X85.0951691 Y42.2935791
G0 Z5.00000000
G1 Z-1.75272310 F400
G0 Z5.00000000
G0 X81.5596390 Y45.8291016
G0 Z5.00000000
G1 Z-1.72398436 F400
G0 Z5.00000000
G0 X78.0241013 Y49.3646545
G0 Z5.00000000
G1 Z-1.70622206 F400
G0 Z5.00000000
G0 X74.4885712 Y52.9001770
G0 Z5.00000000
G1 Z-1.63874996 F400
G0 Z5.00000000
G0 X70.9530334 Y56.4356995
G0 Z5.00000000
G1 Z-1.46869421 F400
G0 Z5.00000000
G0 X67.4175034 Y59.9712524
G0 Z5.00000000
G1 Z-1.28215957 F400
G0 Z5.00000000
G0 X63.8819656 Y63.5067749
G0 Z5.00000000
G1 Z-1.03336501 F400
G0 Z5.00000000
G0 X60.3464317 Y67.0423279
G0 Z5.00000000
G1 Z-0.837924063 F400
G0 Z5.00000000
G0 X56.8108978 Y70.5778503
G0 Z5.00000000
G1 Z-0.603599310 F400
G0 Z5.00000000
G0 X53.2753639 Y74.1133728
G0 Z5.00000000
G1 Z-0.584866047 F400
G0 Z5.00000000
G0 X49.7398300 Y77.6489258
G0 Z5.00000000
G1 Z-0.519980431 F400
G0 Z5.00000000
G0 X46.2042961 Y81.1844482
G0 Z5.00000000
G1 Z-0.571241617 F400
G0 Z5.00000000
G0 X42.6687622 Y84.7199707
G0 Z5.00000000
G1 Z-0.648231030 F400
G0 Z5.00000000
G0 X39.1332283 Y88.2555237
G0 Z5.00000000
G1 Z-0.569453120 F400
G0 Z5.00000000
G0 X35.5976944 Y91.7910461
G0 Z5.00000000
G1 Z-0.579776764 F400
G0 Z5.00000000
G0 X32.0621605 Y95.3265991
G0 Z5.00000000
G1 Z-0.628325939 F400
G0 Z5.00000000
G0 X28.5266266 Y98.8621216
G0 Z5.00000000
G1 Z-0.613038540 F400
G0 Z5.00000000
G0 X24.9910927 Y102.397644
G0 Z5.00000000
G1 Z-0.682778955 F400
G0 Z5.00000000
G0 X21.4555588 Y105.933197
G0 Z5.00000000
G1 Z-1.20635605 F400
G0 Z5.00000000
G0 X17.9200249 Y109.468719
G0 Z5.00000000
G1 Z-0.958217025 F400
G0 Z5.00000000
G0 X14.3844919 Y113.004242
G0 Z5.00000000
G1 Z-1.26320589 F400
G0 Z5.00000000
G0 X10.8489580 Y116.539795
G0 Z5.00000000
G1 Z-2.11895370 F400
G0 Z5.00000000
G0 X7.31342363 Y120.075317
G0 Z5.00000000
G1 Z-2.23798251 F400
G0 Z5.00000000
G0 X7.31342363 Y127.146393
G0 Z5.00000000
G1 Z-2.24079227 F400
G0 Z5.00000000
G0 X10.8489580 Y123.610870
G0 Z5.00000000
G1 Z-2.21627498 F400
G0 Z5.00000000
G0 X14.3844919 Y120.075317
G0 Z5.00000000
G1 Z-1.68168795 F400
G0 Z5.00000000
G0 X17.9200249 Y116.539795
G0 Z5.00000000
G1 Z-0.860650122 F400
G0 Z5.00000000
G0 X21.4555588 Y113.004242
G0 Z5.00000000
G1 Z-1.17907929 F400
G0 Z5.00000000
G0 X24.9910927 Y109.468719
G0 Z5.00000000
G1 Z-0.792073071 F400
G0 Z5.00000000
G0 X28.5266266 Y105.933197
G0 Z5.00000000
G1 Z-0.610387802 F400
G0 Z5.00000000
G0 X32.0621605 Y102.397644
G0 Z5.00000000
G1 Z-0.620234370 F400
G0 Z5.00000000
G0 X35.5976944 Y98.8621216
G0 Z5.00000000
G1 Z-0.615770102 F400
G0 Z5.00000000
G0 X39.1332283 Y95.3265991
G0 Z5.00000000
G1 Z-0.578417957 F400
G0 Z5.00000000
G0 X42.6687622 Y91.7910461
G0 Z5.00000000
G1 Z-0.608794630 F400
G0 Z5.00000000
G0 X46.2042961 Y88.2555237
G0 Z5.00000000
G1 Z-0.639207602 F400
G0 Z5.00000000
G0 X49.7398300 Y84.7199707
G0 Z5.00000000
G1 Z-0.547661841 F400
G0 Z5.00000000
G0 X53.2753639 Y81.1844482
G0 Z5.00000000
G1 Z-0.537087083 F400
G0 Z5.00000000
G0 X56.8108978 Y77.6489258
G0 Z5.00000000
G1 Z-0.553850412 F400
G0 Z5.00000000
G0 X60.3464317 Y74.1133728
G0 Z5.00000000
G1 Z-0.615290165 F400
G0 Z5.00000000
G0 X63.8819656 Y70.5778503
G0 Z5.00000000
G1 Z-0.823501647 F400
G0 Z5.00000000
G0 X67.4175034 Y67.0423279
G0 Z5.00000000
G1 Z-1.09095979 F400
G0 Z5.00000000
G0 X70.9530334 Y63.5067749
G0 Z5.00000000
G1 Z-1.31065011 F400
G0 Z5.00000000
G0 X74.4885712 Y59.9712524
G0 Z5.00000000
G1 Z-1.54458702 F400
G0 Z5.00000000
G0 X78.0241013 Y56.4356995
G0 Z5.00000000
G1 Z-1.65681362 F400
G0 Z5.00000000
G0 X81.5596390 Y52.9001770
G0 Z5.00000000
G1 Z-1.70959258 F400
G0 Z5.00000000
G0 X85.0951691 Y49.3646545
G0 Z5.00000000
G1 Z-1.73012269 F400
G0 Z5.00000000
G0 X88.6307068 Y45.8291016
G0 Z5.00000000
G1 Z-1.74869978 F400
G0 Z5.00000000
G0 X92.1662369 Y42.2935791
G0 Z5.00000000
G1 Z-1.79260039 F400
G0 Z5.00000000
G0 X95.7017746 Y38.7580566
G0 Z5.00000000
G1 Z-1.84570312 F400
G0 Z5.00000000
G0 X99.2373047 Y35.2225037
G0 Z5.00000000
G1 Z-1.89843750 F400
G0 Z5.00000000
G0 X102.772842 Y31.6869812
G0 Z5.00000000
G1 Z-1.90694189 F400
G0 Z5.00000000
G0 X106.308372 Y28.1514282
G0 Z5.00000000
G1 Z-1.92769527 F400
G0 Z5.00000000
G0 X109.843910 Y24.6159058
G0 Z5.00000000
G1 Z-1.92415178 F400
G0 Z5.00000000
G0 X113.379440 Y21.0803833
G0 Z5.00000000
G1 Z-1.91290176 F400
G0 Z5.00000000
G0 X116.914978 Y17.5448608
G0 Z5.00000000
G1 Z-1.88001657 F400
G0 Z5.00000000
G0 X120.450508 Y14.0092773
G0 Z5.00000000
G1 Z-1.86405122 F400
G0 Z5.00000000
G0 X123.986046 Y10.4737549
G0 Z5.00000000
G1 Z-1.90116060 F400
G0 Z5.00000000
G0 X127.521576 Y6.93823242
G0 Z5.00000000
G1 Z-1.95902061 F400
G0 Z5.00000000
G0 X134.592651 Y6.93823242
G0 Z5.00000000
G1 Z-1.95417404 F400
G0 Z5.00000000
G0 X131.057114 Y10.4737549
G0 Z5.00000000
G1 Z-1.95835936 F400
G0 Z5.00000000
G0 X127.521576 Y14.0092773
G0 Z5.00000000
G1 Z-1.93966508 F400
G0 Z5.00000000
G0 X123.986046 Y17.5448608
G0 Z5.00000000
G1 Z-1.87437487 F400
G0 Z5.00000000
G0 X120.450508 Y21.0803833
G0 Z5.00000000
G1 Z-1.85227394 F400
G0 Z5.00000000
G0 X116.914978 Y24.6159058
G0 Z5.00000000
G1 Z-1.85789895 F400
G0 Z5.00000000
G0 X113.379440 Y28.1514282
G0 Z5.00000000
G1 Z-1.88260591 F400
G0 Z5.00000000
G0 X109.843910 Y31.6869812
G0 Z5.00000000
G1 Z-1.89508927 F400
G0 Z5.00000000
G0 X106.308372 Y35.2225037
G0 Z5.00000000
G1 Z-1.89696145 F400
G0 Z5.00000000
G0 X102.772842 Y38.7580566
G0 Z5.00000000
G1 Z-1.88952005 F400
G0 Z5.00000000
G0 X99.2373047 Y42.2935791
G0 Z5.00000000
G1 Z-1.86830354 F400
G0 Z5.00000000
G0 X95.7017746 Y45.8291016
G0 Z5.00000000
G1 Z-1.80693078 F400
G0 Z5.00000000
G0 X92.1662369 Y49.3646545
G0 Z5.00000000
G1 Z-1.75512826 F400
G0 Z5.00000000
G0 X88.6307068 Y52.9001770
G0 Z5.00000000
G1 Z-1.72296309 F400
G0 Z5.00000000
G0 X85.0951691 Y56.4356995
G0 Z5.00000000
G1 Z-1.70329237 F400
G0 Z5.00000000
G0 X81.5596390 Y59.9712524
G0 Z5.00000000
G1 Z-1.66571975 F400
G0 Z5.00000000
G0 X78.0241013 Y63.5067749
G0 Z5.00000000
G1 Z-1.56802452 F400
G0 Z5.00000000
G0 X74.4885712 Y67.0423279
G0 Z5.00000000
G1 Z-1.40926337 F400
G0 Z5.00000000
G0 X70.9530334 Y70.5778503
G0 Z5.00000000
G1 Z-1.12232709 F400
G0 Z5.00000000
G0 X67.4175034 Y74.1133728
G0 Z5.00000000
G1 Z-0.896877766 F400
G0 Z5.00000000
G0 X63.8819656 Y77.6489258
G0 Z5.00000000
G1 Z-0.624846578 F400
G0 Z5.00000000
G0 X60.3464317 Y81.1844482
G0 Z5.00000000
G1 Z-0.530133963 F400
G0 Z5.00000000
G0 X56.8108978 Y84.7199707
G0 Z5.00000000
G1 Z-0.575892806 F400
G0 Z5.00000000
G0 X53.2753639 Y88.2555237
G0 Z5.00000000
G1 Z-0.543808579 F400
G0 Z5.00000000
G0 X49.7398300 Y91.7910461
G0 Z5.00000000
G1 Z-0.592393994 F400
G0 Z5.00000000
G0 X46.2042961 Y95.3265991
G0 Z5.00000000
G1 Z-0.626166284 F400
G0 Z5.00000000
G0 X42.6687622 Y98.8621216
G0 Z5.00000000
G1 Z-0.609665155 F400
G0 Z5.00000000
G0 X39.1332283 Y102.397644
G0 Z5.00000000
G1 Z-0.587466538 F400
G0 Z5.00000000
G0 X35.5976944 Y105.933197
G0 Z5.00000000
G1 Z-0.573359370 F400
G0 Z5.00000000
G0 X32.0621605 Y109.468719
G0 Z5.00000000
G1 Z-0.582845986 F400
G0 Z5.00000000
G0 X28.5266266 Y113.004242
G0 Z5.00000000
G1 Z-0.635859370 F400
G0 Z5.00000000
G0 X24.9910927 Y116.539795
G0 Z5.00000000
G1 Z-0.828660727 F400
G0 Z5.00000000
G0 X21.4555588 Y120.075317
G0 Z5.00000000
G1 Z-0.986688018 F400
G0 Z5.00000000
G0 X17.9200249 Y123.610870
G0 Z5.00000000
G1 Z-0.932092607 F400
G0 Z5.00000000
G0 X14.3844919 Y127.146393
G0 Z5.00000000
G1 Z-1.97768962 F400
G0 Z5.00000000
G0 X10.8489580 Y130.681915
G0 Z5.00000000
G1 Z-2.24126101 F400
G0 Z5.00000000
G0 X7.31342363 Y134.217468
G0 Z5.00000000
G1 Z-2.24218750 F400
G0 Z5.00000000
G0 X7.31342363 Y141.288513
G0 Z5.00000000
G1 Z-2.24218750 F400
G0 Z5.00000000
G0 X10.8489580 Y137.752991
G0 Z5.00000000
G1 Z-2.24218750 F400
G0 Z5.00000000
G0 X14.3844919 Y134.217468
G0 Z5.00000000
G1 Z-2.18090129 F400
G0 Z5.00000000
G0 X17.9200249 Y130.681915
G0 Z5.00000000
G1 Z-1.23652053 F400
G0 Z5.00000000
G0 X21.4555588 Y127.146393
G0 Z5.00000000
G1 Z-0.834335923 F400
G0 Z5.00000000
G0 X24.9910927 Y123.610870
G0 Z5.00000000
G1 Z-0.845449209 F400
G0 Z5.00000000
G0 X28.5266266 Y120.075317
G0 Z5.00000000
G1 Z-0.678549051 F400
G0 Z5.00000000
G0 X32.0621605 Y116.539795
G0 Z5.00000000
G1 Z-0.561919630 F400
G0 Z5.00000000
G0 X35.5976944 Y113.004242
G0 Z5.00000000
G1 Z-0.600703120 F400
G0 Z5.00000000
G0 X39.1332283 Y109.468719
G0 Z5.00000000
G1 Z-0.587187529 F400
G0 Z5.00000000
G0 X42.6687622 Y105.933197
G0 Z5.00000000
G1 Z-0.624598205 F400
G0 Z5.00000000
G0 X46.2042961 Y102.397644
G0 Z5.00000000
G1 Z-0.637433052 F400
G0 Z5.00000000
G0 X49.7398300 Y98.8621216
G0 Z5.00000000
G1 Z-0.618476570 F400
G0 Z5.00000000
G0 X53.2753639 Y95.3265991
G0 Z5.00000000
G1 Z-0.560669661 F400
G0 Z5.00000000
G0 X56.8108978 Y91.7910461
G0 Z5.00000000
G1 Z-0.537946403 F400
G0 Z5.00000000
G0 X60.3464317 Y88.2555237
G0 Z5.00000000
G1 Z-0.577008963 F400
G0 Z5.00000000
G0 X63.8819656 Y84.7199707
G0 Z5.00000000
G1 Z-0.528543472 F400
G0 Z5.00000000
G0 X67.4175034 Y81.1844482
G0 Z5.00000000
G1 Z-0.718632817 F400
G0 Z5.00000000
G0 X70.9530334 Y77.6489258
G0 Z5.00000000
G1 Z-0.937742710 F400
G0 Z5.00000000
G0 X74.4885712 Y74.1133728
G0 Z5.00000000
G1 Z-1.22455633 F400
G0 Z5.00000000
G0 X78.0241013 Y70.5778503
G0 Z5.00000000
G1 Z-1.47270930 F400
G0 Z5.00000000
G0 X81.5596390 Y67.0423279
G0 Z5.00000000
G1 Z-1.62410712 F400
G0 Z5.00000000
G0 X85.0951691 Y63.5067749
G0 Z5.00000000
G1 Z-1.68396211 F400
G0 Z5.00000000
G0 X88.6307068 Y59.9712524
G0 Z5.00000000
G1 Z-1.71053004 F400
G0 Z5.00000000
G0 X92.1662369 Y56.4356995
G0 Z5.00000000
G1 Z-1.72777057 F400
G0 Z5.00000000
G0 X95.7017746 Y52.9001770
G0 Z5.00000000
G1 Z-1.76228225 F400
G0 Z5.00000000
G0 X99.2373047 Y49.3646545
G0 Z5.00000000
G1 Z-1.81774545 F400
G0 Z5.00000000
G0 X102.772842 Y45.8291016
G0 Z5.00000000
G1 Z-1.86008930 F400
G0 Z5.00000000
G0 X106.308372 Y42.2935791
G0 Z5.00000000
G1 Z-1.87746644 F400
G0 Z5.00000000
G0 X109.843910 Y38.7580566
G0 Z5.00000000
G1 Z-1.88748884 F400
G0 Z5.00000000
G0 X113.379440 Y35.2225037
G0 Z5.00000000
G1 Z-1.88262832 F400
G0 Z5.00000000
G0 X116.914978 Y31.6869812
G0 Z5.00000000
G1 Z-1.84371364 F400
G0 Z5.00000000
G0 X120.450508 Y28.1514282
G0 Z5.00000000
G1 Z-1.83228505 F400
G0 Z5.00000000
G0 X123.986046 Y24.6159058
G0 Z5.00000000
G1 Z-1.86946988 F400
G0 Z5.00000000
G0 X127.521576 Y21.0803833
G0 Z5.00000000
G1 Z-1.91964829 F400
G0 Z5.00000000
G0 X131.057114 Y17.5448608
G0 Z5.00000000
G1 Z-1.94719863 F400
G0 Z5.00000000
G0 X134.592651 Y14.0092773
G0 Z5.00000000
G1 Z-1.95389497 F400
G0 Z5.00000000
G0 X138.128174 Y10.4737549
G0 Z5.00000000
G1 Z-1.95277894 F400
G0 Z5.00000000
G0 X141.663712 Y6.93823242
G0 Z5.00000000
G1 Z-1.96628070 F400
G0 Z5.00000000
G0 X148.734787 Y6.93823242
G0 Z5.00000000
G1 Z-1.97615504 F400
G0 Z5.00000000
G0 X145.199249 Y10.4737549
G0 Z5.00000000
G1 Z-1.96022332 F400
G0 Z5.00000000
G0 X141.663712 Y14.0092773
G0 Z5.00000000
G1 Z-1.94323373 F400
G0 Z5.00000000
G0 X138.128174 Y17.5448608
G0 Z5.00000000
G1 Z-1.94831467 F400
G0 Z5.00000000
G0 X134.592651 Y21.0803833
G0 Z5.00000000
G1 Z-1.94148982 F400
G0 Z5.00000000
G0 X131.057114 Y24.6159058
G0 Z5.00000000
G1 Z-1.93437505 F400
G0 Z5.00000000
G0 X127.521576 Y28.1514282
G0 Z5.00000000
G1 Z-1.91502225 F400
G0 Z5.00000000
G0 X123.986046 Y31.6869812
G0 Z5.00000000
G1 Z-1.86407363 F400
G0 Z5.00000000
G0 X120.450508 Y35.2225037
G0 Z5.00000000
G1 Z-1.84603226 F400
G0 Z5.00000000
G0 X116.914978 Y38.7580566
G0 Z5.00000000
G1 Z-1.85539615 F400
G0 Z5.00000000
G0 X113.379440 Y42.2935791
G0 Z5.00000000
G1 Z-1.86712050 F400
G0 Z5.00000000
G0 X109.843910 Y45.8291016
G0 Z5.00000000
G1 Z-1.87046862 F400
G0 Z5.00000000
G0 X106.308372 Y49.3646545
G0 Z5.00000000
G1 Z-1.85037935 F400
G0 Z5.00000000
G0 X102.772842 Y52.9001770
G0 Z5.00000000
G1 Z-1.81493855 F400
G0 Z5.00000000
G0 X99.2373047 Y56.4356995
G0 Z5.00000000
G1 Z-1.77762544 F400
G0 Z5.00000000
G0 X95.7017746 Y59.9712524
G0 Z5.00000000
G1 Z-1.74019802 F400
G0 Z5.00000000
G0 X92.1662369 Y63.5067749
G0 Z5.00000000
G1 Z-1.72266734 F400
G0 Z5.00000000
G0 X88.6307068 Y67.0423279
G0 Z5.00000000
G1 Z-1.70271754 F400
G0 Z5.00000000
G0 X85.0951691 Y70.5778503
G0 Z5.00000000
G1 Z-1.65969300 F400
G0 Z5.00000000
G0 X81.5596390 Y74.1133728
G0 Z5.00000000
G1 Z-1.55269241 F400
G0 Z5.00000000
G0 X78.0241013 Y77.6489258
G0 Z5.00000000
G1 Z-1.29700887 F400
G0 Z5.00000000
G0 X74.4885712 Y81.1844482
G0 Z5.00000000
G1 Z-1.02937496 F400
G0 Z5.00000000
G0 X70.9530334 Y84.7199707
G0 Z5.00000000
G1 Z-0.775234401 F400
G0 Z5.00000000
G0 X67.4175034 Y88.2555237
G0 Z5.00000000
G1 Z-0.581445277 F400
G0 Z5.00000000
G0 X63.8819656 Y91.7910461
G0 Z5.00000000
G1 Z-0.555560827 F400
G0 Z5.00000000
G0 X60.3464317 Y95.3265991
G0 Z5.00000000
G1 Z-0.555119991 F400
G0 Z5.00000000
G0 X56.8108978 Y98.8621216
G0 Z5.00000000
G1 Z-0.534721017 F400
G0 Z5.00000000
G0 X53.2753639 Y102.397644
G0 Z5.00000000
G1 Z-0.580225945 F400
G0 Z5.00000000
G0 X49.7398300 Y105.933197
G0 Z5.00000000
G1 Z-0.602438569 F400
G0 Z5.00000000
G0 X46.2042961 Y109.468719
G0 Z5.00000000
G1 Z-0.663102627 F400
G0 Z5.00000000
G0 X42.6687622 Y113.004242
G0 Z5.00000000
G1 Z-0.629620552 F400
G0 Z5.00000000
G0 X39.1332283 Y116.539795
G0 Z5.00000000
G1 Z-0.607276797 F400
G0 Z5.00000000
G0 X35.5976944 Y120.075317
G0 Z5.00000000
G1 Z-0.623582602 F400
G0 Z5.00000000
G0 X32.0621605 Y123.610870
G0 Z5.00000000
G1 Z-0.594006658 F400
G0 Z5.00000000
G0 X28.5266266 Y127.146393
G0 Z5.00000000
G1 Z-0.699799061 F400
G0 Z5.00000000
G0 X24.9910927 Y130.681915
G0 Z5.00000000
G1 Z-0.793892264 F400
G0 Z5.00000000
G0 X21.4555588 Y134.217468
G0 Z5.00000000
G1 Z-0.900136709 F400
G0 Z5.00000000
G0 X17.9200249 Y137.752991
G0 Z5.00000000
G1 Z-1.51817513 F400
G0 Z5.00000000
G0 X14.3844919 Y141.288513
G0 Z5.00000000
G1 Z-2.22918797 F400
G0 Z5.00000000
G0 X10.8489580 Y144.824066
G0 Z5.00000000
G1 Z-2.24207020 F400
G0 Z5.00000000
G0 X7.31342363 Y148.359589
G0 Z5.00000000
G1 Z-2.24218750 F400
G0 Z5.00000000
G0 X7.31342363 Y155.430664
G0 Z5.00000000
G1 Z-2.24218750 F400
G0 Z5.00000000
G0 X10.8489580 Y151.895142
G0 Z5.00000000
G1 Z-2.24207020 F400
G0 Z5.00000000
G0 X14.3844919 Y148.359589
G0 Z5.00000000
G1 Z-2.23293519 F400
G0 Z5.00000000
G0 X17.9200249 Y144.824066
G0 Z5.00000000
G1 Z-1.73967361 F400
G0 Z5.00000000
G0 X21.4555588 Y141.288513
G0 Z5.00000000
G1 Z-0.960817516 F400
G0 Z5.00000000
G0 X24.9910927 Y137.752991
G0 Z5.00000000
G1 Z-0.762430191 F400
G0 Z5.00000000
G0 X28.5266266 Y134.217468
G0 Z5.00000000
G1 Z-0.695569158 F400
G0 Z5.00000000
G0 X32.0621605 Y130.681915
G0 Z5.00000000
G1 Z-0.616886139 F400
G0 Z5.00000000
G0 X35.5976944 Y127.146393
G0 Z5.00000000
G1 Z-0.604051352 F400
G0 Z5.00000000
G0 X39.1332283 Y123.610870
G0 Z5.00000000
G1 Z-0.690145075 F400
G0 Z5.00000000
G0 X42.6687622 Y120.075317
G0 Z5.00000000
G1 Z-0.639107108 F400
G0 Z5.00000000
G0 X46.2042961 Y116.539795
G0 Z5.00000000
G1 Z-0.693236589 F400
G0 Z5.00000000
G0 X49.7398300 Y113.004242
G0 Z5.00000000
G1 Z-0.625585914 F400
G0 Z5.00000000
G0 X53.2753639 Y109.468719
G0 Z5.00000000
G1 Z-0.594029009 F400
G0 Z5.00000000
G0 X56.8108978 Y105.933197
G0 Z5.00000000
G1 Z-0.536785722 F400
G0 Z5.00000000
G0 X60.3464317 Y102.397644
G0 Z5.00000000
G1 Z-0.545982122 F400
G0 Z5.00000000
G0 X63.8819656 Y98.8621216
G0 Z5.00000000
G1 Z-0.558409572 F400
G0 Z5.00000000
G0 X67.4175034 Y95.3265991
G0 Z5.00000000
G1 Z-0.573906243 F400
G0 Z5.00000000
G0 X70.9530334 Y91.7910461
G0 Z5.00000000
G1 Z-0.634787917 F400
G0 Z5.00000000
G0 X74.4885712 Y88.2555237
G0 Z5.00000000
G1 Z-0.865588665 F400
G0 Z5.00000000
G0 X78.0241013 Y84.7199707
G0 Z5.00000000
G1 Z-1.10251665 F400
G0 Z5.00000000
G0 X81.5596390 Y81.1844482
G0 Z5.00000000
G1 Z-1.40396202 F400
G0 Z5.00000000
G0 X85.0951691 Y77.6489258
G0 Z5.00000000
G1 Z-1.62396753 F400
G0 Z5.00000000
G0 X88.6307068 Y74.1133728
G0 Z5.00000000
G1 Z-1.67119408 F400
G0 Z5.00000000
G0 X92.1662369 Y70.5778503
G0 Z5.00000000
G1 Z-1.70078397 F400
G0 Z5.00000000
G0 X95.7017746 Y67.0423279
G0 Z5.00000000
G1 Z-1.72629452 F400
G0 Z5.00000000
G0 X99.2373047 Y63.5067749
G0 Z5.00000000
G1 Z-1.75587046 F400
G0 Z5.00000000
G0 X102.772842 Y59.9712524
G0 Z5.00000000
G1 Z-1.78217626 F400
G0 Z5.00000000
G0 X106.308372 Y56.4356995
G0 Z5.00000000
G1 Z-1.81829798 F400
G0 Z5.00000000
G0 X109.843910 Y52.9001770
G0 Z5.00000000
G1 Z-1.85707581 F400
G0 Z5.00000000
G0 X113.379440 Y49.3646545
G0 Z5.00000000
G1 Z-1.85344863 F400
G0 Z5.00000000
G0 X116.914978 Y45.8291016
G0 Z5.00000000
G1 Z-1.84015620 F400
G0 Z5.00000000
G0 X120.450508 Y42.2935791
G0 Z5.00000000
G1 Z-1.85356593 F400
G0 Z5.00000000
G0 X123.986046 Y38.7580566
G0 Z5.00000000
G1 Z-1.87124431 F400
G0 Z5.00000000
G0 X127.521576 Y35.2225037
G0 Z5.00000000
G1 Z-1.90660155 F400
G0 Z5.00000000
G0 X131.057114 Y31.6869812
G0 Z5.00000000
G1 Z-1.92237711 F400
G0 Z5.00000000
G0 X134.592651 Y28.1514282
G0 Z5.00000000
G1 Z-1.92578959 F400
G0 Z5.00000000
G0 X138.128174 Y24.6159058
G0 Z5.00000000
G1 Z-1.91785979 F400
G0 Z5.00000000
G0 X141.663712 Y21.0803833
G0 Z5.00000000
G1 Z-1.92085373 F400
G0 Z5.00000000
G0 X145.199249 Y17.5448608
G0 Z5.00000000
G1 Z-1.92347658 F400
G0 Z5.00000000
G0 X148.734787 Y14.0092773
G0 Z5.00000000
G1 Z-1.93490505 F400
G0 Z5.00000000
G0 X152.270309 Y10.4737549
G0 Z5.00000000
G1 Z-1.94655132 F400
G0 Z5.00000000
G0 X155.805847 Y6.93823242
G0 Z5.00000000
G1 Z-1.96185815 F400
G0 Z5.00000000
G0 X162.876923 Y6.93823242
G0 Z5.00000000
G1 Z-1.93706465 F400
G0 Z5.00000000
G0 X159.341385 Y10.4737549
G0 Z5.00000000
G1 Z-1.94243848 F400
G0 Z5.00000000
G0 X155.805847 Y14.0092773
G0 Z5.00000000
G1 Z-1.92327833 F400
G0 Z5.00000000
G0 X152.270309 Y17.5448608
G0 Z5.00000000
G1 Z-1.91960657 F400
G0 Z5.00000000
G0 X148.734787 Y21.0803833
G0 Z5.00000000
G1 Z-1.90854907 F400
G0 Z5.00000000
G0 X145.199249 Y24.6159058
G0 Z5.00000000
G1 Z-1.89619410 F400
G0 Z5.00000000
G0 X141.663712 Y28.1514282
G0 Z5.00000000
G1 Z-1.88838172 F400
G0 Z5.00000000
G0 X138.128174 Y31.6869812
G0 Z5.00000000
G1 Z-1.89693344 F400
G0 Z5.00000000
G0 X134.592651 Y35.2225037
G0 Z5.00000000
G1 Z-1.90849042 F400
G0 Z5.00000000
G0 X131.057114 Y38.7580566
G0 Z5.00000000
G1 Z-1.91735482 F400
G0 Z5.00000000
G0 X127.521576 Y42.2935791
G0 Z5.00000000
G1 Z-1.89920759 F400
G0 Z5.00000000
G0 X123.986046 Y45.8291016
G0 Z5.00000000
G1 Z-1.85989952 F400
G0 Z5.00000000
G0 X120.450508 Y49.3646545
G0 Z5.00000000
G1 Z-1.84212053 F400
G0 Z5.00000000
G0 X116.914978 Y52.9001770
G0 Z5.00000000
G1 Z-1.83013666 F400
G0 Z5.00000000
G0 X113.379440 Y56.4356995
G0 Z5.00000000
G1 Z-1.83335936 F400
G0 Z5.00000000
G0 X109.843910 Y59.9712524
G0 Z5.00000000
G1 Z-1.82590389 F400
G0 Z5.00000000
G0 X106.308372 Y63.5067749
G0 Z5.00000000
G1 Z-1.79102671 F400
G0 Z5.00000000
G0 X102.772842 Y67.0423279
G0 Z5.00000000
G1 Z-1.77177453 F400
G0 Z5.00000000
G0 X99.2373047 Y70.5778503
G0 Z5.00000000
G1 Z-1.73188066 F400
G0 Z5.00000000
G0 X95.7017746 Y74.1133728
G0 Z5.00000000
G1 Z-1.70883083 F400
G0 Z5.00000000
G0 X92.1662369 Y77.6489258
G0 Z5.00000000
G1 Z-1.67909873 F400
G0 Z5.00000000
G0 X88.6307068 Y81.1844482
G0 Z5.00000000
G1 Z-1.65178013 F400
G0 Z5.00000000
G0 X85.0951691 Y84.7199707
G0 Z5.00000000
G1 Z-1.54850996 F400
G0 Z5.00000000
G0 X81.5596390 Y88.2555237
G0 Z5.00000000
G1 Z-1.21633923 F400
G0 Z5.00000000
G0 X78.0241013 Y91.7910461
G0 Z5.00000000
G1 Z-0.960225940 F400
G0 Z5.00000000
G0 X74.4885712 Y95.3265991
G0 Z5.00000000
G1 Z-0.752472103 F400
G0 Z5.00000000
G0 X70.9530334 Y98.8621216
G0 Z5.00000000
G1 Z-0.596316934 F400
G0 Z5.00000000
G0 X67.4175034 Y102.397644
G0 Z5.00000000
G1 Z-0.559662342 F400
G0 Z5.00000000
G0 X63.8819656 Y105.933197
G0 Z5.00000000
G1 Z-0.540440798 F400
G0 Z5.00000000
G0 X60.3464317 Y109.468719
G0 Z5.00000000
G1 Z-0.516431332 F400
G0 Z5.00000000
G0 X56.8108978 Y113.004242
G0 Z5.00000000
G1 Z-0.509799123 F400
G0 Z5.00000000
G0 X53.2753639 Y116.539795
G0 Z5.00000000
G1 Z-0.604453087 F400
G0 Z5.00000000
G0 X49.7398300 Y120.075317
G0 Z5.00000000
G1 Z-0.692271173 F400
G0 Z5.00000000
G0 X46.2042961 Y123.610870
G0 Z5.00000000
G1 Z-0.734810233 F400
G0 Z5.00000000
G0 X42.6687622 Y127.146393
G0 Z5.00000000
G1 Z-0.667287946 F400
G0 Z5.00000000
G0 X39.1332283 Y130.681915
G0 Z5.00000000
G1 Z-0.654709816 F400
G0 Z5.00000000
G0 X35.5976944 Y134.217468
G0 Z5.00000000
G1 Z-0.565825939 F400
G0 Z5.00000000
G0 X32.0621605 Y137.752991
G0 Z5.00000000
G1 Z-0.648415208 F400
G0 Z5.00000000
G0 X28.5266266 Y141.288513
G0 Z5.00000000
G1 Z-0.651403427 F400
G0 Z5.00000000
G0 X24.9910927 Y144.824066
G0 Z5.00000000
G1 Z-0.756149530 F400
G0 Z5.00000000
G0 X21.4555588 Y148.359589
G0 Z5.00000000
G1 Z-1.08701730 F400
G0 Z5.00000000
G0 X17.9200249 Y151.895142
G0 Z5.00000000
G1 Z-1.87001395 F400
G0 Z5.00000000
G0 X14.3844919 Y155.430664
G0 Z5.00000000
G1 Z-2.23611331 F400
G0 Z5.00000000
G0 X10.8489580 Y158.966187
G0 Z5.00000000
G1 Z-2.24218750 F400
G0 Z5.00000000
G0 X7.31342363 Y162.501740
G0 Z5.00000000
G1 Z-2.24218750 F400
G0 Z5.00000000
G0 X7.31342363 Y169.572784
G0 Z5.00000000
G1 Z-2.24218750 F400
G0 Z5.00000000
G0 X10.8489580 Y166.037262
G0 Z5.00000000
G1 Z-2.24218750 F400
G0 Z5.00000000
G0 X14.3844919 Y162.501740
G0 Z5.00000000
G1 Z-2.24056911 F400
G0 Z5.00000000
G0 X17.9200249 Y158.966187
G0 Z5.00000000
G1 Z-2.05105448 F400
G0 Z5.00000000
G0 X21.4555588 Y155.430664
G0 Z5.00000000
G1 Z-1.29343188 F400
G0 Z5.00000000
G0 X24.9910927 Y151.895142
G0 Z5.00000000
G1 Z-0.738124967 F400
G0 Z5.00000000
G0 X28.5266266 Y148.359589
G0 Z5.00000000
G1 Z-0.672223747 F400
G0 Z5.00000000
G0 X32.0621605 Y144.824066
G0 Z5.00000000
G1 Z-0.646462083 F400
G0 Z5.00000000
G0 X35.5976944 Y141.288513
G0 Z5.00000000
G1 Z-0.584241033 F400
G0 Z5.00000000
G0 X39.1332283 Y137.752991
G0 Z5.00000000
G1 Z-0.618749976 F400
G0 Z5.00000000
G0 X42.6687622 Y134.217468
G0 Z5.00000000
G1 Z-0.714352667 F400
G0 Z5.00000000
G0 X46.2042961 Y130.681915
G0 Z5.00000000
G1 Z-0.754620552 F400
G0 Z5.00000000
G0 X49.7398300 Y127.146393
G0 Z5.00000000
G1 Z-0.695385039 F400
G0 Z5.00000000
G0 X53.2753639 Y123.610870
G0 Z5.00000000
G1 Z-0.595504999 F400
G0 Z5.00000000
G0 X56.8108978 Y120.075317
G0 Z5.00000000
G1 Z-0.502265632 F400
G0 Z5.00000000
G0 X60.3464317 Y116.539795
G0 Z5.00000000
G1 Z-0.500870526 F400
G0 Z5.00000000
G0 X63.8819656 Y113.004242
G0 Z5.00000000
G1 Z-0.526540160 F400
G0 Z5.00000000
G0 X67.4175034 Y109.468719
G0 Z5.00000000
G1 Z-0.545357108 F400
G0 Z5.00000000
G0 X70.9530334 Y105.933197
G0 Z5.00000000
G1 Z-0.595256686 F400
G0 Z5.00000000
G0 X74.4885712 Y102.397644
G0 Z5.00000000
G1 Z-0.682617188 F400
G0 Z5.00000000
G0 X78.0241013 Y98.8621216
G0 Z5.00000000
G1 Z-0.826604366 F400
G0 Z5.00000000
G0 X81.5596390 Y95.3265991
G0 Z5.00000000
G1 Z-1.03779578 F400
G0 Z5.00000000
G0 X85.0951691 Y91.7910461
G0 Z5.00000000
G1 Z-1.40732706 F400
G0 Z5.00000000
G0 X88.6307068 Y88.2555237
G0 Z5.00000000
G1 Z-1.58035421 F400
G0 Z5.00000000
G0 X92.1662369 Y84.7199707
G0 Z5.00000000
G1 Z-1.66893125 F400
G0 Z5.00000000
G0 X95.7017746 Y81.1844482
G0 Z5.00000000
G1 Z-1.69275665 F400
G0 Z5.00000000
G0 X99.2373047 Y77.6489258
G0 Z5.00000000
G1 Z-1.72428560 F400
G0 Z5.00000000
G0 X102.772842 Y74.1133728
G0 Z5.00000000
G1 Z-1.74791849 F400
G0 Z5.00000000
G0 X106.308372 Y70.5778503
G0 Z5.00000000
G1 Z-1.78705359 F400
G0 Z5.00000000
G0 X109.843910 Y67.0423279
G0 Z5.00000000
G1 Z-1.78991067 F400
G0 Z5.00000000
G0 X113.379440 Y63.5067749
G0 Z5.00000000
G1 Z-1.80302453 F400
G0 Z5.00000000
G0 X116.914978 Y59.9712524
G0 Z5.00000000
G1 Z-1.82514501 F400
G0 Z5.00000000
G0 X120.450508 Y56.4356995
G0 Z5.00000000
G1 Z-1.84853792 F400
G0 Z5.00000000
G0 X123.986046 Y52.9001770
G0 Z5.00000000
G1 Z-1.86360478 F400
G0 Z5.00000000
G0 X127.521576 Y49.3646545
G0 Z5.00000000
G1 Z-1.88704240 F400
G0 Z5.00000000
G0 X131.057114 Y45.8291016
G0 Z5.00000000
G1 Z-1.88923812 F400
G0 Z5.00000000
G0 X134.592651 Y42.2935791
G0 Z5.00000000
G1 Z-1.88365781 F400
G0 Z5.00000000
G0 X138.128174 Y38.7580566
G0 Z5.00000000
G1 Z-1.88158762 F400
G0 Z5.00000000
G0 X141.663712 Y35.2225037
G0 Z5.00000000
G1 Z-1.87279010 F400
G0 Z5.00000000
G0 X145.199249 Y31.6869812
G0 Z5.00000000
G1 Z-1.88210940 F400
G0 Z5.00000000
G0 X148.734787 Y28.1514282
G0 Z5.00000000
G1 Z-1.88363826 F400
G0 Z5.00000000
G0 X152.270309 Y24.6159058
G0 Z5.00000000
G1 Z-1.88803005 F400
G0 Z5.00000000
G0 X155.805847 Y21.0803833
G0 Z5.00000000
G1 Z-1.89565003 F400
G0 Z5.00000000
G0 X159.341385 Y17.5448608
G0 Z5.00000000
G1 Z-1.89593744 F400
G0 Z5.00000000
G0 X162.876923 Y14.0092773
G0 Z5.00000000
G1 Z-1.92266750 F400
G0 Z5.00000000
G0 X166.412445 Y10.4737549
G0 Z5.00000000
G1 Z-1.91916299 F400
G0 Z5.00000000
G0 X169.947983 Y6.93823242
G0 Z5.00000000
G1 Z-1.84739113 F400
G0 Z5.00000000
G0 X177.019058 Y6.93823242
G0 Z5.00000000
G1 Z-1.80291581 F400
G0 Z5.00000000
G0 X173.483521 Y10.4737549
G0 Z5.00000000
G1 Z-1.81275940 F400
G0 Z5.00000000
G0 X169.947983 Y14.0092773
G0 Z5.00000000
G1 Z-1.88781798 F400
G0 Z5.00000000
G0 X166.412445 Y17.5448608
G0 Z5.00000000
G1 Z-1.89680243 F400
G0 Z5.00000000
G0 X162.876923 Y21.0803833
G0 Z5.00000000
G1 Z-1.88210368 F400
G0 Z5.00000000
G0 X159.341385 Y24.6159058
G0 Z5.00000000
G1 Z-1.87372756 F400
G0 Z5.00000000
G0 X155.805847 Y28.1514282
G0 Z5.00000000
G1 Z-1.87013674 F400
G0 Z5.00000000
G0 X152.270309 Y31.6869812
G0 Z5.00000000
G1 Z-1.86306357 F400
G0 Z5.00000000
G0 X148.734787 Y35.2225037
G0 Z5.00000000
G1 Z-1.87387836 F400
G0 Z5.00000000
G0 X145.199249 Y38.7580566
G0 Z5.00000000
G1 Z-1.86613834 F400
G0 Z5.00000000
G0 X141.663712 Y42.2935791
G0 Z5.00000000
G1 Z-1.85353792 F400
G0 Z5.00000000
G0 X138.128174 Y45.8291016
G0 Z5.00000000
G1 Z-1.86750829 F400
G0 Z5.00000000
G0 X134.592651 Y49.3646545
G0 Z5.00000000
G1 Z-1.87145364 F400
G0 Z5.00000000
G0 X131.057114 Y52.9001770
G0 Z5.00000000
G1 Z-1.88461494 F400
G0 Z5.00000000
G0 X127.521576 Y56.4356995
G0 Z5.00000000
G1 Z-1.87225437 F400
G0 Z5.00000000
G0 X123.986046 Y59.9712524
G0 Z5.00000000
G1 Z-1.85551333 F400
G0 Z5.00000000
G0 X120.450508 Y63.5067749
G0 Z5.00000000
G1 Z-1.83402896 F400
G0 Z5.00000000
G0 X116.914978 Y67.0423279
G0 Z5.00000000
G1 Z-1.80845976 F400
G0 Z5.00000000
G0 X113.379440 Y70.5778503
G0 Z5.00000000
G1 Z-1.79083419 F400
G0 Z5.00000000
G0 X109.843910 Y74.1133728
G0 Z5.00000000
G1 Z-1.78300226 F400
G0 Z5.00000000
G0 X106.308372 Y77.6489258
G0 Z5.00000000
G1 Z-1.76357973 F400
G0 Z5.00000000
G0 X102.772842 Y81.1844482
G0 Z5.00000000
G1 Z-1.74395084 F400
G0 Z5.00000000
G0 X99.2373047 Y84.7199707
G0 Z5.00000000
G1 Z-1.72265613 F400
G0 Z5.00000000
G0 X95.7017746 Y88.2555237
G0 Z5.00000000
G1 Z-1.68911827 F400
G0 Z5.00000000
G0 X92.1662369 Y91.7910461
G0 Z5.00000000
G1 Z-1.64463162 F400
G0 Z5.00000000
G0 X88.6307068 Y95.3265991
G0 Z5.00000000
G1 Z-1.53035426 F400
G0 Z5.00000000
G0 X85.0951691 Y98.8621216
G0 Z5.00000000
G1 Z-1.25793803 F400
G0 Z5.00000000
G0 X81.5596390 Y102.397644
G0 Z5.00000000
G1 Z-0.911029518 F400
G0 Z5.00000000
G0 X78.0241013 Y105.933197
G0 Z5.00000000
G1 Z-0.720968187 F400
G0 Z5.00000000
G0 X74.4885712 Y109.468719
G0 Z5.00000000
G1 Z-0.624416828 F400
G0 Z5.00000000
G0 X70.9530334 Y113.004242
G0 Z5.00000000
G1 Z-0.567876697 F400
G0 Z5.00000000
G0 X67.4175034 Y116.539795
G0 Z5.00000000
G1 Z-0.534492195 F400
G0 Z5.00000000
G0 X63.8819656 Y120.075317
G0 Z5.00000000
G1 Z-0.512589276 F400
G0 Z5.00000000
G0 X60.3464317 Y123.610870
G0 Z5.00000000
G1 Z-0.487098217 F400
G0 Z5.00000000
G0 X56.8108978 Y127.146393
G0 Z5.00000000
G1 Z-0.504252195 F400
G0 Z5.00000000
G0 X53.2753639 Y130.681915
G0 Z5.00000000
G1 Z-0.625669599 F400
G0 Z5.00000000
G0 X49.7398300 Y134.217468
G0 Z5.00000000
G1 Z-0.687779069 F400
G0 Z5.00000000
G0 X46.2042961 Y137.752991
G0 Z5.00000000
G1 Z-0.763437450 F400
G0 Z5.00000000
G0 X42.6687622 Y141.288513
G0 Z5.00000000
G1 Z-0.781160712 F400
G0 Z5.00000000
G0 X39.1332283 Y144.824066
G0 Z5.00000000
G1 Z-0.660044670 F400
G0 Z5.00000000
G0 X35.5976944 Y148.359589
G0 Z5.00000000
G1 Z-0.639776766 F400
G0 Z5.00000000
G0 X32.0621605 Y151.895142
G0 Z5.00000000
G1 Z-0.679877162 F400
G0 Z5.00000000
G0 X28.5266266 Y155.430664
G0 Z5.00000000
G1 Z-0.656953096 F400
G0 Z5.00000000
G0 X24.9910927 Y158.966187
G0 Z5.00000000
G1 Z-0.781160712 F400
G0 Z5.00000000
G0 X21.4555588 Y162.501740
G0 Z5.00000000
G1 Z-1.44916844 F400
G0 Z5.00000000
G0 X17.9200249 Y166.037262
G0 Z5.00000000
G1 Z-2.06018972 F400
G0 Z5.00000000
G0 X14.3844919 Y169.572784
G0 Z5.00000000
G1 Z-2.23929119 F400
G0 Z5.00000000
G0 X10.8489580 Y173.108337
G0 Z5.00000000
G1 Z-2.24218750 F400
G0 Z5.00000000
G0 X7.31342363 Y176.643860
G0 Z5.00000000
G1 Z-2.24218750 F400
G0 Z5.00000000
G0 X7.31342363 Y183.714935
G0 Z5.00000000
G1 Z-2.24218750 F400
G0 Z5.00000000
G0 X10.8489580 Y180.179413
G0 Z5.00000000
G1 Z-2.24218750 F400
G0 Z5.00000000
G0 X14.3844919 Y176.643860
G0 Z5.00000000
G1 Z-2.23940849 F400
G0 Z5.00000000
G0 X17.9200249 Y173.108337
G0 Z5.00000000
G1 Z-2.08789873 F400
G0 Z5.00000000
G0 X21.4555588 Y169.572784
G0 Z5.00000000
G1 Z-1.52116907 F400
G0 Z5.00000000
G0 X24.9910927 Y166.037262
G0 Z5.00000000
G1 Z-0.792424619 F400
G0 Z5.00000000
G0 X28.5266266 Y162.501740
G0 Z5.00000000
G1 Z-0.667731583 F400
G0 Z5.00000000
G0 X32.0621605 Y158.966187
G0 Z5.00000000
G1 Z-0.725078106 F400
G0 Z5.00000000
G0 X35.5976944 Y155.430664
G0 Z5.00000000
G1 Z-0.728705287 F400
G0 Z5.00000000
G0 X39.1332283 Y151.895142
G0 Z5.00000000
G1 Z-0.664363861 F400
G0 Z5.00000000
G0 X42.6687622 Y148.359589
G0 Z5.00000000
G1 Z-0.845915139 F400
G0 Z5.00000000
G0 X46.2042961 Y144.824066
G0 Z5.00000000
G1 Z-0.810546815 F400
G0 Z5.00000000
G0 X49.7398300 Y141.288513
G0 Z5.00000000
G1 Z-0.704349875 F400
G0 Z5.00000000
G0 X53.2753639 Y137.752991
G0 Z5.00000000
G1 Z-0.673459828 F400
G0 Z5.00000000
G0 X56.8108978 Y134.217468
G0 Z5.00000000
G1 Z-0.525457621 F400
G0 Z5.00000000
G0 X60.3464317 Y130.681915
G0 Z5.00000000
G1 Z-0.479419649 F400
G0 Z5.00000000
G0 X63.8819656 Y127.146393
G0 Z5.00000000
G1 Z-0.491012812 F400
G0 Z5.00000000
G0 X67.4175034 Y123.610870
G0 Z5.00000000
G1 Z-0.512427449 F400
G0 Z5.00000000
G0 X70.9530334 Y120.075317
G0 Z5.00000000
G1 Z-0.518571436 F400
G0 Z5.00000000
G0 X74.4885712 Y116.539795
G0 Z5.00000000
G1 Z-0.586785674 F400
G0 Z5.00000000
G0 X78.0241013 Y113.004242
G0 Z5.00000000
G1 Z-0.662416220 F400
G0 Z5.00000000
G0 X81.5596390 Y109.468719
G0 Z5.00000000
G1 Z-0.809486568 F400
G0 Z5.00000000
G0 X85.0951691 Y105.933197
G0 Z5.00000000
G1 Z-1.11999166 F400
G0 Z5.00000000
G0 X88.6307068 Y102.397644
G0 Z5.00000000
G1 Z-1.44866633 F400
G0 Z5.00000000
G0 X92.1662369 Y98.8621216
G0 Z5.00000000
G1 Z-1.62510598 F400
G0 Z5.00000000
G0 X95.7017746 Y95.3265991
G0 Z5.00000000
G1 Z-1.67669082 F400
G0 Z5.00000000
G0 X99.2373047 Y91.7910461
G0 Z5.00000000
G1 Z-1.71283472 F400
G0 Z5.00000000
G0 X102.772842 Y88.2555237
G0 Z5.00000000
G1 Z-1.73825884 F400
G0 Z5.00000000
G0 X106.308372 Y84.7199707
G0 Z5.00000000
G1 Z-1.73805523 F400
G0 Z5.00000000
G0 X109.843910 Y81.1844482
G0 Z5.00000000
G1 Z-1.75612712 F400
G0 Z5.00000000
G0 X113.379440 Y77.6489258
G0 Z5.00000000
G1 Z-1.76979911 F400
G0 Z5.00000000
G0 X116.914978 Y74.1133728
G0 Z5.00000000
G1 Z-1.79784596 F400
G0 Z5.00000000
G0 X120.450508 Y70.5778503
G0 Z5.00000000
G1 Z-1.81505585 F400
G0 Z5.00000000
G0 X123.986046 Y67.0423279
G0 Z5.00000000
G1 Z-1.83598208 F400
G0 Z5.00000000
G0 X127.521576 Y63.5067749
G0 Z5.00000000
G1 Z-1.86242175 F400
G0 Z5.00000000
G0 X131.057114 Y59.9712524
G0 Z5.00000000
G1 Z-1.87008357 F400
G0 Z5.00000000
G0 X134.592651 Y56.4356995
G0 Z5.00000000
G1 Z-1.86671031 F400
G0 Z5.00000000
G0 X138.128174 Y52.9001770
G0 Z5.00000000
G1 Z-1.84679413 F400
G0 Z5.00000000
G0 X141.663712 Y49.3646545
G0 Z5.00000000
G1 Z-1.84327006 F400
G0 Z5.00000000
G0 X145.199249 Y45.8291016
G0 Z5.00000000
G1 Z-1.84159589 F400
G0 Z5.00000000
G0 X148.734787 Y42.2935791
G0 Z5.00000000
G1 Z-1.84242177 F400
G0 Z5.00000000
G0 X152.270309 Y38.7580566
G0 Z5.00000000
G1 Z-1.84544647 F400
G0 Z5.00000000
G0 X155.805847 Y35.2225037
G0 Z5.00000000
G1 Z-1.83521473 F400
G0 Z5.00000000
G0 X159.341385 Y31.6869812
G0 Z5.00000000
G1 Z-1.84329796 F400
G0 Z5.00000000
G0 X162.876923 Y28.1514282
G0 Z5.00000000
G1 Z-1.85526776 F400
G0 Z5.00000000
G0 X166.412445 Y24.6159058
G0 Z5.00000000
G1 Z-1.87068081 F400
G0 Z5.00000000
G0 X169.947983 Y21.0803833
G0 Z5.00000000
G1 Z-1.88180530 F400
G0 Z5.00000000
G0 X173.483521 Y17.5448608
G0 Z5.00000000
G1 Z-1.86509204 F400
G0 Z5.00000000
G0 X177.019058 Y14.0092773
G0 Z5.00000000
G1 Z-1.77088726 F400
G0 Z5.00000000
G0 X180.554581 Y10.4737549
G0 Z5.00000000
G1 Z-1.76529574 F400
G0 Z5.00000000
G0 X184.090118 Y6.93823242
G0 Z5.00000000
G1 Z-1.49936652 F400
G0 Z5.00000000
G0 X191.161194 Y6.93823242
G0 Z5.00000000
G1 Z-1.22592914 F400
G0 Z5.00000000
G0 X187.625656 Y10.4737549
G0 Z5.00000000
G1 Z-1.32985771 F400
G0 Z5.00000000
G0 X184.090118 Y14.0092773
G0 Z5.00000000
G1 Z-1.68055248 F400
G0 Z5.00000000
G0 X180.554581 Y17.5448608
G0 Z5.00000000
G1 Z-1.73451734 F400
G0 Z5.00000000
G0 X177.019058 Y21.0803833
G0 Z5.00000000
G1 Z-1.85067785 F400
G0 Z5.00000000
G0 X173.483521 Y24.6159058
G0 Z5.00000000
G1 Z-1.84591520 F400
G0 Z5.00000000
G0 X169.947983 Y28.1514282
G0 Z5.00000000
G1 Z-1.82803285 F400
G0 Z5.00000000
G0 X166.412445 Y31.6869812
G0 Z5.00000000
G1 Z-1.81827569 F400
G0 Z5.00000000
G0 X162.876923 Y35.2225037
G0 Z5.00000000
G1 Z-1.81768405 F400
G0 Z5.00000000
G0 X159.341385 Y38.7580566
G0 Z5.00000000
G1 Z-1.81054688 F400
G0 Z5.00000000
G0 X155.805847 Y42.2935791
G0 Z5.00000000
G1 Z-1.80670190 F400
G0 Z5.00000000
G0 X152.270309 Y45.8291016
G0 Z5.00000000
G1 Z-1.81060266 F400
G0 Z5.00000000
G0 X148.734787 Y49.3646545
G0 Z5.00000000
G1 Z-1.81556928 F400
G0 Z5.00000000
G0 X145.199249 Y52.9001770
G0 Z5.00000000
G1 Z-1.82924104 F400
G0 Z5.00000000
G0 X141.663712 Y56.4356995
G0 Z5.00000000
G1 Z-1.83657360 F400
G0 Z5.00000000
G0 X138.128174 Y59.9712524
G0 Z5.00000000
G1 Z-1.84649539 F400
G0 Z5.00000000
G0 X134.592651 Y63.5067749
G0 Z5.00000000
G1 Z-1.86990499 F400
G0 Z5.00000000
G0 X131.057114 Y67.0423279
G0 Z5.00000000
G1 Z-1.86796868 F400
G0 Z5.00000000
G0 X127.521576 Y70.5778503
G0 Z5.00000000
G1 Z-1.86379743 F400
G0 Z5.00000000
G0 X123.986046 Y74.1133728
G0 Z5.00000000
G1 Z-1.83374989 F400
G0 Z5.00000000
G0 X120.450508 Y77.6489258
G0 Z5.00000000
G1 Z-1.81142867 F400
G0 Z5.00000000
G0 X116.914978 Y81.1844482
G0 Z5.00000000
G1 Z-1.78488564 F400
G0 Z5.00000000
G0 X113.379440 Y84.7199707
G0 Z5.00000000
G1 Z-1.76583970 F400
G0 Z5.00000000
G0 X109.843910 Y88.2555237
G0 Z5.00000000
G1 Z-1.74604905 F400
G0 Z5.00000000
G0 X106.308372 Y91.7910461
G0 Z5.00000000
G1 Z-1.72390616 F400
G0 Z5.00000000
G0 X102.772842 Y95.3265991
G0 Z5.00000000
G1 Z-1.70836484 F400
G0 Z5.00000000
G0 X99.2373047 Y98.8621216
G0 Z5.00000000
G1 Z-1.68201733 F400
G0 Z5.00000000
G0 X95.7017746 Y102.397644
G0 Z5.00000000
G1 Z-1.64556921 F400
G0 Z5.00000000
G0 X92.1662369 Y105.933197
G0 Z5.00000000
G1 Z-1.57547987 F400
G0 Z5.00000000
G0 X88.6307068 Y109.468719
G0 Z5.00000000
G1 Z-1.33833981 F400
G0 Z5.00000000
G0 X85.0951691 Y113.004242
G0 Z5.00000000
G1 Z-1.01944470 F400
G0 Z5.00000000
G0 X81.5596390 Y116.539795
G0 Z5.00000000
G1 Z-0.735340357 F400
G0 Z5.00000000
G0 X78.0241013 Y120.075317
G0 Z5.00000000
G1 Z-0.631768942 F400
G0 Z5.00000000
G0 X74.4885712 Y123.610870
G0 Z5.00000000
G1 Z-0.571475983 F400
G0 Z5.00000000
G0 X70.9530334 Y127.146393
G0 Z5.00000000
G1 Z-0.516082585 F400
G0 Z5.00000000
G0 X67.4175034 Y130.681915
G0 Z5.00000000
G1 Z-0.490332007 F400
G0 Z5.00000000
G0 X63.8819656 Y134.217468
G0 Z5.00000000
G1 Z-0.473649561 F400
G0 Z5.00000000
G0 X60.3464317 Y137.752991
G0 Z5.00000000
G1 Z-0.489185274 F400
G0 Z5.00000000
G0 X56.8108978 Y141.288513
G0 Z5.00000000
G1 Z-0.587957621 F400
G0 Z5.00000000
G0 X53.2753639 Y144.824066
G0 Z5.00000000
G1 Z-0.732979894 F400
G0 Z5.00000000
G0 X49.7398300 Y148.359589
G0 Z5.00000000
G1 Z-0.751584828 F400
G0 Z5.00000000
G0 X46.2042961 Y151.895142
G0 Z5.00000000
G1 Z-0.782650650 F400
G0 Z5.00000000
G0 X42.6687622 Y155.430664
G0 Z5.00000000
G1 Z-0.883786261 F400
G0 Z5.00000000
G0 X39.1332283 Y158.966187
G0 Z5.00000000
G1 Z-0.757834792 F400
G0 Z5.00000000
G0 X35.5976944 Y162.501740
G0 Z5.00000000
G1 Z-0.754366636 F400
G0 Z5.00000000
G0 X32.0621605 Y166.037262
G0 Z5.00000000
G1 Z-0.707469344 F400
G0 Z5.00000000
G0 X28.5266266 Y169.572784
G0 Z5.00000000
G1 Z-0.668582559 F400
G0 Z5.00000000
G0 X24.9910927 Y173.108337
G0 Z5.00000000
G1 Z-0.837935269 F400
G0 Z5.00000000
G0 X21.4555588 Y176.643860
G0 Z5.00000000
G1 Z-1.54432750 F400
G0 Z5.00000000
G0 X17.9200249 Y180.179413
G0 Z5.00000000
G1 Z-2.06907368 F400
G0 Z5.00000000
G0 X14.3844919 Y183.714935
G0 Z5.00000000
G1 Z-2.24012828 F400
G0 Z5.00000000
G0 X10.8489580 Y187.250458
G0 Z5.00000000
G1 Z-2.24212885 F400
G0 Z5.00000000
G0 X7.31342363 Y190.786011
G0 Z5.00000000
G1 Z-2.24218750 F400
G0 Z5.00000000
G0 X7.31342363 Y197.857056
G0 Z5.00000000
G1 Z-2.24218750 F400
G0 Z5.00000000
G0 X10.8489580 Y194.321533
G0 Z5.00000000
G1 Z-2.24207020 F400
G0 Z5.00000000
G0 X14.3844919 Y190.786011
G0 Z5.00000000
G1 Z-2.23120260 F400
G0 Z5.00000000
G0 X17.9200249 Y187.250458
G0 Z5.00000000
G1 Z-2.03270650 F400
G0 Z5.00000000
G0 X21.4555588 Y183.714935
G0 Z5.00000000
G1 Z-1.51614666 F400
G0 Z5.00000000
G0 X24.9910927 Y180.179413
G0 Z5.00000000
G1 Z-0.858423531 F400
G0 Z5.00000000
G0 X28.5266266 Y176.643860
G0 Z5.00000000
G1 Z-0.677893400 F400
G0 Z5.00000000
G0 X32.0621605 Y173.108337
G0 Z5.00000000
G1 Z-0.665605426 F400
G0 Z5.00000000
G0 X35.5976944 Y169.572784
G0 Z5.00000000
G1 Z-0.753660738 F400
G0 Z5.00000000
G0 X39.1332283 Y166.037262
G0 Z5.00000000
G1 Z-0.805881679 F400
G0 Z5.00000000
G0 X42.6687622 Y162.501740
G0 Z5.00000000
G1 Z-0.876442492 F400
G0 Z5.00000000
G0 X46.2042961 Y158.966187
G0 Z5.00000000
G1 Z-0.770940244 F400
G0 Z5.00000000
G0 X49.7398300 Y155.430664
G0 Z5.00000000
G1 Z-0.719277322 F400
G0 Z5.00000000
G0 X53.2753639 Y151.895142
G0 Z5.00000000
G1 Z-0.772661805 F400
G0 Z5.00000000
G0 X56.8108978 Y148.359589
G0 Z5.00000000
G1 Z-0.590019524 F400
G0 Z5.00000000
G0 X60.3464317 Y144.824066
G0 Z5.00000000
G1 Z-0.506484389 F400
G0 Z5.00000000
G0 X63.8819656 Y141.288513
G0 Z5.00000000
G1 Z-0.474447548 F400
G0 Z5.00000000
G0 X67.4175034 Y137.752991
G0 Z5.00000000
G1 Z-0.458814144 F400
G0 Z5.00000000
G0 X70.9530334 Y134.217468
G0 Z5.00000000
G1 Z-0.496635020 F400
G0 Z5.00000000
G0 X74.4885712 Y130.681915
G0 Z5.00000000
G1 Z-0.544506133 F400
G0 Z5.00000000
G0 X78.0241013 Y127.146393
G0 Z5.00000000
G1 Z-0.597561359 F400
G0 Z5.00000000
G0 X81.5596390 Y123.610870
G0 Z5.00000000
G1 Z-0.700019538 F400
G0 Z5.00000000
G0 X85.0951691 Y120.075317
G0 Z5.00000000
G1 Z-0.884944201 F400
G0 Z5.00000000
G0 X88.6307068 Y116.539795
G0 Z5.00000000
G1 Z-1.22851288 F400
G0 Z5.00000000
G0 X92.1662369 Y113.004242
G0 Z5.00000000
G1 Z-1.52431357 F400
G0 Z5.00000000
G0 X95.7017746 Y109.468719
G0 Z5.00000000
G1 Z-1.62101567 F400
G0 Z5.00000000
G0 X99.2373047 Y105.933197
G0 Z5.00000000
G1 Z-1.66175210 F400
G0 Z5.00000000
G0 X102.772842 Y102.397644
G0 Z5.00000000
G1 Z-1.68364954 F400
G0 Z5.00000000
G0 X106.308372 Y98.8621216
G0 Z5.00000000
G1 Z-1.70704520 F400
G0 Z5.00000000
G0 X109.843910 Y95.3265991
G0 Z5.00000000
G1 Z-1.72763383 F400
G0 Z5.00000000
G0 X113.379440 Y91.7910461
G0 Z5.00000000
G1 Z-1.74565291 F400
G0 Z5.00000000
G0 X116.914978 Y88.2555237
G0 Z5.00000000
G1 Z-1.77917957 F400
G0 Z5.00000000
G0 X120.450508 Y84.7199707
G0 Z5.00000000
G1 Z-1.80498886 F400
G0 Z5.00000000
G0 X123.986046 Y81.1844482
G0 Z5.00000000
G1 Z-1.82482135 F400
G0 Z5.00000000
G0 X127.521576 Y77.6489258
G0 Z5.00000000
G1 Z-1.85209262 F400
G0 Z5.00000000
G0 X131.057114 Y74.1133728
G0 Z5.00000000
G1 Z-1.86345136 F400
G0 Z5.00000000
G0 X134.592651 Y70.5778503
G0 Z5.00000000
G1 Z-1.85949492 F400
G0 Z5.00000000
G0 X138.128174 Y67.0423279
G0 Z5.00000000
G1 Z-1.84585369 F400
G0 Z5.00000000
G0 X141.663712 Y63.5067749
G0 Z5.00000000
G1 Z-1.82954240 F400
G0 Z5.00000000
G0 X145.199249 Y59.9712524
G0 Z5.00000000
G1 Z-1.82296872 F400
G0 Z5.00000000
G0 X148.734787 Y56.4356995
G0 Z5.00000000
G1 Z-1.81696427 F400
G0 Z5.00000000
G0 X152.270309 Y52.9001770
G0 Z5.00000000
G1 Z-1.80078125 F400
G0 Z5.00000000
G0 X155.805847 Y49.3646545
G0 Z5.00000000
G1 Z-1.78948104 F400
G0 Z5.00000000
G0 X159.341385 Y45.8291016
G0 Z5.00000000
G1 Z-1.78013384 F400
G0 Z5.00000000
G0 X162.876923 Y42.2935791
G0 Z5.00000000
G1 Z-1.77929688 F400
G0 Z5.00000000
G0 X166.412445 Y38.7580566
G0 Z5.00000000
G1 Z-1.78839278 F400
G0 Z5.00000000
G0 X169.947983 Y35.2225037
G0 Z5.00000000
G1 Z-1.79706752 F400
G0 Z5.00000000
G0 X173.483521 Y31.6869812
G0 Z5.00000000
G1 Z-1.79321420 F400
G0 Z5.00000000
G0 X177.019058 Y28.1514282
G0 Z5.00000000
G1 Z-1.80632806 F400
G0 Z5.00000000
G0 X180.554581 Y24.6159058
G0 Z5.00000000
G1 Z-1.82554948 F400
G0 Z5.00000000
G0 X184.090118 Y21.0803833
G0 Z5.00000000
G1 Z-1.73383927 F400
G0 Z5.00000000
G0 X187.625656 Y17.5448608
G0 Z5.00000000
G1 Z-1.62010872 F400
G0 Z5.00000000
G0 X191.161194 Y14.0092773
G0 Z5.00000000
G1 Z-1.20909882 F400
G0 Z5.00000000
G0 X194.696716 Y10.4737549
G0 Z5.00000000
G1 Z-1.00454795 F400
G0 Z5.00000000
G0 X198.232254 Y6.93823242
G0 Z5.00000000
G1 Z-0.807647824 F400
G0 Z5.00000000
G0 X205.303329 Y6.93823242
G0 Z5.00000000
G1 Z-0.429748893 F400
G0 Z5.00000000
G0 X201.767792 Y10.4737549
G0 Z5.00000000
G1 Z-0.629006684 F400
G0 Z5.00000000
G0 X198.232254 Y14.0092773
G0 Z5.00000000
G1 Z-0.955128312 F400
G0 Z5.00000000
G0 X194.696716 Y17.5448608
G0 Z5.00000000
G1 Z-0.989659548 F400
G0 Z5.00000000
G0 X191.161194 Y21.0803833
G0 Z5.00000000
G1 Z-1.54847372 F400
G0 Z5.00000000
G0 X187.625656 Y24.6159058
G0 Z5.00000000
G1 Z-1.70515060 F400
G0 Z5.00000000
G0 X184.090118 Y28.1514282
G0 Z5.00000000
G1 Z-1.78414905 F400
G0 Z5.00000000
G0 X180.554581 Y31.6869812
G0 Z5.00000000
G1 Z-1.76138663 F400
G0 Z5.00000000
G0 X177.019058 Y35.2225037
G0 Z5.00000000
G1 Z-1.73828387 F400
G0 Z5.00000000
G0 X173.483521 Y38.7580566
G0 Z5.00000000
G1 Z-1.75486040 F400
G0 Z5.00000000
G0 X169.947983 Y42.2935791
G0 Z5.00000000
G1 Z-1.76111877 F400
G0 Z5.00000000
G0 X166.412445 Y45.8291016
G0 Z5.00000000
G1 Z-1.76921308 F400
G0 Z5.00000000
G0 X162.876923 Y49.3646545
G0 Z5.00000000
G1 Z-1.77427447 F400
G0 Z5.00000000
G0 X159.341385 Y52.9001770
G0 Z5.00000000
G1 Z-1.78292406 F400
G0 Z5.00000000
G0 X155.805847 Y56.4356995
G0 Z5.00000000
G1 Z-1.78473771 F400
G0 Z5.00000000
G0 X152.270309 Y59.9712524
G0 Z5.00000000
G1 Z-1.80311382 F400
G0 Z5.00000000
G0 X148.734787 Y63.5067749
G0 Z5.00000000
G1 Z-1.81786835 F400
G0 Z5.00000000
G0 X145.199249 Y67.0423279
G0 Z5.00000000
G1 Z-1.82093751 F400
G0 Z5.00000000
G0 X141.663712 Y70.5778503
G0 Z5.00000000
G1 Z-1.82854903 F400
G0 Z5.00000000
G0 X138.128174 Y74.1133728
G0 Z5.00000000
G1 Z-1.83482420 F400
G0 Z5.00000000
G0 X134.592651 Y77.6489258
G0 Z5.00000000
G1 Z-1.84620249 F400
G0 Z5.00000000
G0 X131.057114 Y81.1844482
G0 Z5.00000000
G1 Z-1.85215402 F400
G0 Z5.00000000
G0 X127.521576 Y84.7199707
G0 Z5.00000000
G1 Z-1.85189164 F400
G0 Z5.00000000
G0 X123.986046 Y88.2555237
G0 Z5.00000000
G1 Z-1.82355464 F400
G0 Z5.00000000
G0 X120.450508 Y91.7910461
G0 Z5.00000000
G1 Z-1.79758930 F400
G0 Z5.00000000
G0 X116.914978 Y95.3265991
G0 Z5.00000000
G1 Z-1.76333702 F400
G0 Z5.00000000
G0 X113.379440 Y98.8621216
G0 Z5.00000000
G1 Z-1.73042405 F400
G0 Z5.00000000
G0 X109.843910 Y102.397644
G0 Z5.00000000
G1 Z-1.71563601 F400
G0 Z5.00000000
G0 X106.308372 Y105.933197
G0 Z5.00000000
G1 Z-1.68695593 F400
G0 Z5.00000000
G0 X102.772842 Y109.468719
G0 Z5.00000000
G1 Z-1.66113281 F400
G0 Z5.00000000
G0 X99.2373047 Y113.004242
G0 Z5.00000000
G1 Z-1.62464285 F400
G0 Z5.00000000
G0 X95.7017746 Y116.539795
G0 Z5.00000000
G1 Z-1.58334816 F400
G0 Z5.00000000
G0 X92.1662369 Y120.075317
G0 Z5.00000000
G1 Z-1.44172430 F400
G0 Z5.00000000
G0 X88.6307068 Y123.610870
G0 Z5.00000000
G1 Z-1.06688333 F400
G0 Z5.00000000
G0 X85.0951691 Y127.146393
G0 Z5.00000000
G1 Z-0.837209761 F400
G0 Z5.00000000
G0 X81.5596390 Y130.681915
G0 Z5.00000000
G1 Z-0.635764480 F400
G0 Z5.00000000
G0 X78.0241013 Y134.217468
G0 Z5.00000000
G1 Z-0.576054692 F400
G0 Z5.00000000
G0 X74.4885712 Y137.752991
G0 Z5.00000000
G1 Z-0.516768932 F400
G0 Z5.00000000
G0 X70.9530334 Y141.288513
G0 Z5.00000000
G1 Z-0.471841514 F400
G0 Z5.00000000
G0 X67.4175034 Y144.824066
G0 Z5.00000000
G1 Z-0.468624443 F400
G0 Z5.00000000
G0 X63.8819656 Y148.359589
G0 Z5.00000000
G1 Z-0.502045155 F400
G0 Z5.00000000
G0 X60.3464317 Y151.895142
G0 Z5.00000000
G1 Z-0.548270106 F400
G0 Z5.00000000
G0 X56.8108978 Y155.430664
G0 Z5.00000000
G1 Z-0.655993283 F400
G0 Z5.00000000
G0 X53.2753639 Y158.966187
G0 Z5.00000000
G1 Z-0.764453113 F400
G0 Z5.00000000
G0 X49.7398300 Y162.501740
G0 Z5.00000000
G1 Z-0.743230999 F400
G0 Z5.00000000
G0 X46.2042961 Y166.037262
G0 Z5.00000000
G1 Z-0.751099288 F400
G0 Z5.00000000
G0 X42.6687622 Y169.572784
G0 Z5.00000000
G1 Z-0.881958663 F400
G0 Z5.00000000
G0 X39.1332283 Y173.108337
G0 Z5.00000000
G1 Z-0.873345375 F400
G0 Z5.00000000
G0 X35.5976944 Y176.643860
G0 Z5.00000000
G1 Z-0.771484375 F400
G0 Z5.00000000
G0 X32.0621605 Y180.179413
G0 Z5.00000000
G1 Z-0.659620523 F400
G0 Z5.00000000
G0 X28.5266266 Y183.714935
G0 Z5.00000000
G1 Z-0.681286275 F400
G0 Z5.00000000
G0 X24.9910927 Y187.250458
G0 Z5.00000000
G1 Z-0.829506159 F400
G0 Z5.00000000
G0 X21.4555588 Y190.786011
G0 Z5.00000000
G1 Z-1.41665459 F400
G0 Z5.00000000
G0 X17.9200249 Y194.321533
G0 Z5.00000000
G1 Z-2.01736307 F400
G0 Z5.00000000
G0 X14.3844919 Y197.857056
G0 Z5.00000000
G1 Z-2.22986603 F400
G0 Z5.00000000
G0 X10.8489580 Y201.392609
G0 Z5.00000000
G1 Z-2.24207020 F400
G0 Z5.00000000
G0 X7.31342363 Y204.928131
G0 Z5.00000000
G1 Z-2.24218750 F400
G0 Z5.00000000
G0 X7.31342363 Y211.999207
G0 Z5.00000000
G1 Z-2.24218750 F400
G0 Z5.00000000
G0 X10.8489580 Y208.463684
G0 Z5.00000000
G1 Z-2.24207020 F400
G0 Z5.00000000
G0 X14.3844919 Y204.928131
G0 Z5.00000000
G1 Z-2.22257519 F400
G0 Z5.00000000
G0 X17.9200249 Y201.392609
G0 Z5.00000000
G1 Z-1.94438612 F400
G0 Z5.00000000
G0 X21.4555588 Y197.857056
G0 Z5.00000000
G1 Z-1.34494698 F400
G0 Z5.00000000
G0 X24.9910927 Y194.321533
G0 Z5.00000000
G1 Z-0.803007782 F400
G0 Z5.00000000
G0 X28.5266266 Y190.786011
G0 Z5.00000000
G1 Z-0.698830903 F400
G0 Z5.00000000
G0 X32.0621605 Y187.250458
G0 Z5.00000000
G1 Z-0.654126644 F400
G0 Z5.00000000
G0 X35.5976944 Y183.714935
G0 Z5.00000000
G1 Z-0.819171309 F400
G0 Z5.00000000
G0 X39.1332283 Y180.179413
G0 Z5.00000000
G1 Z-0.929963708 F400
G0 Z5.00000000
G0 X42.6687622 Y176.643860
G0 Z5.00000000
G1 Z-0.910145044 F400
G0 Z5.00000000
G0 X46.2042961 Y173.108337
G0 Z5.00000000
G1 Z-0.760212064 F400
G0 Z5.00000000
G0 X49.7398300 Y169.572784
G0 Z5.00000000
G1 Z-0.715039015 F400
G0 Z5.00000000
G0 X53.2753639 Y166.037262
G0 Z5.00000000
G1 Z-0.739015043 F400
G0 Z5.00000000
G0 X56.8108978 Y162.501740
G0 Z5.00000000
G1 Z-0.713973165 F400
G0 Z5.00000000
G0 X60.3464317 Y158.966187
G0 Z5.00000000
G1 Z-0.615535736 F400
G0 Z5.00000000
G0 X63.8819656 Y155.430664
G0 Z5.00000000
G1 Z-0.560306907 F400
G0 Z5.00000000
G0 X67.4175034 Y151.895142
G0 Z5.00000000
G1 Z-0.492486060 F400
G0 Z5.00000000
G0 X70.9530334 Y148.359589
G0 Z5.00000000
G1 Z-0.481269538 F400
G0 Z5.00000000
G0 X74.4885712 Y144.824066
G0 Z5.00000000
G1 Z-0.501138389 F400
G0 Z5.00000000
G0 X78.0241013 Y141.288513
G0 Z5.00000000
G1 Z-0.571690857 F400
G0 Z5.00000000
G0 X81.5596390 Y137.752991
G0 Z5.00000000
G1 Z-0.616210938 F400
G0 Z5.00000000
G0 X85.0951691 Y134.217468
G0 Z5.00000000
G1 Z-0.750220418 F400
G0 Z5.00000000
G0 X88.6307068 Y130.681915
G0 Z5.00000000
G1 Z-0.982857168 F400
G0 Z5.00000000
G0 X92.1662369 Y127.146393
G0 Z5.00000000
G1 Z-1.33690846 F400
G0 Z5.00000000
G0 X95.7017746 Y123.610870
G0 Z5.00000000
G1 Z-1.51795208 F400
G0 Z5.00000000
G0 X99.2373047 Y120.075317
G0 Z5.00000000
G1 Z-1.58279014 F400
G0 Z5.00000000
G0 X102.772842 Y116.539795
G0 Z5.00000000
G1 Z-1.62640619 F400
G0 Z5.00000000
G0 X106.308372 Y113.004242
G0 Z5.00000000
G1 Z-1.66246367 F400
G0 Z5.00000000
G0 X109.843910 Y109.468719
G0 Z5.00000000
G1 Z-1.69399822 F400
G0 Z5.00000000
G0 X113.379440 Y105.933197
G0 Z5.00000000
G1 Z-1.72512281 F400
G0 Z5.00000000
G0 X116.914978 Y102.397644
G0 Z5.00000000
G1 Z-1.76058590 F400
G0 Z5.00000000
G0 X120.450508 Y98.8621216
G0 Z5.00000000
G1 Z-1.78487170 F400
G0 Z5.00000000
G0 X123.986046 Y95.3265991
G0 Z5.00000000
G1 Z-1.80314171 F400
G0 Z5.00000000
G0 X127.521576 Y91.7910461
G0 Z5.00000000
G1 Z-1.82213163 F400
G0 Z5.00000000
G0 X131.057114 Y88.2555237
G0 Z5.00000000
G1 Z-1.82393980 F400
G0 Z5.00000000
G0 X134.592651 Y84.7199707
G0 Z5.00000000
G1 Z-1.81998050 F400
G0 Z5.00000000
G0 X138.128174 Y81.1844482
G0 Z5.00000000
G1 Z-1.81398714 F400
G0 Z5.00000000
G0 X141.663712 Y77.6489258
G0 Z5.00000000
G1 Z-1.79996920 F400
G0 Z5.00000000
G0 X145.199249 Y74.1133728
G0 Z5.00000000
G1 Z-1.80791008 F400
G0 Z5.00000000
G0 X148.734787 Y70.5778503
G0 Z5.00000000
G1 Z-1.81053007 F400
G0 Z5.00000000
G0 X152.270309 Y67.0423279
G0 Z5.00000000
G1 Z-1.80191970 F400
G0 Z5.00000000
G0 X155.805847 Y63.5067749
G0 Z5.00000000
G1 Z-1.79470420 F400
G0 Z5.00000000
G0 X159.341385 Y59.9712524
G0 Z5.00000000
G1 Z-1.78571427 F400
G0 Z5.00000000
G0 X162.876923 Y56.4356995
G0 Z5.00000000
G1 Z-1.78571427 F400
G0 Z5.00000000
G0 X166.412445 Y52.9001770
G0 Z5.00000000
G1 Z-1.77302444 F400
G0 Z5.00000000
G0 X169.947983 Y49.3646545
G0 Z5.00000000
G1 Z-1.75215673 F400
G0 Z5.00000000
G0 X173.483521 Y45.8291016
G0 Z5.00000000
G1 Z-1.73944747 F400
G0 Z5.00000000
G0 X177.019058 Y42.2935791
G0 Z5.00000000
G1 Z-1.73782921 F400
G0 Z5.00000000
G0 X180.554581 Y38.7580566
G0 Z5.00000000
G1 Z-1.71089566 F400
G0 Z5.00000000
G0 X184.090118 Y35.2225037
G0 Z5.00000000
G1 Z-1.71146202 F400
G0 Z5.00000000
G0 X187.625656 Y31.6869812
G0 Z5.00000000
G1 Z-1.72628903 F400
G0 Z5.00000000
G0 X191.161194 Y28.1514282
G0 Z5.00000000
G1 Z-1.66760600 F400
G0 Z5.00000000
G0 X194.696716 Y24.6159058
G0 Z5.00000000
G1 Z-1.44836485 F400
G0 Z5.00000000
G0 X198.232254 Y21.0803833
G0 Z5.00000000
G1 Z-0.945697546 F400
G0 Z5.00000000
G0 X201.767792 Y17.5448608
G0 Z5.00000000
G1 Z-0.736612678 F400
G0 Z5.00000000
G0 X205.303329 Y14.0092773
G0 Z5.00000000
G1 Z-0.442393959 F400
G0 Z5.00000000
G0 X208.838852 Y10.4737549
G0 Z5.00000000
G1 Z-0.439112723 F400
G0 Z5.00000000
G0 X212.374390 Y6.93823242
G0 Z5.00000000
G1 Z-0.437073112 F400
G0 Z5.00000000
G0 X219.445465 Y6.93823242
G0 Z5.00000000
G1 Z-0.439698637 F400
G0 Z5.00000000
G0 X215.909927 Y10.4737549
G0 Z5.00000000
G1 Z-0.432446986 F400
G0 Z5.00000000
G0 X212.374390 Y14.0092773
G0 Z5.00000000
G1 Z-0.456498325 F400
G0 Z5.00000000
G0 X208.838852 Y17.5448608
G0 Z5.00000000
G1 Z-0.447809696 F400
G0 Z5.00000000
G0 X205.303329 Y21.0803833
G0 Z5.00000000
G1 Z-0.560803533 F400
G0 Z5.00000000
G0 X201.767792 Y24.6159058
G0 Z5.00000000
G1 Z-0.805733800 F400
G0 Z5.00000000
G0 X198.232254 Y28.1514282
G0 Z5.00000000
G1 Z-1.32372200 F400
G0 Z5.00000000
G0 X194.696716 Y31.6869812
G0 Z5.00000000
G1 Z-1.60008645 F400
G0 Z5.00000000
G0 X191.161194 Y35.2225037
G0 Z5.00000000
G1 Z-1.69071424 F400
G0 Z5.00000000
G0 X187.625656 Y38.7580566
G0 Z5.00000000
G1 Z-1.66851008 F400
G0 Z5.00000000
G0 X184.090118 Y42.2935791
G0 Z5.00000000
G1 Z-1.68032908 F400
G0 Z5.00000000
G0 X180.554581 Y45.8291016
G0 Z5.00000000
G1 Z-1.71481025 F400
G0 Z5.00000000
G0 X177.019058 Y49.3646545
G0 Z5.00000000
G1 Z-1.71698380 F400
G0 Z5.00000000
G0 X173.483521 Y52.9001770
G0 Z5.00000000
G1 Z-1.76110208 F400
G0 Z5.00000000
G0 X169.947983 Y56.4356995
G0 Z5.00000000
G1 Z-1.78023160 F400
G0 Z5.00000000
G0 X166.412445 Y59.9712524
G0 Z5.00000000
G1 Z-1.78282630 F400
G0 Z5.00000000
G0 X162.876923 Y63.5067749
G0 Z5.00000000
G1 Z-1.77566957 F400
G0 Z5.00000000
G0 X159.341385 Y67.0423279
G0 Z5.00000000
G1 Z-1.78208697 F400
G0 Z5.00000000
G0 X155.805847 Y70.5778503
G0 Z5.00000000
G1 Z-1.79162943 F400
G0 Z5.00000000
G0 X152.270309 Y74.1133728
G0 Z5.00000000
G1 Z-1.79031515 F400
G0 Z5.00000000
G0 X148.734787 Y77.6489258
G0 Z5.00000000
G1 Z-1.78371644 F400
G0 Z5.00000000
G0 X145.199249 Y81.1844482
G0 Z5.00000000
G1 Z-1.78125000 F400
G0 Z5.00000000
G0 X141.663712 Y84.7199707
G0 Z5.00000000
G1 Z-1.79355192 F400
G0 Z5.00000000
G0 X138.128174 Y88.2555237
G0 Z5.00000000
G1 Z-1.79883933 F400
G0 Z5.00000000
G0 X134.592651 Y91.7910461
G0 Z5.00000000
G1 Z-1.79716504 F400
G0 Z5.00000000
G0 X131.057114 Y95.3265991
G0 Z5.00000000
G1 Z-1.80170202 F400
G0 Z5.00000000
G0 X127.521576 Y98.8621216
G0 Z5.00000000
G1 Z-1.79810536 F400
G0 Z5.00000000
G0 X123.986046 Y102.397644
G0 Z5.00000000
G1 Z-1.77930796 F400
G0 Z5.00000000
G0 X120.450508 Y105.933197
G0 Z5.00000000
G1 Z-1.76842630 F400
G0 Z5.00000000
G0 X116.914978 Y109.468719
G0 Z5.00000000
G1 Z-1.74844027 F400
G0 Z5.00000000
G0 X113.379440 Y113.004242
G0 Z5.00000000
G1 Z-1.70588171 F400
G0 Z5.00000000
G0 X109.843910 Y116.539795
G0 Z5.00000000
G1 Z-1.67046869 F400
G0 Z5.00000000
G0 X106.308372 Y120.075317
G0 Z5.00000000
G1 Z-1.62419367 F400
G0 Z5.00000000
G0 X102.772842 Y123.610870
G0 Z5.00000000
G1 Z-1.58947265 F400
G0 Z5.00000000
G0 X99.2373047 Y127.146393
G0 Z5.00000000
G1 Z-1.54635322 F400
G0 Z5.00000000
G0 X95.7017746 Y130.681915
G0 Z5.00000000
G1 Z-1.43115509 F400
G0 Z5.00000000
G0 X92.1662369 Y134.217468
G0 Z5.00000000
G1 Z-1.22478795 F400
G0 Z5.00000000
G0 X88.6307068 Y137.752991
G0 Z5.00000000
G1 Z-0.866077006 F400
G0 Z5.00000000
G0 X85.0951691 Y141.288513
G0 Z5.00000000
G1 Z-0.674458683 F400
G0 Z5.00000000
G0 X81.5596390 Y144.824066
G0 Z5.00000000
G1 Z-0.581886172 F400
G0 Z5.00000000
G0 X78.0241013 Y148.359589
G0 Z5.00000000
G1 Z-0.536258340 F400
G0 Z5.00000000
G0 X74.4885712 Y151.895142
G0 Z5.00000000
G1 Z-0.556456447 F400
G0 Z5.00000000
G0 X70.9530334 Y155.430664
G0 Z5.00000000
G1 Z-0.539115489 F400
G0 Z5.00000000
G0 X67.4175034 Y158.966187
G0 Z5.00000000
G1 Z-0.529316425 F400
G0 Z5.00000000
G0 X63.8819656 Y162.501740
G0 Z5.00000000
G1 Z-0.619631648 F400
G0 Z5.00000000
G0 X60.3464317 Y166.037262
G0 Z5.00000000
G1 Z-0.700803518 F400
G0 Z5.00000000
G0 X56.8108978 Y169.572784
G0 Z5.00000000
G1 Z-0.736517787 F400
G0 Z5.00000000
G0 X53.2753639 Y173.108337
G0 Z5.00000000
G1 Z-0.722843170 F400
G0 Z5.00000000
G0 X49.7398300 Y176.643860
G0 Z5.00000000
G1 Z-0.744762838 F400
G0 Z5.00000000
G0 X46.2042961 Y180.179413
G0 Z5.00000000
G1 Z-0.801428556 F400
G0 Z5.00000000
G0 X42.6687622 Y183.714935
G0 Z5.00000000
G1 Z-0.868571460 F400
G0 Z5.00000000
G0 X39.1332283 Y187.250458
G0 Z5.00000000
G1 Z-0.918197513 F400
G0 Z5.00000000
G0 X35.5976944 Y190.786011
G0 Z5.00000000
G1 Z-0.792064726 F400
G0 Z5.00000000
G0 X32.0621605 Y194.321533
G0 Z5.00000000
G1 Z-0.674896777 F400
G0 Z5.00000000
G0 X28.5266266 Y197.857056
G0 Z5.00000000
G1 Z-0.705610991 F400
G0 Z5.00000000
G0 X24.9910927 Y201.392609
G0 Z5.00000000
G1 Z-0.772804141 F400
G0 Z5.00000000
G0 X21.4555588 Y204.928131
G0 Z5.00000000
G1 Z-1.18506968 F400
G0 Z5.00000000
G0 X17.9200249 Y208.463684
G0 Z5.00000000
G1 Z-1.83023143 F400
G0 Z5.00000000
G0 X14.3844919 Y211.999207
G0 Z5.00000000
G1 Z-2.22128057 F400
G0 Z5.00000000
G0 X10.8489580 Y215.534729
G0 Z5.00000000
G1 Z-2.24218750 F400
G0 Z5.00000000
G0 X7.31342363 Y219.070282
G0 Z5.00000000
G1 Z-2.24162960 F400
G0 Z5.00000000
G0 X7.31342363 Y226.141327
G0 Z5.00000000
G1 Z-2.23896480 F400
G0 Z5.00000000
G0 X10.8489580 Y222.605804
G0 Z5.00000000
G1 Z-2.23437500 F400
G0 Z5.00000000
G0 X14.3844919 Y219.070282
G0 Z5.00000000
G1 Z-2.19036531 F400
G0 Z5.00000000
G0 X17.9200249 Y215.534729
G0 Z5.00000000
G1 Z-1.71222937 F400
G0 Z5.00000000
G0 X21.4555588 Y211.999207
G0 Z5.00000000
G1 Z-1.05391192 F400
G0 Z5.00000000
G0 X24.9910927 Y208.463684
G0 Z5.00000000
G1 Z-0.746423006 F400
G0 Z5.00000000
G0 X28.5266266 Y204.928131
G0 Z5.00000000
G1 Z-0.718420744 F400
G0 Z5.00000000
G0 X32.0621605 Y201.392609
G0 Z5.00000000
G1 Z-0.719430804 F400
G0 Z5.00000000
G0 X35.5976944 Y197.857056
G0 Z5.00000000
G1 Z-0.789054155 F400
G0 Z5.00000000
G0 X39.1332283 Y194.321533
G0 Z5.00000000
G1 Z-0.888420701 F400
G0 Z5.00000000
G0 X42.6687622 Y190.786011
G0 Z5.00000000
G1 Z-0.883331478 F400
G0 Z5.00000000
G0 X46.2042961 Y187.250458
G0 Z5.00000000
G1 Z-0.726704776 F400
G0 Z5.00000000
G0 X49.7398300 Y183.714935
G0 Z5.00000000
G1 Z-0.756143987 F400
G0 Z5.00000000
G0 X53.2753639 Y180.179413
G0 Z5.00000000
G1 Z-0.769363821 F400
G0 Z5.00000000
G0 X56.8108978 Y176.643860
G0 Z5.00000000
G1 Z-0.768702567 F400
G0 Z5.00000000
G0 X60.3464317 Y173.108337
G0 Z5.00000000
G1 Z-0.730184138 F400
G0 Z5.00000000
G0 X63.8819656 Y169.572784
G0 Z5.00000000
G1 Z-0.641735494 F400
G0 Z5.00000000
G0 X67.4175034 Y166.037262
G0 Z5.00000000
G1 Z-0.575064182 F400
G0 Z5.00000000
G0 X70.9530334 Y162.501740
G0 Z5.00000000
G1 Z-0.588412404 F400
G0 Z5.00000000
G0 X74.4885712 Y158.966187
G0 Z5.00000000
G1 Z-0.524090409 F400
G0 Z5.00000000
G0 X78.0241013 Y155.430664
G0 Z5.00000000
G1 Z-0.556261182 F400
G0 Z5.00000000
G0 X81.5596390 Y151.895142
G0 Z5.00000000
G1 Z-0.572000563 F400
G0 Z5.00000000
G0 X85.0951691 Y148.359589
G0 Z5.00000000
G1 Z-0.625086486 F400
G0 Z5.00000000
G0 X88.6307068 Y144.824066
G0 Z5.00000000
G1 Z-0.777491629 F400
G0 Z5.00000000
G0 X92.1662369 Y141.288513
G0 Z5.00000000
G1 Z-1.12274265 F400
G0 Z5.00000000
G0 X95.7017746 Y137.752991
G0 Z5.00000000
G1 Z-1.34828675 F400
G0 Z5.00000000
G0 X99.2373047 Y134.217468
G0 Z5.00000000
G1 Z-1.49892020 F400
G0 Z5.00000000
G0 X102.772842 Y130.681915
G0 Z5.00000000
G1 Z-1.56758928 F400
G0 Z5.00000000
G0 X106.308372 Y127.146393
G0 Z5.00000000
G1 Z-1.60888386 F400
G0 Z5.00000000
G0 X109.843910 Y123.610870
G0 Z5.00000000
G1 Z-1.64861596 F400
G0 Z5.00000000
G0 X113.379440 Y120.075317
G0 Z5.00000000
G1 Z-1.68746650 F400
G0 Z5.00000000
G0 X116.914978 Y116.539795
G0 Z5.00000000
G1 Z-1.72664344 F400
G0 Z5.00000000
G0 X120.450508 Y113.004242
G0 Z5.00000000
G1 Z-1.75334811 F400
G0 Z5.00000000
G0 X123.986046 Y109.468719
G0 Z5.00000000
G1 Z-1.77205920 F400
G0 Z5.00000000
G0 X127.521576 Y105.933197
G0 Z5.00000000
G1 Z-1.77555239 F400
G0 Z5.00000000
G0 X131.057114 Y102.397644
G0 Z5.00000000
G1 Z-1.77787113 F400
G0 Z5.00000000
G0 X134.592651 Y98.8621216
G0 Z5.00000000
G1 Z-1.77105749 F400
G0 Z5.00000000
G0 X138.128174 Y95.3265991
G0 Z5.00000000
G1 Z-1.76608825 F400
G0 Z5.00000000
G0 X141.663712 Y91.7910461
G0 Z5.00000000
G1 Z-1.77960098 F400
G0 Z5.00000000
G0 X145.199249 Y88.2555237
G0 Z5.00000000
G1 Z-1.78125000 F400
G0 Z5.00000000
G0 X148.734787 Y84.7199707
G0 Z5.00000000
G1 Z-1.77199769 F400
G0 Z5.00000000
G0 X152.270309 Y81.1844482
G0 Z5.00000000
G1 Z-1.78569746 F400
G0 Z5.00000000
G0 X155.805847 Y77.6489258
G0 Z5.00000000
G1 Z-1.78746939 F400
G0 Z5.00000000
G0 X159.341385 Y74.1133728
G0 Z5.00000000
G1 Z-1.78534031 F400
G0 Z5.00000000
G0 X162.876923 Y70.5778503
G0 Z5.00000000
G1 Z-1.78026783 F400
G0 Z5.00000000
G0 X166.412445 Y67.0423279
G0 Z5.00000000
G1 Z-1.77092636 F400
G0 Z5.00000000
G0 X169.947983 Y63.5067749
G0 Z5.00000000
G1 Z-1.77120531 F400
G0 Z5.00000000
G0 X173.483521 Y59.9712524
G0 Z5.00000000
G1 Z-1.77453947 F400
G0 Z5.00000000
G0 X177.019058 Y56.4356995
G0 Z5.00000000
G1 Z-1.75239396 F400
G0 Z5.00000000
G0 X180.554581 Y52.9001770
G0 Z5.00000000
G1 Z-1.71686387 F400
G0 Z5.00000000
G0 X184.090118 Y49.3646545
G0 Z5.00000000
G1 Z-1.69658470 F400
G0 Z5.00000000
G0 X187.625656 Y45.8291016
G0 Z5.00000000
G1 Z-1.64582586 F400
G0 Z5.00000000
G0 X191.161194 Y42.2935791
G0 Z5.00000000
G1 Z-1.62259483 F400
G0 Z5.00000000
G0 X194.696716 Y38.7580566
G0 Z5.00000000
G1 Z-1.64373875 F400
G0 Z5.00000000
G0 X198.232254 Y35.2225037
G0 Z5.00000000
G1 Z-1.42196143 F400
G0 Z5.00000000
G0 X201.767792 Y31.6869812
G0 Z5.00000000
G1 Z-0.913752794 F400
G0 Z5.00000000
G0 X205.303329 Y28.1514282
G0 Z5.00000000
G1 Z-0.684564710 F400
G0 Z5.00000000
G0 X208.838852 Y24.6159058
G0 Z5.00000000
G1 Z-0.535563588 F400
G0 Z5.00000000
G0 X212.374390 Y21.0803833
G0 Z5.00000000
G1 Z-0.522912979 F400
G0 Z5.00000000
G0 X215.909927 Y17.5448608
G0 Z5.00000000
G1 Z-0.528526783 F400
G0 Z5.00000000
G0 X219.445465 Y14.0092773
G0 Z5.00000000
G1 Z-0.520624995 F400
G0 Z5.00000000
G0 X222.980988 Y10.4737549
G0 Z5.00000000
G1 Z-0.491255581 F400
G0 Z5.00000000
G0 X226.516525 Y6.93823242
G0 Z5.00000000
G1 Z-0.492589295 F400
G0 Z5.00000000
G0 X233.587601 Y6.93823242
G0 Z5.00000000
G1 Z-0.429165721 F400
G0 Z5.00000000
G0 X230.052063 Y10.4737549
G0 Z5.00000000
G1 Z-0.399977684 F400
G0 Z5.00000000
G0 X226.516525 Y14.0092773
G0 Z5.00000000
G1 Z-0.414221525 F400
G0 Z5.00000000
G0 X222.980988 Y17.5448608
G0 Z5.00000000
G1 Z-0.411830366 F400
G0 Z5.00000000
G0 X219.445465 Y21.0803833
G0 Z5.00000000
G1 Z-0.440984935 F400
G0 Z5.00000000
G0 X215.909927 Y24.6159058
G0 Z5.00000000
G1 Z-0.430583149 F400
G0 Z5.00000000
G0 X212.374390 Y28.1514282
G0 Z5.00000000
G1 Z-0.437446952 F400
G0 Z5.00000000
G0 X208.838852 Y31.6869812
G0 Z5.00000000
G1 Z-0.658423543 F400
G0 Z5.00000000
G0 X205.303329 Y35.2225037
G0 Z5.00000000
G1 Z-1.08544374 F400
G0 Z5.00000000
G0 X201.767792 Y38.7580566
G0 Z5.00000000
G1 Z-1.00480461 F400
G0 Z5.00000000
G0 X198.232254 Y42.2935791
G0 Z5.00000000
G1 Z-1.35417402 F400
G0 Z5.00000000
G0 X194.696716 Y45.8291016
G0 Z5.00000000
G1 Z-1.57371938 F400
G0 Z5.00000000
G0 X191.161194 Y49.3646545
G0 Z5.00000000
G1 Z-1.64226282 F400
G0 Z5.00000000
G0 X187.625656 Y52.9001770
G0 Z5.00000000
G1 Z-1.68630016 F400
G0 Z5.00000000
G0 X184.090118 Y56.4356995
G0 Z5.00000000
G1 Z-1.70775950 F400
G0 Z5.00000000
G0 X180.554581 Y59.9712524
G0 Z5.00000000
G1 Z-1.73435533 F400
G0 Z5.00000000
G0 X177.019058 Y63.5067749
G0 Z5.00000000
G1 Z-1.75530136 F400
G0 Z5.00000000
G0 X173.483521 Y67.0423279
G0 Z5.00000000
G1 Z-1.75892854 F400
G0 Z5.00000000
G0 X169.947983 Y70.5778503
G0 Z5.00000000
G1 Z-1.75892854 F400
G0 Z5.00000000
G0 X166.412445 Y74.1133728
G0 Z5.00000000
G1 Z-1.77112150 F400
G0 Z5.00000000
G0 X162.876923 Y77.6489258
G0 Z5.00000000
G1 Z-1.77880573 F400
G0 Z5.00000000
G0 X159.341385 Y81.1844482
G0 Z5.00000000
G1 Z-1.78327000 F400
G0 Z5.00000000
G0 X155.805847 Y84.7199707
G0 Z5.00000000
G1 Z-1.78063333 F400
G0 Z5.00000000
G0 X152.270309 Y88.2555237
G0 Z5.00000000
G1 Z-1.77565289 F400
G0 Z5.00000000
G0 X148.734787 Y91.7910461
G0 Z5.00000000
G1 Z-1.76362729 F400
G0 Z5.00000000
G0 X145.199249 Y95.3265991
G0 Z5.00000000
G1 Z-1.75281799 F400
G0 Z5.00000000
G0 X141.663712 Y98.8621216
G0 Z5.00000000
G1 Z-1.75609648 F400
G0 Z5.00000000
G0 X138.128174 Y102.397644
G0 Z5.00000000
G1 Z-1.75162935 F400
G0 Z5.00000000
G0 X134.592651 Y105.933197
G0 Z5.00000000
G1 Z-1.74353790 F400
G0 Z5.00000000
G0 X131.057114 Y109.468719
G0 Z5.00000000
G1 Z-1.75441682 F400
G0 Z5.00000000
G0 X127.521576 Y113.004242
G0 Z5.00000000
G1 Z-1.75030684 F400
G0 Z5.00000000
G0 X123.986046 Y116.539795
G0 Z5.00000000
G1 Z-1.74325895 F400
G0 Z5.00000000
G0 X120.450508 Y120.075317
G0 Z5.00000000
G1 Z-1.72930801 F400
G0 Z5.00000000
G0 X116.914978 Y123.610870
G0 Z5.00000000
G1 Z-1.72110486 F400
G0 Z5.00000000
G0 X113.379440 Y127.146393
G0 Z5.00000000
G1 Z-1.68728793 F400
G0 Z5.00000000
G0 X109.843910 Y130.681915
G0 Z5.00000000
G1 Z-1.65352678 F400
G0 Z5.00000000
G0 X106.308372 Y134.217468
G0 Z5.00000000
G1 Z-1.59437501 F400
G0 Z5.00000000
G0 X102.772842 Y137.752991
G0 Z5.00000000
G1 Z-1.52322543 F400
G0 Z5.00000000
G0 X99.2373047 Y141.288513
G0 Z5.00000000
G1 Z-1.45169914 F400
G0 Z5.00000000
G0 X95.7017746 Y144.824066
G0 Z5.00000000
G1 Z-1.26914895 F400
G0 Z5.00000000
G0 X92.1662369 Y148.359589
G0 Z5.00000000
G1 Z-1.01990223 F400
G0 Z5.00000000
G0 X88.6307068 Y151.895142
G0 Z5.00000000
G1 Z-0.713632822 F400
G0 Z5.00000000
G0 X85.0951691 Y155.430664
G0 Z5.00000000
G1 Z-0.554578662 F400
G0 Z5.00000000
G0 X81.5596390 Y158.966187
G0 Z5.00000000
G1 Z-0.557257235 F400
G0 Z5.00000000
G0 X78.0241013 Y162.501740
G0 Z5.00000000
G1 Z-0.594857693 F400
G0 Z5.00000000
G0 X74.4885712 Y166.037262
G0 Z5.00000000
G1 Z-0.579542398 F400
G0 Z5.00000000
G0 X70.9530334 Y169.572784
G0 Z5.00000000
G1 Z-0.608560264 F400
G0 Z5.00000000
G0 X67.4175034 Y173.108337
G0 Z5.00000000
G1 Z-0.620544076 F400
G0 Z5.00000000
G0 X63.8819656 Y176.643860
G0 Z5.00000000
G1 Z-0.651794076 F400
G0 Z5.00000000
G0 X60.3464317 Y180.179413
G0 Z5.00000000
G1 Z-0.695613861 F400
G0 Z5.00000000
G0 X56.8108978 Y183.714935
G0 Z5.00000000
G1 Z-0.730770111 F400
G0 Z5.00000000
G0 X53.2753639 Y187.250458
G0 Z5.00000000
G1 Z-0.729157329 F400
G0 Z5.00000000
G0 X49.7398300 Y190.786011
G0 Z5.00000000
G1 Z-0.718403935 F400
G0 Z5.00000000
G0 X46.2042961 Y194.321533
G0 Z5.00000000
G1 Z-0.706573606 F400
G0 Z5.00000000
G0 X42.6687622 Y197.857056
G0 Z5.00000000
G1 Z-0.762380004 F400
G0 Z5.00000000
G0 X39.1332283 Y201.392609
G0 Z5.00000000
G1 Z-0.882056355 F400
G0 Z5.00000000
G0 X35.5976944 Y204.928131
G0 Z5.00000000
G1 Z-0.817790210 F400
G0 Z5.00000000
G0 X32.0621605 Y208.463684
G0 Z5.00000000
G1 Z-0.775125504 F400
G0 Z5.00000000
G0 X28.5266266 Y211.999207
G0 Z5.00000000
G1 Z-0.714534044 F400
G0 Z5.00000000
G0 X24.9910927 Y215.534729
G0 Z5.00000000
G1 Z-0.733094335 F400
G0 Z5.00000000
G0 X21.4555588 Y219.070282
G0 Z5.00000000
G1 Z-0.938278437 F400
G0 Z5.00000000
G0 X17.9200249 Y222.605804
G0 Z5.00000000
G1 Z-1.50622773 F400
G0 Z5.00000000
G0 X14.3844919 Y226.141327
G0 Z5.00000000
G1 Z-2.08685541 F400
G0 Z5.00000000
G0 X10.8489580 Y229.676880
G0 Z5.00000000
G1 Z-2.19503069 F400
G0 Z5.00000000
G0 X7.31342363 Y233.212402
G0 Z5.00000000
G1 Z-2.23804688 F400
G0 Z5.00000000
G0 X7.31342363 Y240.283478
G0 Z5.00000000
G1 Z-2.22251654 F400
G0 Z5.00000000
G0 X10.8489580 Y236.747955
G0 Z5.00000000
G1 Z-2.15297699 F400
G0 Z5.00000000
G0 X14.3844919 Y233.212402
G0 Z5.00000000
G1 Z-1.89503622 F400
G0 Z5.00000000
G0 X17.9200249 Y229.676880
G0 Z5.00000000
G1 Z-1.21432471 F400
G0 Z5.00000000
G0 X21.4555588 Y226.141327
G0 Z5.00000000
G1 Z-0.816252768 F400
G0 Z5.00000000
G0 X24.9910927 Y222.605804
G0 Z5.00000000
G1 Z-0.755100429 F400
G0 Z5.00000000
G0 X28.5266266 Y219.070282
G0 Z5.00000000
G1 Z-0.718448639 F400
G0 Z5.00000000
G0 X32.0621605 Y215.534729
G0 Z5.00000000
G1 Z-0.793300807 F400
G0 Z5.00000000
G0 X35.5976944 Y211.999207
G0 Z5.00000000
G1 Z-0.864732146 F400
G0 Z5.00000000
G0 X39.1332283 Y208.463684
G0 Z5.00000000
G1 Z-0.824296892 F400
G0 Z5.00000000
G0 X42.6687622 Y204.928131
G0 Z5.00000000
G1 Z-0.812798560 F400
G0 Z5.00000000
G0 X46.2042961 Y201.392609
G0 Z5.00000000
G1 Z-0.720697522 F400
G0 Z5.00000000
G0 X49.7398300 Y197.857056
G0 Z5.00000000
G1 Z-0.680848241 F400
G0 Z5.00000000
G0 X53.2753639 Y194.321533
G0 Z5.00000000
G1 Z-0.681258321 F400
G0 Z5.00000000
G0 X56.8108978 Y190.786011
G0 Z5.00000000
G1 Z-0.687131643 F400
G0 Z5.00000000
G0 X60.3464317 Y187.250458
G0 Z5.00000000
G1 Z-0.669818640 F400
G0 Z5.00000000
G0 X63.8819656 Y183.714935
G0 Z5.00000000
G1 Z-0.665758967 F400
G0 Z5.00000000
G0 X67.4175034 Y180.179413
G0 Z5.00000000
G1 Z-0.714308023 F400
G0 Z5.00000000
G0 X70.9530334 Y176.643860
G0 Z5.00000000
G1 Z-0.669107080 F400
G0 Z5.00000000
G0 X74.4885712 Y173.108337
G0 Z5.00000000
G1 Z-0.572845936 F400
G0 Z5.00000000
G0 X78.0241013 Y169.572784
G0 Z5.00000000
G1 Z-0.542505562 F400
G0 Z5.00000000
G0 X81.5596390 Y166.037262
G0 Z5.00000000
G1 Z-0.530664086 F400
G0 Z5.00000000
G0 X85.0951691 Y162.501740
G0 Z5.00000000
G1 Z-0.529096007 F400
G0 Z5.00000000
G0 X88.6307068 Y158.966187
G0 Z5.00000000
G1 Z-0.658836484 F400
G0 Z5.00000000
G0 X92.1662369 Y155.430664
G0 Z5.00000000
G1 Z-0.925775647 F400
G0 Z5.00000000
G0 X95.7017746 Y151.895142
G0 Z5.00000000
G1 Z-1.19802737 F400
G0 Z5.00000000
G0 X99.2373047 Y148.359589
G0 Z5.00000000
G1 Z-1.39584267 F400
G0 Z5.00000000
G0 X102.772842 Y144.824066
G0 Z5.00000000
G1 Z-1.49103236 F400
G0 Z5.00000000
G0 X106.308372 Y141.288513
G0 Z5.00000000
G1 Z-1.57330906 F400
G0 Z5.00000000
G0 X109.843910 Y137.752991
G0 Z5.00000000
G1 Z-1.64125001 F400
G0 Z5.00000000
G0 X113.379440 Y134.217468
G0 Z5.00000000
G1 Z-1.68840396 F400
G0 Z5.00000000
G0 X116.914978 Y130.681915
G0 Z5.00000000
G1 Z-1.70500553 F400
G0 Z5.00000000
G0 X120.450508 Y127.146393
G0 Z5.00000000
G1 Z-1.72858250 F400
G0 Z5.00000000
G0 X123.986046 Y123.610870
G0 Z5.00000000
G1 Z-1.71994698 F400
G0 Z5.00000000
G0 X127.521576 Y120.075317
G0 Z5.00000000
G1 Z-1.71375549 F400
G0 Z5.00000000
G0 X131.057114 Y116.539795
G0 Z5.00000000
G1 Z-1.72206473 F400
G0 Z5.00000000
G0 X134.592651 Y113.004242
G0 Z5.00000000
G1 Z-1.71699774 F400
G0 Z5.00000000
G0 X138.128174 Y109.468719
G0 Z5.00000000
G1 Z-1.71431363 F400
G0 Z5.00000000
G0 X141.663712 Y105.933197
G0 Z5.00000000
G1 Z-1.71998882 F400
G0 Z5.00000000
G0 X145.199249 Y102.397644
G0 Z5.00000000
G1 Z-1.73193073 F400
G0 Z5.00000000
G0 X148.734787 Y98.8621216
G0 Z5.00000000
G1 Z-1.75084817 F400
G0 Z5.00000000
G0 X152.270309 Y95.3265991
G0 Z5.00000000
G1 Z-1.76718462 F400
G0 Z5.00000000
G0 X155.805847 Y91.7910461
G0 Z5.00000000
G1 Z-1.75635874 F400
G0 Z5.00000000
G0 X159.341385 Y88.2555237
G0 Z5.00000000
G1 Z-1.75620532 F400
G0 Z5.00000000
G0 X162.876923 Y84.7199707
G0 Z5.00000000
G1 Z-1.76345980 F400
G0 Z5.00000000
G0 X166.412445 Y81.1844482
G0 Z5.00000000
G1 Z-1.76012278 F400
G0 Z5.00000000
G0 X169.947983 Y77.6489258
G0 Z5.00000000
G1 Z-1.74904573 F400
G0 Z5.00000000
G0 X173.483521 Y74.1133728
G0 Z5.00000000
G1 Z-1.75223207 F400
G0 Z5.00000000
G0 X177.019058 Y70.5778503
G0 Z5.00000000
G1 Z-1.72907364 F400
G0 Z5.00000000
G0 X180.554581 Y67.0423279
G0 Z5.00000000
G1 Z-1.72700882 F400
G0 Z5.00000000
G0 X184.090118 Y63.5067749
G0 Z5.00000000
G1 Z-1.69944751 F400
G0 Z5.00000000
G0 X187.625656 Y59.9712524
G0 Z5.00000000
G1 Z-1.65792692 F400
G0 Z5.00000000
G0 X191.161194 Y56.4356995
G0 Z5.00000000
G1 Z-1.65204799 F400
G0 Z5.00000000
G0 X194.696716 Y52.9001770
G0 Z5.00000000
G1 Z-1.61588717 F400
G0 Z5.00000000
G0 X198.232254 Y49.3646545
G0 Z5.00000000
G1 Z-1.46007252 F400
G0 Z5.00000000
G0 X201.767792 Y45.8291016
G0 Z5.00000000
G1 Z-1.00126386 F400
G0 Z5.00000000
G0 X205.303329 Y42.2935791
G0 Z5.00000000
G1 Z-1.34047985 F400
G0 Z5.00000000
G0 X208.838852 Y38.7580566
G0 Z5.00000000
G1 Z-0.939595401 F400
G0 Z5.00000000
G0 X212.374390 Y35.2225037
G0 Z5.00000000
G1 Z-0.674215913 F400
G0 Z5.00000000
G0 X215.909927 Y31.6869812
G0 Z5.00000000
G1 Z-0.425811946 F400
G0 Z5.00000000
G0 X219.445465 Y28.1514282
G0 Z5.00000000
G1 Z-0.442692518 F400
G0 Z5.00000000
G0 X222.980988 Y24.6159058
G0 Z5.00000000
G1 Z-0.431741059 F400
G0 Z5.00000000
G0 X226.516525 Y21.0803833
G0 Z5.00000000
G1 Z-0.423309147 F400
G0 Z5.00000000
G0 X230.052063 Y17.5448608
G0 Z5.00000000
G1 Z-0.418808579 F400
G0 Z5.00000000
G0 X233.587601 Y14.0092773
G0 Z5.00000000
G1 Z-0.403144538 F400
G0 Z5.00000000
G0 X237.123123 Y10.4737549
G0 Z5.00000000
G1 Z-0.444718182 F400
G0 Z5.00000000
G0 X240.658661 Y6.93823242
G0 Z5.00000000
G1 Z-0.391071439 F400
G0 Z5.00000000
G0 X247.729736 Y6.93823242
G0 Z5.00000000
G1 Z-0.426395088 F400
G0 Z5.00000000
G0 X244.194199 Y10.4737549
G0 Z5.00000000
G1 Z-0.404453099 F400
G0 Z5.00000000
G0 X240.658661 Y14.0092773
G0 Z5.00000000
G1 Z-0.440591514 F400
G0 Z5.00000000
G0 X237.123123 Y17.5448608
G0 Z5.00000000
G1 Z-0.435569167 F400
G0 Z5.00000000
G0 X233.587601 Y21.0803833
G0 Z5.00000000
G1 Z-0.423401237 F400
G0 Z5.00000000
G0 X230.052063 Y24.6159058
G0 Z5.00000000
G1 Z-0.408147335 F400
G0 Z5.00000000
G0 X226.516525 Y28.1514282
G0 Z5.00000000
G1 Z-0.454620540 F400
G0 Z5.00000000
G0 X222.980988 Y31.6869812
G0 Z5.00000000
G1 Z-0.423789084 F400
G0 Z5.00000000
G0 X219.445465 Y35.2225037
G0 Z5.00000000
G1 Z-0.458404005 F400
G0 Z5.00000000
G0 X215.909927 Y38.7580566
G0 Z5.00000000
G1 Z-0.630114377 F400
G0 Z5.00000000
G0 X212.374390 Y42.2935791
G0 Z5.00000000
G1 Z-0.855934739 F400
G0 Z5.00000000
G0 X208.838852 Y45.8291016
G0 Z5.00000000
G1 Z-1.13496923 F400
G0 Z5.00000000
G0 X205.303329 Y49.3646545
G0 Z5.00000000
G1 Z-1.03911829 F400
G0 Z5.00000000
G0 X201.767792 Y52.9001770
G0 Z5.00000000
G1 Z-1.30107415 F400
G0 Z5.00000000
G0 X198.232254 Y56.4356995
G0 Z5.00000000
G1 Z-1.52376390 F400
G0 Z5.00000000
G0 X194.696716 Y59.9712524
G0 Z5.00000000
G1 Z-1.60396755 F400
G0 Z5.00000000
G0 X191.161194 Y63.5067749
G0 Z5.00000000
G1 Z-1.62350988 F400
G0 Z5.00000000
G0 X187.625656 Y67.0423279
G0 Z5.00000000
G1 Z-1.64603508 F400
G0 Z5.00000000
G0 X184.090118 Y70.5778503
G0 Z5.00000000
G1 Z-1.66103792 F400
G0 Z5.00000000
G0 X180.554581 Y74.1133728
G0 Z5.00000000
G1 Z-1.68962049 F400
G0 Z5.00000000
G0 X177.019058 Y77.6489258
G0 Z5.00000000
G1 Z-1.70675218 F400
G0 Z5.00000000
G0 X173.483521 Y81.1844482
G0 Z5.00000000
G1 Z-1.72014511 F400
G0 Z5.00000000
G0 X169.947983 Y84.7199707
G0 Z5.00000000
G1 Z-1.72172713 F400
G0 Z5.00000000
G0 X166.412445 Y88.2555237
G0 Z5.00000000
G1 Z-1.71016729 F400
G0 Z5.00000000
G0 X162.876923 Y91.7910461
G0 Z5.00000000
G1 Z-1.72104907 F400
G0 Z5.00000000
G0 X159.341385 Y95.3265991
G0 Z5.00000000
G1 Z-1.71526217 F400
G0 Z5.00000000
G0 X155.805847 Y98.8621216
G0 Z5.00000000
G1 Z-1.72508085 F400
G0 Z5.00000000
G0 X152.270309 Y102.397644
G0 Z5.00000000
G1 Z-1.71749437 F400
G0 Z5.00000000
G0 X148.734787 Y105.933197
G0 Z5.00000000
G1 Z-1.70347095 F400
G0 Z5.00000000
G0 X145.199249 Y109.468719
G0 Z5.00000000
G1 Z-1.69775665 F400
G0 Z5.00000000
G0 X141.663712 Y113.004242
G0 Z5.00000000
G1 Z-1.68194473 F400
G0 Z5.00000000
G0 X138.128174 Y116.539795
G0 Z5.00000000
G1 Z-1.68351567 F400
G0 Z5.00000000
G0 X134.592651 Y120.075317
G0 Z5.00000000
G1 Z-1.67514503 F400
G0 Z5.00000000
G0 X131.057114 Y123.610870
G0 Z5.00000000
G1 Z-1.68721259 F400
G0 Z5.00000000
G0 X127.521576 Y127.146393
G0 Z5.00000000
G1 Z-1.70402896 F400
G0 Z5.00000000
G0 X123.986046 Y130.681915
G0 Z5.00000000
G1 Z-1.72021210 F400
G0 Z5.00000000
G0 X120.450508 Y134.217468
G0 Z5.00000000
G1 Z-1.70765626 F400
G0 Z5.00000000
G0 X116.914978 Y137.752991
G0 Z5.00000000
G1 Z-1.68435824 F400
G0 Z5.00000000
G0 X113.379440 Y141.288513
G0 Z5.00000000
G1 Z-1.66133916 F400
G0 Z5.00000000
G0 X109.843910 Y144.824066
G0 Z5.00000000
G1 Z-1.62422991 F400
G0 Z5.00000000
G0 X106.308372 Y148.359589
G0 Z5.00000000
G1 Z-1.56194472 F400
G0 Z5.00000000
G0 X102.772842 Y151.895142
G0 Z5.00000000
G1 Z-1.46762550 F400
G0 Z5.00000000
G0 X99.2373047 Y155.430664
G0 Z5.00000000
G1 Z-1.35178566 F400
G0 Z5.00000000
G0 X95.7017746 Y158.966187
G0 Z5.00000000
G1 Z-1.15490508 F400
G0 Z5.00000000
G0 X92.1662369 Y162.501740
G0 Z5.00000000
G1 Z-0.885697484 F400
G0 Z5.00000000
G0 X88.6307068 Y166.037262
G0 Z5.00000000
G1 Z-0.614227116 F400
G0 Z5.00000000
G0 X85.0951691 Y169.572784
G0 Z5.00000000
G1 Z-0.525664091 F400
G0 Z5.00000000
G0 X81.5596390 Y173.108337
G0 Z5.00000000
G1 Z-0.493657917 F400
G0 Z5.00000000
G0 X78.0241013 Y176.643860
G0 Z5.00000000
G1 Z-0.524263382 F400
G0 Z5.00000000
G0 X74.4885712 Y180.179413
G0 Z5.00000000
G1 Z-0.535898447 F400
G0 Z5.00000000
G0 X70.9530334 Y183.714935
G0 Z5.00000000
G1 Z-0.709843755 F400
G0 Z5.00000000
G0 X67.4175034 Y187.250458
G0 Z5.00000000
G1 Z-0.740689158 F400
G0 Z5.00000000
G0 X63.8819656 Y190.786011
G0 Z5.00000000
G1 Z-0.685736597 F400
G0 Z5.00000000
G0 X60.3464317 Y194.321533
G0 Z5.00000000
G1 Z-0.673180819 F400
