%
(Header)
(Generated bYgcodetools from Inkscape.)
(Using default header. To add your own header create file "header" in the output dir.)
M3
(Header end.)
G21 (All units in mm)

(Start cutting path id: rect4136)
(Change tool to Cylindrical cutter)

G00 Z5.0000
G00 X4.6830 Y87.4269

G01 Z-1.0000 F 100.0000(Penetrate)
G01 X126.4418 Y87.4269 Z-1.0000 F 400.0000
G01 X126.4418 Y5.1793 Z-1.0000
G01 X4.6830 Y5.1793 Z-1.0000
G01 X4.6830 Y87.4269 Z-1.0000
G00 Z5.0000

(End cutting path id: rect4136)


(Start cutting path id: rect4136)
(Change tool to Cylindrical cutter)

G00 Z5.0000
G00 X4.6830 Y87.4269

G01 Z-2.0000 F 100.0000(Penetrate)
G01 X126.4418 Y87.4269 Z-2.0000 F 400.0000
G01 X126.4418 Y5.1793 Z-2.0000
G01 X4.6830 Y5.1793 Z-2.0000
G01 X4.6830 Y87.4269 Z-2.0000
G00 Z5.0000

(End cutting path id: rect4136)


(Start cutting path id: rect4136)
(Change tool to Cylindrical cutter)

G00 Z5.0000
G00 X4.6830 Y87.4269

G01 Z-3.0000 F 100.0000(Penetrate)
G01 X126.4418 Y87.4269 Z-3.0000 F 400.0000
G01 X126.4418 Y5.1793 Z-3.0000
G01 X4.6830 Y5.1793 Z-3.0000
G01 X4.6830 Y87.4269 Z-3.0000
G00 Z5.0000

(End cutting path id: rect4136)


(Start cutting path id: rect4136)
(Change tool to Cylindrical cutter)

G00 Z5.0000
G00 X4.6830 Y87.4269

G01 Z-4.0000 F 100.0000(Penetrate)
G01 X126.4418 Y87.4269 Z-4.0000 F 400.0000
G01 X126.4418 Y5.1793 Z-4.0000
G01 X4.6830 Y5.1793 Z-4.0000
G01 X4.6830 Y87.4269 Z-4.0000
G00 Z5.0000

(End cutting path id: rect4136)


(Start cutting path id: rect4136)
(Change tool to Cylindrical cutter)

G00 Z5.0000
G00 X4.6830 Y87.4269

G01 Z-5.0000 F 100.0000(Penetrate)
G01 X126.4418 Y87.4269 Z-5.0000 F 400.0000
G01 X126.4418 Y5.1793 Z-5.0000
G01 X4.6830 Y5.1793 Z-5.0000
G01 X4.6830 Y87.4269 Z-5.0000
G00 Z5.0000

(End cutting path id: rect4136)


(Start cutting path id: rect4136)
(Change tool to Cylindrical cutter)

G00 Z5.0000
G00 X4.6830 Y87.4269

G01 Z-6.0000 F 100.0000(Penetrate)
G01 X126.4418 Y87.4269 Z-6.0000 F 400.0000
G01 X126.4418 Y5.1793 Z-6.0000
G01 X4.6830 Y5.1793 Z-6.0000
G01 X4.6830 Y87.4269 Z-6.0000
G00 Z5.0000

(End cutting path id: rect4136)


(Start cutting path id: rect4136)
(Change tool to Cylindrical cutter)

G00 Z5.0000
G00 X4.6830 Y87.4269

G01 Z-7.0000 F 100.0000(Penetrate)
G01 X126.4418 Y87.4269 Z-7.0000 F 400.0000
G01 X126.4418 Y5.1793 Z-7.0000
G01 X4.6830 Y5.1793 Z-7.0000
G01 X4.6830 Y87.4269 Z-7.0000
G00 Z5.0000

(End cutting path id: rect4136)


(Start cutting path id: rect4136)
(Change tool to Cylindrical cutter)

G00 Z5.0000
G00 X4.6830 Y87.4269

G01 Z-8.0000 F 100.0000(Penetrate)
G01 X126.4418 Y87.4269 Z-8.0000 F 400.0000
G01 X126.4418 Y5.1793 Z-8.0000
G01 X4.6830 Y5.1793 Z-8.0000
G01 X4.6830 Y87.4269 Z-8.0000
G00 Z5.0000

(End cutting path id: rect4136)


(Start cutting path id: rect4136)
(Change tool to Cylindrical cutter)

G00 Z5.0000
G00 X4.6830 Y87.4269

G01 Z-9.0000 F 100.0000(Penetrate)
G01 X126.4418 Y87.4269 Z-9.0000 F 400.0000
G01 X126.4418 Y5.1793 Z-9.0000
G01 X4.6830 Y5.1793 Z-9.0000
G01 X4.6830 Y87.4269 Z-9.0000
G00 Z5.0000

(End cutting path id: rect4136)


(Start cutting path id: rect4136)
(Change tool to Cylindrical cutter)

G00 Z5.0000
G00 X4.6830 Y87.4269

G01 Z-10.0000 F 100.0000(Penetrate)
G01 X126.4418 Y87.4269 Z-10.0000 F 400.0000
G01 X126.4418 Y5.1793 Z-10.0000
G01 X4.6830 Y5.1793 Z-10.0000
G01 X4.6830 Y87.4269 Z-10.0000
G00 Z5.0000

(End cutting path id: rect4136)



(Footer)
M5
G00 X0.0000 Y0.0000
M2
(Using default footer. To add your own footer create file "footer" in the output dir.)
(end)
%
