%
(Header)
(Generated bYgcodetools from Inkscape.)
(Using default header. To add your own header create file "header" in the output dir.)
M3
(Header end.)
G21 (All units in mm)

(Start cutting path id: path5143)
(Change tool to Cylindrical cutter)

G00 Z5.0000
G00 X250.0000 Y200.0000

G01 Z-1.0000 F 100.0000(Penetrate)
G02 X249.7367 Y194.8396 Z-1.0000 I -50.7076 J 0.0000 F 400.0000
G02 X248.9842 Y189.9233 Z-1.0000 I -49.5486 J 5.0688
G02 X247.7437 Y185.1048 Z-1.0000 I -48.6384 J 9.9529
G02 X246.0707 Y180.5378 Z-1.0000 I -47.3829 J 14.7667
G02 X243.9586 Y176.1548 Z-1.0000 I -45.8207 J 19.3805
G02 X241.4608 Y172.0445 Z-1.0000 I -43.9537 J 23.8968
G02 X238.5798 Y168.1921 Z-1.0000 I -41.5696 J 28.0839
G02 X235.3553 Y164.6447 Z-1.0000 I -38.8007 J 32.0288
G02 X231.8079 Y161.4202 Z-1.0000 I -35.5763 J 35.5762
G02 X227.9555 Y158.5392 Z-1.0000 I -31.9363 J 38.6886
G02 X223.8452 Y156.0414 Z-1.0000 I -28.0071 J 41.4559
G02 X219.4622 Y153.9293 Z-1.0000 I -23.7636 J 43.7085
G02 X214.8952 Y152.2563 Z-1.0000 I -19.3337 J 45.7100
G02 X210.0767 Y151.0158 Z-1.0000 I -14.7713 J 47.3979
G02 X205.1604 Y150.2633 Z-1.0000 I -9.9851 J 48.7960
G02 X200.0000 Y150.0000 Z-1.0000 I -5.1604 J 50.4444
G02 X194.8396 Y150.2633 Z-1.0000 I 0.0000 J 50.7076
G02 X189.9232 Y151.0158 Z-1.0000 I 5.0688 J 49.5486
G02 X185.1048 Y152.2563 Z-1.0000 I 9.9529 J 48.6384
G02 X180.5377 Y153.9293 Z-1.0000 I 14.7667 J 47.3829
G02 X176.1547 Y156.0414 Z-1.0000 I 19.3805 J 45.8207
G02 X172.0445 Y158.5392 Z-1.0000 I 23.8968 J 43.9537
G02 X168.1921 Y161.4202 Z-1.0000 I 28.0839 J 41.5696
G02 X164.6447 Y164.6447 Z-1.0000 I 32.0288 J 38.8007
G02 X161.4202 Y168.1921 Z-1.0000 I 35.5762 J 35.5763
G02 X158.5392 Y172.0445 Z-1.0000 I 38.6886 J 31.9363
G02 X156.0414 Y176.1548 Z-1.0000 I 41.4559 J 28.0071
G02 X153.9292 Y180.5378 Z-1.0000 I 43.7085 J 23.7636
G02 X152.2563 Y185.1048 Z-1.0000 I 45.7100 J 19.3337
G02 X151.0158 Y189.9233 Z-1.0000 I 47.3979 J 14.7713
G02 X150.2633 Y194.8396 Z-1.0000 I 48.7960 J 9.9851
G02 X150.0000 Y200.0000 Z-1.0000 I 50.4444 J 5.1604
G02 X150.2633 Y205.1604 Z-1.0000 I 50.7076 J -0.0000
G02 X151.0158 Y210.0768 Z-1.0000 I 49.5486 J -5.0688
G02 X152.2563 Y214.8952 Z-1.0000 I 48.6384 J -9.9529
G02 X153.9292 Y219.4623 Z-1.0000 I 47.3829 J -14.7667
G02 X156.0414 Y223.8453 Z-1.0000 I 45.8207 J -19.3805
G02 X158.5392 Y227.9555 Z-1.0000 I 43.9537 J -23.8968
G02 X161.4202 Y231.8079 Z-1.0000 I 41.5696 J -28.0839
G02 X164.6447 Y235.3554 Z-1.0000 I 38.8007 J -32.0288
G02 X168.1921 Y238.5798 Z-1.0000 I 35.5763 J -35.5762
G02 X172.0445 Y241.4608 Z-1.0000 I 31.9363 J -38.6886
G02 X176.1547 Y243.9586 Z-1.0000 I 28.0071 J -41.4559
G02 X180.5377 Y246.0708 Z-1.0000 I 23.7636 J -43.7085
G02 X185.1048 Y247.7437 Z-1.0000 I 19.3337 J -45.7100
G02 X189.9232 Y248.9842 Z-1.0000 I 14.7713 J -47.3979
G02 X194.8396 Y249.7367 Z-1.0000 I 9.9851 J -48.7960
G02 X200.0000 Y250.0000 Z-1.0000 I 5.1604 J -50.4444
G02 X205.1604 Y249.7367 Z-1.0000 I -0.0000 J -50.7076
G02 X210.0767 Y248.9842 Z-1.0000 I -5.0688 J -49.5486
G02 X214.8952 Y247.7437 Z-1.0000 I -9.9529 J -48.6384
G02 X219.4622 Y246.0708 Z-1.0000 I -14.7667 J -47.3829
G02 X223.8452 Y243.9586 Z-1.0000 I -19.3805 J -45.8207
G02 X227.9555 Y241.4608 Z-1.0000 I -23.8968 J -43.9537
G02 X231.8079 Y238.5798 Z-1.0000 I -28.0839 J -41.5696
G02 X235.3553 Y235.3554 Z-1.0000 I -32.0288 J -38.8007
G02 X238.5798 Y231.8079 Z-1.0000 I -35.5762 J -35.5763
G02 X241.4608 Y227.9555 Z-1.0000 I -38.6886 J -31.9363
G02 X243.9586 Y223.8453 Z-1.0000 I -41.4559 J -28.0071
G02 X246.0707 Y219.4623 Z-1.0000 I -43.7085 J -23.7636
G02 X247.7437 Y214.8952 Z-1.0000 I -45.7100 J -19.3337
G02 X248.9842 Y210.0768 Z-1.0000 I -47.3979 J -14.7713
G02 X249.7367 Y205.1604 Z-1.0000 I -48.7960 J -9.9851
G02 X250.0000 Y200.0000 Z-1.0000 I -50.4444 J -5.1604
G01 X250.0000 Y200.0000 Z-1.0000
G00 Z5.0000

(End cutting path id: path5143)



(Footer)
M5
G00 X0.0000 Y0.0000
M2
(Using default footer. To add your own footer create file "footer" in the output dir.)
(end)
%
