%
(Header)
(Generated bYgcodetools from Inkscape.)
(Using default header. To add your own header create file "header" in the output dir.)
M3
(Header end.)
G21 (All units in mm)

(Start cutting path id: path23792)
(Change tool to Cylindrical cutter)

G00 Z5.0000
G00 X165.6551 Y112.1278

G01 Z-1.0000 F 100.0000(Penetrate)
G01 X164.1221 Y108.0692 Z-1.0000 F 400.0000
G01 X164.1414 Y107.7330 Z-1.0000
G01 X164.8321 Y104.3160 Z-1.0000
G01 X160.7663 Y102.6320 Z-1.0000
G01 X158.8387 Y105.5364 Z-1.0000
G01 X158.6144 Y105.7877 Z-1.0000
G01 X154.6611 Y107.5737 Z-1.0000
G01 X152.6128 Y105.5259 Z-1.0000
G01 X154.3987 Y101.5726 Z-1.0000
G01 X154.6506 Y101.3483 Z-1.0000
G01 X157.5550 Y99.4207 Z-1.0000
G01 X155.8710 Y95.3549 Z-1.0000
G01 X152.4540 Y96.0456 Z-1.0000
G01 X152.1178 Y96.0649 Z-1.0000
G01 X148.0592 Y94.5319 Z-1.0000
G01 X148.0592 Y91.6358 Z-1.0000
G01 X152.1178 Y90.1035 Z-1.0000
G01 X152.4540 Y90.1228 Z-1.0000
G01 X155.8710 Y90.8134 Z-1.0000
G01 X157.5550 Y86.7477 Z-1.0000
G01 X154.6506 Y84.8201 Z-1.0000
G01 X154.3987 Y84.5957 Z-1.0000
G01 X152.6128 Y80.6418 Z-1.0000
G01 X154.6611 Y78.5941 Z-1.0000
G01 X158.6144 Y80.3800 Z-1.0000
G01 X158.8387 Y80.6319 Z-1.0000
G01 X160.7663 Y83.5363 Z-1.0000
G01 X164.8321 Y81.8523 Z-1.0000
G01 X164.1414 Y78.4353 Z-1.0000
G01 X164.1221 Y78.0985 Z-1.0000
G01 X165.6551 Y74.0405 Z-1.0000
G01 X168.5506 Y74.0405 Z-1.0000
G01 X170.0835 Y78.0985 Z-1.0000
G01 X170.0642 Y78.4353 Z-1.0000
G01 X169.3736 Y81.8523 Z-1.0000
G01 X173.4393 Y83.5363 Z-1.0000
G01 X175.3669 Y80.6319 Z-1.0000
G01 X175.5913 Y80.3800 Z-1.0000
G01 X179.5446 Y78.5941 Z-1.0000
G01 X181.5924 Y80.6418 Z-1.0000
G01 X179.8070 Y84.5957 Z-1.0000
G01 X179.5551 Y84.8201 Z-1.0000
G01 X176.6507 Y86.7477 Z-1.0000
G01 X178.3347 Y90.8134 Z-1.0000
G01 X181.7517 Y90.1228 Z-1.0000
G01 X182.0879 Y90.1035 Z-1.0000
G01 X186.1465 Y91.6358 Z-1.0000
G01 X186.1465 Y94.5319 Z-1.0000
G01 X182.0879 Y96.0649 Z-1.0000
G01 X181.7517 Y96.0456 Z-1.0000
G01 X178.3347 Y95.3549 Z-1.0000
G01 X176.6507 Y99.4207 Z-1.0000
G01 X179.5551 Y101.3483 Z-1.0000
G01 X179.8070 Y101.5726 Z-1.0000
G01 X181.5924 Y105.5259 Z-1.0000
G01 X179.5446 Y107.5737 Z-1.0000
G01 X175.5913 Y105.7877 Z-1.0000
G01 X175.3669 Y105.5364 Z-1.0000
G01 X173.4393 Y102.6320 Z-1.0000
G01 X169.3736 Y104.3160 Z-1.0000
G01 X170.0642 Y107.7330 Z-1.0000
G01 X170.0835 Y108.0692 Z-1.0000
G01 X168.5506 Y112.1278 Z-1.0000
G01 X165.6551 Y112.1278 Z-1.0000
G01 X165.6551 Y112.1278 Z-1.0000
G00 Z5.0000

(End cutting path id: path23792)


(Start cutting path id: path23792)
(Change tool to Cylindrical cutter)

G00 Z5.0000
G00 X167.1026 Y97.0840

G01 Z-1.0000 F 100.0000(Penetrate)
G02 X167.9207 Y97.0002 Z-1.0000 I -0.0000 J -4.0345 F 400.0000
G02 X168.6597 Y96.7699 Z-1.0000 I -0.8025 J -3.8749
G02 X169.3417 Y96.3995 Z-1.0000 I -1.5552 J -3.6770
G02 X169.9314 Y95.9127 Z-1.0000 I -2.2520 J -3.3285
G02 X170.4182 Y95.3231 Z-1.0000 I -2.8412 J -2.8413
G02 X170.7885 Y94.6410 Z-1.0000 I -3.3067 J -2.2372
G02 X171.0189 Y93.9020 Z-1.0000 I -3.6439 J -1.5413
G02 X171.1027 Y93.0839 Z-1.0000 I -3.9508 J -0.8182
G02 X171.0189 Y92.2660 Z-1.0000 I -4.0307 J -0.0000
G02 X170.7885 Y91.5272 Z-1.0000 I -3.8761 J 0.8032
G02 X170.4182 Y90.8453 Z-1.0000 I -3.6772 J 1.5554
G02 X169.9314 Y90.2556 Z-1.0000 I -3.3281 J 2.2518
G02 X169.3417 Y89.7688 Z-1.0000 I -2.8409 J 2.8407
G02 X168.6597 Y89.3985 Z-1.0000 I -2.2374 J 3.3070
G02 X167.9207 Y89.1681 Z-1.0000 I -1.5415 J 3.6445
G02 X167.1026 Y89.0843 Z-1.0000 I -0.8182 J 3.9507
G02 X166.2847 Y89.1681 Z-1.0000 I 0.0000 J 4.0304
G02 X165.5459 Y89.3985 Z-1.0000 I 0.8033 J 3.8762
G02 X164.8639 Y89.7688 Z-1.0000 I 1.5554 J 3.6774
G02 X164.2743 Y90.2556 Z-1.0000 I 2.2513 J 3.3275
G02 X163.7875 Y90.8453 Z-1.0000 I 2.8413 J 2.8414
G02 X163.4171 Y91.5272 Z-1.0000 I 3.3068 J 2.2373
G02 X163.1868 Y92.2660 Z-1.0000 I 3.6457 J 1.5420
G02 X163.1029 Y93.0839 Z-1.0000 I 3.9468 J 0.8179
G02 X163.1868 Y93.9020 Z-1.0000 I 4.0346 J 0.0000
G02 X163.4171 Y94.6410 Z-1.0000 I 3.8743 J -0.8023
G02 X163.7875 Y95.3231 Z-1.0000 I 3.6771 J -1.5552
G02 X164.2743 Y95.9127 Z-1.0000 I 3.3280 J -2.2517
G02 X164.8639 Y96.3995 Z-1.0000 I 2.8417 J -2.8417
G02 X165.5459 Y96.7699 Z-1.0000 I 2.2372 J -3.3066
G02 X166.2847 Y97.0002 Z-1.0000 I 1.5420 J -3.6458
G02 X167.1026 Y97.0840 Z-1.0000 I 0.8179 J -3.9466
G01 X167.1026 Y97.0840 Z-1.0000
G00 Z5.0000

(End cutting path id: path23792)


(Start cutting path id: path21012)
(Change tool to Cylindrical cutter)

G00 Z5.0000
G00 X97.9361 Y149.3867

G01 Z-1.0000 F 100.0000(Penetrate)
G01 X96.7658 Y145.5022 Z-1.0000 F 400.0000
G01 X96.6920 Y144.4935 Z-1.0000
G01 X96.8849 Y141.6818 Z-1.0000
G01 X91.6952 Y140.9988 Z-1.0000
G01 X91.1539 Y143.7643 Z-1.0000
G01 X90.8215 Y144.7195 Z-1.0000
G01 X88.6861 Y148.1685 Z-1.0000
G01 X85.1550 Y147.2226 Z-1.0000
G01 X85.0299 Y143.1678 Z-1.0000
G01 X85.2195 Y142.1740 Z-1.0000
G01 X86.1340 Y139.5083 Z-1.0000
G01 X81.2976 Y137.5052 Z-1.0000
G01 X80.0591 Y140.0369 Z-1.0000
G01 X79.4908 Y140.8731 Z-1.0000
G01 X76.5357 Y143.6524 Z-1.0000
G01 X73.3695 Y141.8245 Z-1.0000
G01 X74.2983 Y137.8756 Z-1.0000
G01 X74.7387 Y136.9650 Z-1.0000
G01 X76.3119 Y134.6268 Z-1.0000
G01 X72.1585 Y131.4402 Z-1.0000
G01 X70.3075 Y133.5646 Z-1.0000
G01 X69.5419 Y134.2255 Z-1.0000
G01 X65.9678 Y136.1448 Z-1.0000
G01 X63.3826 Y133.5596 Z-1.0000
G01 X65.3019 Y129.9861 Z-1.0000
G01 X65.9628 Y129.2204 Z-1.0000
G01 X68.0878 Y127.3689 Z-1.0000
G01 X64.9012 Y123.2161 Z-1.0000
G01 X62.5629 Y124.7887 Z-1.0000
G01 X61.6518 Y125.2291 Z-1.0000
G01 X57.7034 Y126.1579 Z-1.0000
G01 X55.8756 Y122.9923 Z-1.0000
G01 X58.6543 Y120.0366 Z-1.0000
G01 X59.4910 Y119.4683 Z-1.0000
G01 X62.0222 Y118.2298 Z-1.0000
G01 X60.0191 Y113.3934 Z-1.0000
G01 X57.3534 Y114.3079 Z-1.0000
G01 X56.3596 Y114.4975 Z-1.0000
G01 X52.3048 Y114.3729 Z-1.0000
G01 X51.3589 Y110.8413 Z-1.0000
G01 X54.8079 Y108.7059 Z-1.0000
G01 X55.7631 Y108.3735 Z-1.0000
G01 X58.5291 Y107.8322 Z-1.0000
G01 X57.8456 Y102.6425 Z-1.0000
G01 X55.0344 Y102.8354 Z-1.0000
G01 X54.0252 Y102.7616 Z-1.0000
G01 X50.1413 Y101.5919 Z-1.0000
G01 X50.1413 Y97.9357 Z-1.0000
G01 X54.0252 Y96.7660 Z-1.0000
G01 X55.0344 Y96.6921 Z-1.0000
G01 X57.8456 Y96.8851 Z-1.0000
G01 X58.5291 Y91.6954 Z-1.0000
G01 X55.7631 Y91.1541 Z-1.0000
G01 X54.8079 Y90.8217 Z-1.0000
G01 X51.3589 Y88.6863 Z-1.0000
G01 X52.3048 Y85.1546 Z-1.0000
G01 X56.3596 Y85.0301 Z-1.0000
G01 X57.3534 Y85.2197 Z-1.0000
G01 X60.0191 Y86.1342 Z-1.0000
G01 X62.0222 Y81.2978 Z-1.0000
G01 X59.4910 Y80.0592 Z-1.0000
G01 X58.6543 Y79.4909 Z-1.0000
G01 X55.8756 Y76.5353 Z-1.0000
G01 X57.7034 Y73.3696 Z-1.0000
G01 X61.6518 Y74.2985 Z-1.0000
G01 X62.5629 Y74.7389 Z-1.0000
G01 X64.9012 Y76.3115 Z-1.0000
G01 X68.0878 Y72.1586 Z-1.0000
G01 X65.9628 Y70.3071 Z-1.0000
G01 X65.3019 Y69.5415 Z-1.0000
G01 X63.3826 Y65.9679 Z-1.0000
G01 X65.9678 Y63.3827 Z-1.0000
G01 X69.5419 Y65.3021 Z-1.0000
G01 X70.3075 Y65.9630 Z-1.0000
G01 X72.1585 Y68.0874 Z-1.0000
G01 X76.3119 Y64.9008 Z-1.0000
G01 X74.7387 Y62.5625 Z-1.0000
G01 X74.2983 Y61.6519 Z-1.0000
G01 X73.3695 Y57.7030 Z-1.0000
G01 X76.5357 Y55.8752 Z-1.0000
G01 X79.4908 Y58.6544 Z-1.0000
G01 X80.0591 Y59.4906 Z-1.0000
G01 X81.2976 Y62.0223 Z-1.0000
G01 X86.1340 Y60.0192 Z-1.0000
G01 X85.2195 Y57.3535 Z-1.0000
G01 X85.0299 Y56.3597 Z-1.0000
G01 X85.1550 Y52.3050 Z-1.0000
G01 X88.6861 Y51.3591 Z-1.0000
G01 X90.8215 Y54.8080 Z-1.0000
G01 X91.1539 Y55.7633 Z-1.0000
G01 X91.6952 Y58.5287 Z-1.0000
G01 X96.8849 Y57.8458 Z-1.0000
G01 X96.6920 Y55.0340 Z-1.0000
G01 X96.7658 Y54.0253 Z-1.0000
G01 X97.9361 Y50.1409 Z-1.0000
G01 X101.5917 Y50.1409 Z-1.0000
G01 X102.7614 Y54.0253 Z-1.0000
G01 X102.8358 Y55.0340 Z-1.0000
G01 X102.6423 Y57.8458 Z-1.0000
G01 X107.8326 Y58.5287 Z-1.0000
G01 X108.3733 Y55.7633 Z-1.0000
G01 X108.7063 Y54.8080 Z-1.0000
G01 X110.8417 Y51.3591 Z-1.0000
G01 X114.3728 Y52.3050 Z-1.0000
G01 X114.4973 Y56.3597 Z-1.0000
G01 X114.3077 Y57.3535 Z-1.0000
G01 X113.3938 Y60.0192 Z-1.0000
G01 X118.2296 Y62.0223 Z-1.0000
G01 X119.4682 Y59.4906 Z-1.0000
G01 X120.0370 Y58.6544 Z-1.0000
G01 X122.9921 Y55.8752 Z-1.0000
G01 X126.1583 Y57.7030 Z-1.0000
G01 X125.2295 Y61.6519 Z-1.0000
G01 X124.7891 Y62.5625 Z-1.0000
G01 X123.2159 Y64.9008 Z-1.0000
G01 X127.3688 Y68.0874 Z-1.0000
G01 X129.2203 Y65.9630 Z-1.0000
G01 X129.9859 Y65.3021 Z-1.0000
G01 X133.5600 Y63.3827 Z-1.0000
G01 X136.1447 Y65.9679 Z-1.0000
G01 X134.2253 Y69.5415 Z-1.0000
G01 X133.5644 Y70.3071 Z-1.0000
G01 X131.4400 Y72.1586 Z-1.0000
G01 X134.6266 Y76.3115 Z-1.0000
G01 X136.9649 Y74.7389 Z-1.0000
G01 X137.8755 Y74.2985 Z-1.0000
G01 X141.8244 Y73.3696 Z-1.0000
G01 X143.6522 Y76.5353 Z-1.0000
G01 X140.8735 Y79.4909 Z-1.0000
G01 X140.0368 Y80.0592 Z-1.0000
G01 X137.5056 Y81.2978 Z-1.0000
G01 X139.5087 Y86.1342 Z-1.0000
G01 X142.1744 Y85.2197 Z-1.0000
G01 X143.1677 Y85.0301 Z-1.0000
G01 X147.2224 Y85.1546 Z-1.0000
G01 X148.1689 Y88.6863 Z-1.0000
G01 X144.7199 Y90.8217 Z-1.0000
G01 X143.7641 Y91.1541 Z-1.0000
G01 X140.9987 Y91.6954 Z-1.0000
G01 X141.6822 Y96.8851 Z-1.0000
G01 X144.4934 Y96.6921 Z-1.0000
G01 X145.5021 Y96.7660 Z-1.0000
G01 X149.3865 Y97.9357 Z-1.0000
G01 X149.3865 Y101.5919 Z-1.0000
G01 X145.5021 Y102.7616 Z-1.0000
G01 X144.4934 Y102.8354 Z-1.0000
G01 X141.6822 Y102.6425 Z-1.0000
G01 X140.9987 Y107.8322 Z-1.0000
G01 X143.7641 Y108.3735 Z-1.0000
G01 X144.7199 Y108.7059 Z-1.0000
G01 X148.1689 Y110.8413 Z-1.0000
G01 X147.2224 Y114.3729 Z-1.0000
G01 X143.1677 Y114.4975 Z-1.0000
G01 X142.1744 Y114.3079 Z-1.0000
G01 X139.5087 Y113.3934 Z-1.0000
G01 X137.5056 Y118.2298 Z-1.0000
G01 X140.0368 Y119.4683 Z-1.0000
G01 X140.8735 Y120.0366 Z-1.0000
G01 X143.6522 Y122.9923 Z-1.0000
G01 X141.8244 Y126.1579 Z-1.0000
G01 X137.8755 Y125.2291 Z-1.0000
G01 X136.9649 Y124.7887 Z-1.0000
G01 X134.6266 Y123.2161 Z-1.0000
G01 X131.4400 Y127.3689 Z-1.0000
G01 X133.5644 Y129.2204 Z-1.0000
G01 X134.2253 Y129.9861 Z-1.0000
G01 X136.1447 Y133.5596 Z-1.0000
G01 X133.5600 Y136.1448 Z-1.0000
G01 X129.9859 Y134.2255 Z-1.0000
G01 X129.2203 Y133.5646 Z-1.0000
G01 X127.3688 Y131.4402 Z-1.0000
G01 X123.2159 Y134.6268 Z-1.0000
G01 X124.7891 Y136.9650 Z-1.0000
G01 X125.2295 Y137.8756 Z-1.0000
G01 X126.1583 Y141.8245 Z-1.0000
G01 X122.9921 Y143.6524 Z-1.0000
G01 X120.0370 Y140.8731 Z-1.0000
G01 X119.4682 Y140.0369 Z-1.0000
G01 X118.2296 Y137.5052 Z-1.0000
G01 X113.3938 Y139.5083 Z-1.0000
G01 X114.3077 Y142.1740 Z-1.0000
G01 X114.4973 Y143.1678 Z-1.0000
G01 X114.3728 Y147.2226 Z-1.0000
G01 X110.8417 Y148.1685 Z-1.0000
G01 X108.7063 Y144.7195 Z-1.0000
G01 X108.3733 Y143.7643 Z-1.0000
G01 X107.8326 Y140.9988 Z-1.0000
G01 X102.6423 Y141.6818 Z-1.0000
G01 X102.8358 Y144.4935 Z-1.0000
G01 X102.7614 Y145.5022 Z-1.0000
G01 X101.5917 Y149.3867 Z-1.0000
G01 X97.9361 Y149.3867 Z-1.0000
G01 X97.9361 Y149.3867 Z-1.0000
G00 Z5.0000

(End cutting path id: path21012)


(Start cutting path id: path21012)
(Change tool to Cylindrical cutter)

G00 Z5.0000
G00 X99.7639 Y103.7637

G01 Z-1.0000 F 100.0000(Penetrate)
G02 X100.5818 Y103.6798 Z-1.0000 I 0.0000 J -4.0304 F 400.0000
G02 X101.3205 Y103.4495 Z-1.0000 I -0.8033 J -3.8762
G02 X102.0025 Y103.0791 Z-1.0000 I -1.5552 J -3.6769
G02 X102.5922 Y102.5923 Z-1.0000 I -2.2520 J -3.3285
G02 X103.0790 Y102.0027 Z-1.0000 I -2.8422 J -2.8421
G02 X103.4493 Y101.3207 Z-1.0000 I -3.3063 J -2.2371
G02 X103.6799 Y100.5819 Z-1.0000 I -3.6588 J -1.5475
G02 X103.7641 Y99.7641 Z-1.0000 I -3.9332 J -0.8179
G02 X103.6800 Y98.9459 Z-1.0000 I -4.0215 J -0.0000
G02 X103.4493 Y98.2069 Z-1.0000 I -3.8880 J 0.8079
G02 X103.0790 Y97.5249 Z-1.0000 I -3.6767 J 1.5551
G02 X102.5922 Y96.9352 Z-1.0000 I -3.3290 J 2.2524
G02 X102.0025 Y96.4484 Z-1.0000 I -2.8417 J 2.8418
G02 X101.3205 Y96.0781 Z-1.0000 I -2.2372 J 3.3066
G02 X100.5818 Y95.8477 Z-1.0000 I -1.5421 J 3.6459
G02 X99.7639 Y95.7639 Z-1.0000 I -0.8179 J 3.9466
G02 X98.9457 Y95.8477 Z-1.0000 I -0.0000 J 4.0345
G02 X98.2067 Y96.0781 Z-1.0000 I 0.8025 J 3.8749
G02 X97.5250 Y96.4484 Z-1.0000 I 1.5516 J 3.6683
G02 X96.9356 Y96.9352 Z-1.0000 I 2.2574 J 3.3336
G02 X96.4485 Y97.5249 Z-1.0000 I 2.8517 J 2.8515
G02 X96.0779 Y98.2069 Z-1.0000 I 3.2957 J 2.2327
G02 X95.8476 Y98.9459 Z-1.0000 I 3.6446 J 1.5415
G02 X95.7637 Y99.7641 Z-1.0000 I 3.9508 J 0.8182
G02 X95.8476 Y100.5819 Z-1.0000 I 4.0304 J 0.0000
G02 X96.0779 Y101.3207 Z-1.0000 I 3.8763 J -0.8033
G02 X96.4485 Y102.0027 Z-1.0000 I 3.6663 J -1.5507
G02 X96.9356 Y102.5923 Z-1.0000 I 3.3388 J -2.2619
G02 X97.5250 Y103.0791 Z-1.0000 I 2.8468 J -2.8469
G02 X98.2067 Y103.4495 Z-1.0000 I 2.2333 J -3.2979
G02 X98.9457 Y103.6799 Z-1.0000 I 1.5415 J -3.6445
G02 X99.7639 Y103.7637 Z-1.0000 I 0.8182 J -3.9507
G01 X99.7639 Y103.7637 Z-1.0000
G00 Z5.0000

(End cutting path id: path21012)



(Footer)
M5
G00 X0.0000 Y0.0000
M2
(Using default footer. To add your own footer create file "footer" in the output dir.)
(end)
%
