;PYCAM-META-DATA: Filename: /home/surya/Desktop/SampleScene3.stl
;PYCAM-META-DATA: Timestamp: 2016-03-12 01:47:29.672527
;PYCAM-META-DATA: Version: 0.5.1
;Estimated machine time: 104 minutes
G40 (disable tool radius compensation)
G49 (disable tool length compensation)
G80 (cancel modal motion)
G54 (select coordinate system 1)
G90 (disable incremental moves)
G21 (metric)
G61 (exact path mode)
F200.00000
S1000.00000
;PYCAM_TOOLPATH_SETTINGS: START
;[Bounds]
;maxz = -0.041114
;maxx = 166.5
;maxy = 130.2742448
;minx = 1.5
;miny = 1.5205232
;minz = -30.0
;
;[Tool]
;torus_radius = 0.25
;speed = 1000.0
;shape = CylindricalCutter
;tool_radius = 1.5
;feedrate = 200.0
;
;[Process]
;engrave_offset = 0.0
;step_down = 3.0
;generator = DropCutter
;postprocessor = PathAccumulator
;overlap_percent = 60
;milling_style = ignore
;material_allowance = 0.0
;pocketing_type = none
;path_direction = x
;
;PYCAM_TOOLPATH_SETTINGS: END
T1 M6
G0 Z5.0000
M3 (start spindle)
G04 P3 (wait for 3 seconds)
 X1.5000 Y1.5205
G1 Z-30.0000
 X166.5000
 Y2.7127
 X1.5000
 Y3.9049
 X166.5000
 Y5.0970
 X1.5000
 Y6.2892
 X166.5000
 Y7.4813
 X1.5000
 Y8.6735
 X166.5000
 Y9.8657
 X49.0107
 X49.0093 Z-28.4294
 X47.4404 Z-25.3088
 X47.4375 Z-25.3050
 X47.3906 Z-25.2594
 X47.3672 Z-25.2385
 X47.3555 Z-25.2287
 X47.3438 Z-25.2194
 X47.3203 Z-25.2019
 X47.2969 Z-25.1862
 X47.2734 Z-25.1722
 X47.2617 Z-25.1658
 X47.2559 Z-25.1628
 X47.2529 Z-25.1613
 X47.2500 Z-25.1599
 X47.2266 Z-25.1492
 X47.2148 Z-25.1446
 X47.2031 Z-25.1403
 X47.1797 Z-25.1331
 X47.1680 Z-25.1302
 X47.1562 Z-25.1276
 X47.1328 Z-25.1238
 X47.1094 Z-25.1218
 X47.0625 Z-25.1214
 X40.9219
 X40.8984 Z-25.1215
 X40.8867 Z-25.1220
 X40.8809 Z-25.1224
 X40.8779 Z-25.1227
 X40.8765 Z-25.1228
 X40.8750 Z-25.1230
 X40.8516 Z-25.1262
 X40.8398 Z-25.1284
 X40.8281 Z-25.1311
 X40.8047 Z-25.1377
 X40.7812 Z-25.1461
 X40.7578 Z-25.1561
 X40.7344 Z-25.1679
 X40.7109 Z-25.1813
 X40.6992 Z-25.1887
 X40.6934 Z-25.1926
 X40.6875 Z-25.1965
 X40.6406 Z-25.2320
 X40.6172 Z-25.2523
 X40.6055 Z-25.2631
 X40.5996 Z-25.2686
 X40.5967 Z-25.2714
 X40.5938 Z-25.2743
 X40.5000 Z-25.4273
 X38.9912 Z-28.4284
 X38.9897 Z-30.0000
 X1.5000
 Y11.0578
 X33.8438
 X33.8555 Z-28.4053
 X33.8672 Z-28.3597
 X33.8906 Z-28.2685
 X34.1250 Z-27.3565
 X34.2188 Z-26.9978
 X34.3125 Z-26.6832
 X34.5000 Z-26.2057
 X34.6875 Z-25.8327
 X34.8633 Z-25.4831
 X34.8691 Z-25.4714
 X34.9512 Z-25.3083
 X34.9519 Z-25.3069
 X38.0625 Z-22.2475
 X38.2500 Z-22.1227
 X40.6875 Z-20.5544
 X40.7344 Z-20.5245
 X40.7578 Z-20.5109
 X40.7812 Z-20.4983
 X40.8281 Z-20.4766
 X40.8516 Z-20.4674
 X40.8633 Z-20.4632
 X40.8750 Z-20.4593
 X41.2500 Z-20.4340
 X46.8750
 X46.9688
 X46.9922 Z-20.4347
 X47.0156 Z-20.4364
 X47.0391 Z-20.4393
 X47.0508 Z-20.4411
 X47.0625 Z-20.4432
 X47.1094 Z-20.4546
 X47.1328 Z-20.4619
 X47.1562 Z-20.4703
 X47.2031 Z-20.4906
 X47.2500 Z-20.5153
 X47.6250 Z-20.7554
 X49.8750 Z-22.2031
 X50.2500 Z-22.5549
 X52.5000 Z-24.7678
 X52.6875 Z-24.9522
 X53.0391 Z-25.2980
 X53.0625 Z-25.3355
 X53.4375 Z-26.0813
 X53.5312 Z-26.2712
 X53.6250 Z-26.5016
 X53.8125 Z-27.1139
 X54.0000 Z-27.8429
 X54.1494 Z-28.4243
 X54.1509 Z-30.0000
 X166.5000
 Y12.2500
 X56.8359
 X56.8242 Z-28.4132
 X56.0625 Z-25.4493
 X55.8750 Z-25.0166
 X54.4688 Z-22.3108
 X54.3750 Z-22.1667
 X53.6250 Z-21.2227
 X53.4375 Z-20.9867
 X53.3438 Z-20.8773
 X53.2969 Z-20.8288
 X53.2734 Z-20.8060
 X53.2500 Z-20.7843
 X52.8750 Z-20.5247
 X51.0000 Z-19.3183
 X50.6250 Z-19.1235
 X47.2500 Z-17.5387
 X47.1562 Z-17.4947
 X47.1094 Z-17.4745
 X47.0859 Z-17.4656
 X47.0742 Z-17.4614
 X47.0625 Z-17.4575
 X47.0156 Z-17.4438
 X46.9922 Z-17.4381
 X46.9688 Z-17.4333
 X46.9219 Z-17.4261
 X46.8750 Z-17.4222
 X46.5000 Z-17.4214
 X41.2500
 X41.1562
 X41.1094 Z-17.4232
 X41.0859 Z-17.4253
 X41.0742 Z-17.4266
 X41.0625 Z-17.4282
 X41.0156 Z-17.4365
 X40.9922 Z-17.4418
 X40.9688 Z-17.4480
 X40.8750 Z-17.4808
 X40.5000 Z-17.6561
 X37.1250 Z-19.2408
 X36.7500 Z-19.4791
 X34.8984 Z-20.6704
 X34.8867 Z-20.6780
 X34.8750 Z-20.6857
 X34.7812 Z-20.7569
 X34.7344 Z-20.7987
 X34.6875 Z-20.8445
 X34.5000 Z-21.0654
 X33.9375 Z-21.7734
 X33.8438 Z-21.8914
 X33.7500 Z-22.0094
 X33.3750 Z-22.6114
 X32.0625 Z-25.1368
 X31.8750 Z-25.6925
 X31.1719 Z-28.4284
 X31.1689 Z-30.0000
 X1.5000
 Y13.4422
 X28.1250
 X28.5000 Z-28.4060
 X29.2031 Z-25.6700
 X29.2266 Z-25.5788
 X29.2500 Z-25.4876
 X29.6250 Z-24.6748
 X30.7500 Z-22.5102
 X31.1250 Z-21.9431
 X33.1875 Z-19.3471
 X33.3750 Z-19.1483
 X34.8750 Z-17.7705
 X34.9688 Z-17.6846
 X35.0156 Z-17.6444
 X35.0625 Z-17.6072
 X35.1094 Z-17.5730
 X35.1562 Z-17.5418
 X35.2500 Z-17.4882
 X35.6250 Z-17.3116
 X37.5000 Z-16.4312
 X37.8750 Z-16.2838
 X40.9688 Z-15.1635
 X41.0156 Z-15.1479
 X41.0391 Z-15.1410
 X41.0625 Z-15.1348
 X41.1094 Z-15.1242
 X41.1562 Z-15.1161
 X41.2500 Z-15.1075
 X41.6250 Z-15.1069
 X46.6875
 X46.7344 Z-15.1071
 X46.7812 Z-15.1093
 X46.8281 Z-15.1140
 X46.8516 Z-15.1173
 X46.8750 Z-15.1212
 X47.2500 Z-15.2427
 X50.2500 Z-16.3290
 X50.6250 Z-16.4899
 X52.6875 Z-17.4583
 X52.7344 Z-17.4804
 X52.7812 Z-17.5047
 X52.8281 Z-17.5320
 X52.8750 Z-17.5623
 X53.2500 Z-17.8853
 X54.7031 Z-19.2201
 X54.7500 Z-19.2684
 X57.0000 Z-22.1005
 X57.3750 Z-22.7507
 X58.4062 Z-24.7349
 X58.4531 Z-24.8251
 X58.5000 Z-24.9153
 X58.8750 Z-25.9740
 X59.4844 Z-28.3452
 X59.4961 Z-28.3908
 X59.5049 Z-28.4250
 X59.5063 Z-30.0000
 X166.5000
 Y14.6343
 X61.5000
 X61.1250 Z-27.8109
 X60.7500 Z-25.7022
 X60.3750 Z-24.4597
 X59.6484 Z-22.4395
 X59.6250 Z-22.3743
 X59.4375 Z-21.9852
 X59.2500 Z-21.6451
 X58.8750 Z-21.0902
 X57.4688 Z-19.3201
 X57.3750 Z-19.2148
 X54.3750 Z-16.4591
 X54.0000 Z-16.1754
 X52.6875 Z-15.2457
 X52.5938 Z-15.1819
 X52.5469 Z-15.1534
 X52.5000 Z-15.1272
 X52.1250 Z-14.9771
 X48.7500 Z-13.7550
 X48.3750 Z-13.6277
 X46.9219 Z-13.2096
 X46.8984 Z-13.2029
 X46.8750 Z-13.1966
 X46.7812 Z-13.1764
 X46.7344 Z-13.1693
 X46.6875 Z-13.1642
 X46.5000 Z-13.1600
 X41.4375
 X41.3438 Z-13.1619
 X41.2969 Z-13.1657
 X41.2500 Z-13.1715
 X40.8750 Z-13.2681
 X39.7500 Z-13.5918
 X39.3750 Z-13.7097
 X35.6719 Z-15.0506
 X35.6484 Z-15.0592
 X35.6250 Z-15.0684
 X35.2500 Z-15.2899
 X33.7500 Z-16.3525
 X33.3750 Z-16.6887
 X30.7500 Z-19.1000
 X30.3750 Z-19.5168
 X29.2500 Z-20.9329
 X29.0625 Z-21.1690
 X28.8750 Z-21.4366
 X28.6875 Z-21.7578
 X28.5000 Z-22.0989
 X28.1250 Z-23.0694
 X27.3750 Z-25.1548
 X27.0000 Z-27.1080
 X26.7656 Z-28.4259
 X26.7642 Z-30.0000
 X1.5000
 Y15.8265
 X24.7500
 X25.1250 Z-28.4245
 X25.6758 Z-25.3274
 X25.6875 Z-25.2845
 X26.6250 Z-22.6777
 X27.0000 Z-21.8426
 X28.4062 Z-19.2847
 X28.5000 Z-19.1506
 X29.2500 Z-18.1550
 X29.4375 Z-17.9068
 X29.5312 Z-17.7909
 X29.6250 Z-17.6849
 X30.0000 Z-17.3293
 X30.9375 Z-16.4681
 X31.1250 Z-16.3152
 X34.7812 Z-13.7252
 X34.8750 Z-13.6592
 X35.7188 Z-13.1843
 X35.7656 Z-13.1587
 X35.8125 Z-13.1349
 X35.9062 Z-13.0928
 X36.0000 Z-13.0581
 X36.3750 Z-12.9491
 X41.2031 Z-11.5598
 X41.2266 Z-11.5531
 X41.2500 Z-11.5468
 X41.3438 Z-11.5266
 X41.3906 Z-11.5195
 X41.4375 Z-11.5144
 X41.6250 Z-11.5101
 X46.4531
 X46.4766 Z-11.5102
 X46.5000 Z-11.5106
 X46.5938 Z-11.5175
 X46.6406 Z-11.5240
 X46.6875 Z-11.5324
 X46.8750 Z-11.5823
 X51.9375 Z-13.0390
 X52.0312 Z-13.0689
 X52.0781 Z-13.0866
 X52.1250 Z-13.1061
 X52.5000 Z-13.3074
 X52.8750 Z-13.5185
 X53.2500 Z-13.7474
 X56.9062 Z-16.3373
 X57.0000 Z-16.4107
 X58.1250 Z-17.4441
 X58.3125 Z-17.6198
 X58.5000 Z-17.8284
 X58.8750 Z-18.3209
 X59.4375 Z-19.0676
 X59.6250 Z-19.3416
 X61.1250 Z-22.0700
 X61.5000 Z-23.0253
 X62.2500 Z-25.1107
 X62.6250 Z-27.0187
 X62.8755 Z-28.4273
 X62.8762 Z-30.0000
 X119.4375
 X119.6250 Z-29.9514
 X121.1250 Z-29.5333
 X121.2188 Z-29.5072
 X121.2656 Z-29.4951
 X121.3125 Z-29.4850
 X121.4062 Z-29.4706
 X121.5000 Z-29.4639
 X121.8750 Z-29.4634
 X126.4688
 X126.5156 Z-29.4645
 X126.5625 Z-29.4675
 X126.6562 Z-29.4793
 X126.7500 Z-29.4989
 X127.1250 Z-29.6030
 X128.5312 Z-29.9950
 X128.6250 Z-30.0000
 X166.5000
 Y17.0187
 X132.9690
 X132.9683 Z-29.9997
 X131.9062 Z-29.4206
 X131.8125 Z-29.3719
 X131.7188 Z-29.3302
 X131.6250 Z-29.2956
 X131.2500 Z-29.1894
 X127.1250 Z-28.0396
 X126.7500 Z-27.9351
 X126.6562 Z-27.9089
 X126.6094 Z-27.8969
 X126.5625 Z-27.8867
 X126.4688 Z-27.8723
 X126.3750 Z-27.8656
 X126.0000 Z-27.8651
 X121.6875
 X121.5938 Z-27.8670
 X121.5469 Z-27.8706
 X121.5000 Z-27.8762
 X121.1250 Z-27.9699
 X120.7500 Z-28.0744
 X116.6250 Z-29.2242
 X116.4375 Z-29.2765
 X116.3438 Z-29.3064
 X116.2500 Z-29.3433
 X115.8750 Z-29.5398
 X115.0312 Z-29.9999
 X114.9844 Z-30.0000
 X64.8750
 X64.5000 Z-28.3353
 X63.9624 Z-25.3123
 X63.9609 Z-25.3055
 X63.0000 Z-22.6336
 X62.6250 Z-21.8138
 X61.3125 Z-19.4264
 X61.1250 Z-19.1295
 X59.2500 Z-16.6405
 X58.8750 Z-16.1971
 X57.9375 Z-15.2374
 X57.8438 Z-15.1433
 X57.7500 Z-15.0564
 X57.3750 Z-14.7726
 X55.8750 Z-13.7101
 X55.5000 Z-13.4889
 X51.9375 Z-11.4835
 X51.8438 Z-11.4316
 X51.7969 Z-11.4080
 X51.7500 Z-11.3862
 X51.3750 Z-11.2633
 X51.0000 Z-11.1554
 X50.6250 Z-11.0615
 X46.6875 Z-10.1473
 X46.5938 Z-10.1270
 X46.5469 Z-10.1191
 X46.5000 Z-10.1128
 X46.1250 Z-10.1036
 X41.6719
 X41.6484
 X41.6250 Z-10.1040
 X41.2500 Z-10.1618
 X37.1250 Z-11.1196
 X36.7500 Z-11.2273
 X36.4688 Z-11.3082
 X36.4219 Z-11.3218
 X36.3750 Z-11.3369
 X36.0000 Z-11.5187
 X32.2500 Z-13.6296
 X31.8750 Z-13.8872
 X30.4688 Z-14.8833
 X30.3750 Z-14.9524
 X30.0000 Z-15.3014
 X29.0625 Z-16.2611
 X28.8750 Z-16.4746
 X27.0000 Z-18.9636
 X26.6250 Z-19.5400
 X25.2188 Z-22.0980
 X25.1250 Z-22.2860
 X24.0938 Z-25.1535
 X24.0000 Z-25.5237
 X23.4844 Z-28.4231
 X23.4814 Z-30.0000
 X1.5000
 Y18.2108
 X22.1250
 X22.5000 Z-26.4635
 X22.8750 Z-24.5606
 X23.4375 Z-22.5831
 X23.4844 Z-22.4191
 X23.5078 Z-22.3384
 X23.5195 Z-22.2985
 X23.5254 Z-22.2786
 X23.5312 Z-22.2587
 X23.6250 Z-22.0483
 X24.0000 Z-21.3302
 X25.1250 Z-19.2838
 X25.5000 Z-18.7766
 X27.1875 Z-16.5365
 X27.3750 Z-16.3088
 X29.8125 Z-13.8136
 X30.0000 Z-13.6297
 X30.7500 Z-13.0196
 X30.9375 Z-12.8757
 X31.1250 Z-12.7557
 X31.5000 Z-12.5445
 X33.7500 Z-11.2780
 X34.1250 Z-11.0772
 X36.3750 Z-10.0552
 X36.5625 Z-9.9715
 X36.6562 Z-9.9360
 X36.7500 Z-9.9064
 X37.1250 Z-9.8174
 X41.4375 Z-8.8161
 X41.5312 Z-8.7958
 X41.5781 Z-8.7879
 X41.6250 Z-8.7825
 X42.0000 Z-8.7750
 X46.1250
 X46.2188
 X46.2656 Z-8.7757
 X46.3125 Z-8.7778
 X46.4062 Z-8.7858
 X46.5000 Z-8.8019
 X46.8750 Z-8.8886
 X51.0000 Z-9.8464
 X51.1875 Z-9.8900
 X51.2812 Z-9.9156
 X51.3750 Z-9.9472
 X51.7500 Z-10.1120
 X53.6250 Z-10.9636
 X54.0000 Z-11.1372
 X56.8125 Z-12.7204
 X56.9062 Z-12.7740
 X57.0000 Z-12.8330
 X57.3750 Z-13.1213
 X57.7500 Z-13.4263
 X58.1250 Z-13.7496
 X60.5625 Z-16.2448
 X60.7500 Z-16.4535
 X62.6250 Z-18.9425
 X63.0000 Z-19.5112
 X64.1250 Z-21.5575
 X64.3125 Z-21.9190
 X64.4062 Z-22.1147
 X64.5000 Z-22.3652
 X64.8750 Z-23.6817
 X65.2500 Z-25.0000
 X65.6250 Z-27.3522
 X65.7759 Z-28.4249
 X65.7766 Z-30.0000
 X112.3534
 X112.3535
 X116.4375 Z-27.7730
 X116.5312 Z-27.7223
 X116.5781 Z-27.6990
 X116.6250 Z-27.6774
 X117.0000 Z-27.5563
 X120.7500 Z-26.5110
 X121.1250 Z-26.4065
 X121.4531 Z-26.3151
 X121.4766 Z-26.3086
 X121.5000 Z-26.3024
 X121.5938 Z-26.2828
 X121.6406 Z-26.2759
 X121.6875 Z-26.2709
 X121.8750 Z-26.2668
 X126.1875
 X126.2812 Z-26.2687
 X126.3281 Z-26.2724
 X126.3750 Z-26.2780
 X126.7500 Z-26.3717
 X127.1250 Z-26.4762
 X131.1562 Z-27.5999
 X131.2031 Z-27.6133
 X131.2500 Z-27.6284
 X131.6250 Z-27.8071
 X135.6445 Z-29.9989
 X135.6562 Z-30.0000
 X166.5000
 Y19.4030
 X137.7188
 X137.6250 Z-29.9281
 X136.5938 Z-29.1154
 X136.5000 Z-29.0419
 X136.1250 Z-28.8008
 X131.1562 Z-26.0913
 X131.0625 Z-26.0413
 X130.9688 Z-25.9978
 X130.8750 Z-25.9613
 X130.5000 Z-25.8536
 X127.1250 Z-24.9128
 X126.7500 Z-24.8083
 X126.4219 Z-24.7168
 X126.3984 Z-24.7103
 X126.3750 Z-24.7042
 X126.2812 Z-24.6845
 X126.2344 Z-24.6776
 X126.1875 Z-24.6726
 X126.0000 Z-24.6685
 X121.9219
 X121.8984
 X121.8750 Z-24.6690
 X121.5000 Z-24.7386
 X121.1250 Z-24.8431
 X120.7500 Z-24.9477
 X117.3750 Z-25.8884
 X117.1875 Z-25.9410
 X117.0938 Z-25.9727
 X117.0000 Z-26.0115
 X116.6250 Z-26.2106
 X111.8438 Z-28.8178
 X111.7500 Z-28.8711
 X111.3750 Z-29.1401
 X110.2844 Z-29.9995
 X110.2837 Z-30.0000
 X67.1250
 X66.7500 Z-27.7189
 X66.4219 Z-25.3861
 X66.3750 Z-25.1813
 X65.6250 Z-22.5447
 X65.2500 Z-21.5753
 X64.3125 Z-19.4193
 X64.1250 Z-19.0586
 X63.7500 Z-18.4292
 X63.3750 Z-17.8038
 X63.0000 Z-17.2621
 X62.4375 Z-16.5154
 X62.2500 Z-16.2926
 X59.8125 Z-13.7973
 X59.6250 Z-13.6168
 X56.6250 Z-11.1764
 X56.5312 Z-11.1040
 X56.4844 Z-11.0739
 X56.4375 Z-11.0450
 X56.2500 Z-10.9416
 X55.8750 Z-10.7694
 X51.7500 Z-8.8958
 X51.3750 Z-8.7371
 X51.1875 Z-8.6680
 X51.0938 Z-8.6336
 X51.0000 Z-8.6026
 X50.6250 Z-8.5195
 X46.4062 Z-7.7254
 X46.3125 Z-7.7103
 X46.1250 Z-7.6960
 X45.7500 Z-7.6956
 X42.0000
 X41.9062
 X41.8125 Z-7.6985
 X41.6250 Z-7.7198
 X41.2500 Z-7.7901
 X37.2188 Z-8.5489
 X37.1250 Z-8.5687
 X36.7500 Z-8.6910
 X36.3750 Z-8.8390
 X31.8750 Z-10.8830
 X31.6875 Z-10.9739
 X31.5938 Z-11.0264
 X31.5469 Z-11.0545
 X31.5000 Z-11.0838
 X31.1250 Z-11.3797
 X28.5000 Z-13.5151
 X28.1250 Z-13.8613
 X25.8750 Z-16.1646
 X25.5000 Z-16.5984
 X25.1250 Z-17.0962
 X24.7500 Z-17.6106
 X24.3750 Z-18.2194
 X24.0000 Z-18.8488
 X23.6250 Z-19.5630
 X22.5000 Z-22.1503
 X22.1250 Z-23.4235
 X21.7500 Z-24.7418
 X21.3750 Z-26.8302
 X21.1523 Z-28.4131
 X21.1494 Z-30.0000
 X1.5000
 Y20.5951
 X19.8750
 X20.2500 Z-27.1968
 X20.4375 Z-25.8638
 X20.6250 Z-24.9231
 X21.3750 Z-22.2865
 X21.7500 Z-21.4065
 X22.5000 Z-19.6816
 X22.8750 Z-18.9353
 X24.3750 Z-16.4179
 X24.7500 Z-15.9239
 X25.5000 Z-14.9532
 X25.8750 Z-14.4919
 X26.2500 Z-14.1010
 X26.6250 Z-13.7171
 X27.0000 Z-13.4005
 X29.6250 Z-11.2651
 X30.0000 Z-10.9910
 X32.1562 Z-9.5757
 X32.2500 Z-9.5166
 X32.6250 Z-9.3261
 X33.7500 Z-8.8151
 X34.1250 Z-8.6716
 X37.1250 Z-7.5669
 X37.3125 Z-7.4983
 X37.5000 Z-7.4430
 X37.8750 Z-7.3696
 X41.2500 Z-6.7343
 X41.6250 Z-6.6680
 X41.8125 Z-6.6416
 X42.0000 Z-6.6300
 X42.3750 Z-6.6297
 X45.9375
 X46.0312 Z-6.6307
 X46.1250 Z-6.6358
 X46.5000 Z-6.6873
 X50.2500 Z-7.3931
 X50.4375 Z-7.4289
 X50.6250 Z-7.4778
 X51.0000 Z-7.6129
 X54.0000 Z-8.7177
 X54.3750 Z-8.8719
 X55.3125 Z-9.2977
 X55.5000 Z-9.3829
 X55.8750 Z-9.5962
 X58.1250 Z-11.0731
 X58.5000 Z-11.3668
 X61.1250 Z-13.5022
 X61.5000 Z-13.8451
 X61.8750 Z-14.2290
 X62.2500 Z-14.6368
 X62.6250 Z-15.1150
 X63.3750 Z-16.0857
 X63.7500 Z-16.6276
 X65.2500 Z-19.1451
 X65.6250 Z-19.9691
 X66.3750 Z-21.6939
 X66.7500 Z-22.7260
 X67.4062 Z-25.0330
 X67.5000 Z-25.4194
 X67.9219 Z-28.4188
 X67.9248 Z-30.0000
 X108.6429
 X108.6431 Z-29.9999
 X112.1250 Z-27.2560
 X112.3125 Z-27.1164
 X112.5000 Z-27.0000
 X112.8750 Z-26.7954
 X117.1875 Z-24.4437
 X117.2812 Z-24.3927
 X117.3281 Z-24.3684
 X117.3750 Z-24.3458
 X117.7500 Z-24.2205
 X120.3750 Z-23.4888
 X120.7500 Z-23.3843
 X121.6875 Z-23.1230
 X121.7812 Z-23.0985
 X121.8281 Z-23.0890
 X121.8750 Z-23.0815
 X122.2500 Z-23.0702
 X125.9531
 X125.9766
 X126.0000 Z-23.0707
 X126.3750 Z-23.1404
 X126.7500 Z-23.2449
 X127.1250 Z-23.3494
 X130.3125 Z-24.2379
 X130.4062 Z-24.2641
 X130.4531 Z-24.2784
 X130.5000 Z-24.2944
 X130.8750 Z-24.4778
 X135.3750 Z-26.9317
 X135.5625 Z-27.0362
 X135.7500 Z-27.1604
 X136.1250 Z-27.4530
 X139.3564 Z-29.9995
 X139.3572 Z-30.0000
 X166.5000
 Y21.7873
 X141.0000
 X140.6250 Z-29.7061
 X135.1875 Z-25.4212
 X135.0938 Z-25.3485
 X135.0000 Z-25.2815
 X134.6250 Z-25.0626
 X130.5000 Z-22.8132
 X130.3125 Z-22.7113
 X130.2188 Z-22.6659
 X130.1250 Z-22.6276
 X129.7500 Z-22.5178
 X127.1250 Z-21.7861
 X126.7500 Z-21.6815
 X126.1875 Z-21.5247
 X126.0938 Z-21.5003
 X126.0469 Z-21.4908
 X126.0000 Z-21.4832
 X125.6250 Z-21.4719
 X122.2500
 X122.1562
 X122.1094 Z-21.4730
 X122.0625 Z-21.4761
 X121.9688 Z-21.4880
 X121.8750 Z-21.5077
 X121.5000 Z-21.6119
 X120.7500 Z-21.8209
 X120.3750 Z-21.9254
 X118.0312 Z-22.5787
 X117.9375 Z-22.6059
 X117.8438 Z-22.6396
 X117.7500 Z-22.6802
 X117.3750 Z-22.8814
 X113.2500 Z-25.1307
 X113.0625 Z-25.2400
 X112.8750 Z-25.3722
 X112.5000 Z-25.6674
 X107.1094 Z-29.9154
 X107.0859 Z-29.9339
 X107.0742 Z-29.9432
 X107.0684 Z-29.9479
 X107.0654 Z-29.9503
 X107.0640 Z-29.9514
 X107.0625 Z-29.9526
 X107.0391 Z-29.9716
 X107.0273 Z-29.9812
 X107.0215 Z-29.9861
 X107.0186 Z-29.9885
 X107.0171 Z-29.9897
 X107.0164 Z-29.9903
 X107.0160 Z-29.9906
 X107.0156 Z-29.9909
 X107.0098 Z-29.9958
 X107.0083 Z-29.9970
 X107.0076 Z-29.9976
 X107.0072 Z-29.9979
 X107.0070 Z-29.9980
 X107.0068 Z-29.9982
 X107.0061 Z-29.9988
 X107.0057 Z-29.9991
 X107.0056 Z-29.9993
 X107.0055
 X107.0054 Z-29.9994
 X107.0046 Z-30.0000
 X69.0000
 X68.8125 Z-27.1191
 X68.6250 Z-25.7861
 X68.2500 Z-24.2256
 X67.8750 Z-22.9073
 X67.5000 Z-21.8125
 X66.4219 Z-19.3331
 X66.3750 Z-19.2317
 X64.8750 Z-16.7142
 X64.5000 Z-16.1524
 X62.6250 Z-13.7257
 X62.2500 Z-13.3267
 X61.5000 Z-12.5553
 X61.1250 Z-12.1799
 X60.7500 Z-11.8623
 X60.0000 Z-11.2522
 X59.6250 Z-10.9806
 X56.6250 Z-9.0114
 X56.2500 Z-8.7693
 X55.5000 Z-8.3702
 X55.1250 Z-8.1709
 X54.7500 Z-8.0078
 X51.3750 Z-6.7650
 X51.0000 Z-6.6382
 X50.3438 Z-6.4432
 X50.2500 Z-6.4172
 X49.8750 Z-6.3477
 X46.2188 Z-5.7923
 X46.1250 Z-5.7783
 X45.7500 Z-5.7588
 X42.1875
 X42.0938 Z-5.7598
 X42.0000 Z-5.7649
 X41.6250 Z-5.8161
 X38.0625 Z-6.3572
 X37.9688 Z-6.3715
 X37.8750 Z-6.3885
 X37.5000 Z-6.4897
 X37.1250 Z-6.6011
 X36.7500 Z-6.7190
 X33.3750 Z-7.9618
 X33.1875 Z-8.0309
 X33.0000 Z-8.1096
 X32.6250 Z-8.3037
 X31.8750 Z-8.7028
 X31.5000 Z-8.9294
 X28.3125 Z-11.0216
 X28.1250 Z-11.1505
 X27.3750 Z-11.7606
 X27.0000 Z-12.0681
 X26.6250 Z-12.4268
 X25.5000 Z-13.5838
 X25.1250 Z-14.0493
 X23.4375 Z-16.2333
 X23.2500 Z-16.5044
 X21.7500 Z-19.0219
 X21.3750 Z-19.8002
 X20.4375 Z-21.9563
 X20.2500 Z-22.4678
 X19.5000 Z-25.1044
 X19.1250 Z-27.5635
 X19.0034 Z-28.4278
 X19.0027 Z-30.0000
 X1.5000
 Y22.9795
 X18.0000
 X18.3750 Z-26.5623
 X18.7500 Z-24.3914
 X19.1250 Z-22.8551
 X19.2188 Z-22.4711
 X19.2656 Z-22.2805
 X19.3125 Z-22.1419
 X19.5000 Z-21.6653
 X19.8750 Z-20.7812
 X20.4375 Z-19.4876
 X20.6250 Z-19.1084
 X22.1250 Z-16.5910
 X22.5000 Z-16.0574
 X24.2812 Z-13.7520
 X24.3750 Z-13.6369
 X26.6250 Z-11.3228
 X27.0000 Z-10.9725
 X27.7500 Z-10.3501
 X28.1250 Z-10.0681
 X28.5000 Z-9.8215
 X30.0000 Z-8.8369
 X30.3750 Z-8.6279
 X33.3750 Z-7.0314
 X33.5625 Z-6.9318
 X33.7500 Z-6.8425
 X34.1250 Z-6.6996
 X34.5000 Z-6.5855
 X37.8750 Z-5.5826
 X38.0625 Z-5.5270
 X38.2500 Z-5.4803
 X38.6250 Z-5.4198
 X41.9062 Z-4.9214
 X42.0000 Z-4.9074
 X42.3750 Z-4.8878
 X45.6562
 X45.7500 Z-4.8881
 X46.1250 Z-4.9262
 X49.5000 Z-5.4388
 X49.6875 Z-5.4682
 X49.8750 Z-5.5097
 X50.2500 Z-5.6198
 X53.6250 Z-6.6226
 X54.0000 Z-6.7456
 X54.1875 Z-6.8162
 X54.3750 Z-6.9003
 X54.7500 Z-7.0979
 X57.7500 Z-8.6944
 X58.1250 Z-8.9190
 X59.6250 Z-9.9036
 X60.0000 Z-10.1557
 X60.3750 Z-10.4538
 X61.1250 Z-11.0762
 X61.5000 Z-11.4513
 X63.3750 Z-13.3797
 X63.7500 Z-13.7925
 X65.6250 Z-16.2192
 X66.0000 Z-16.8007
 X67.3125 Z-19.0036
 X67.5000 Z-19.3439
 X68.2500 Z-21.0687
 X68.4375 Z-21.5120
 X68.5312 Z-21.7430
 X68.6250 Z-21.9803
 X69.0000 Z-23.3672
 X69.3750 Z-24.9035
 X69.7500 Z-27.5979
 X69.8496 Z-28.4232
 X69.8511 Z-30.0000
 X105.9038
 X105.9045 Z-29.9997
 X107.6250 Z-28.2856
 X108.0000 Z-27.9277
 X108.3750 Z-27.6250
 X113.5312 Z-23.5617
 X113.6250 Z-23.4907
 X114.0000 Z-23.2616
 X118.0312 Z-21.0634
 X118.0781 Z-21.0382
 X118.1250 Z-21.0148
 X118.5000 Z-20.8847
 X120.0000 Z-20.4666
 X120.3750 Z-20.3621
 X121.9688 Z-19.9178
 X122.0156 Z-19.9057
 X122.0625 Z-19.8955
 X122.1562 Z-19.8809
 X122.2500 Z-19.8741
 X122.6250 Z-19.8735
 X125.6250
 X125.7188 Z-19.8736
 X125.7656 Z-19.8747
 X125.8125 Z-19.8778
 X125.9062 Z-19.8898
 X126.0000 Z-19.9095
 X126.3750 Z-20.0136
 X127.1250 Z-20.2227
 X127.5000 Z-20.3272
 X129.5625 Z-20.9021
 X129.6562 Z-20.9287
 X129.7031 Z-20.9439
 X129.7500 Z-20.9609
 X130.1250 Z-21.1486
 X134.0625 Z-23.2957
 X134.1562 Z-23.3477
 X134.2500 Z-23.4051
 X134.6250 Z-23.6848
 X139.5000 Z-27.5265
 X139.8750 Z-27.8225
 X140.2500 Z-28.1610
 X142.0957 Z-29.9999
 X142.1016 Z-30.0000
 X166.5000
 Y24.1716
 X143.1694
 X143.1680 Z-29.9988
 X139.5000 Z-26.3443
 X139.1250 Z-25.9714
 X138.7500 Z-25.6424
 X133.8750 Z-21.8007
 X133.6875 Z-21.6558
 X133.5000 Z-21.5312
 X133.1250 Z-21.3244
 X129.7500 Z-19.4840
 X129.5625 Z-19.3817
 X129.4688 Z-19.3345
 X129.4219 Z-19.3135
 X129.3750 Z-19.2943
 X129.0000 Z-19.1819
 X127.5000 Z-18.7638
 X127.1250 Z-18.6593
 X125.9062 Z-18.3196
 X125.8594 Z-18.3074
 X125.8125 Z-18.2972
 X125.7188 Z-18.2827
 X125.6250 Z-18.2758
 X125.2500 Z-18.2752
 X122.4375
 X122.3438 Z-18.2772
 X122.2969 Z-18.2810
 X122.2500 Z-18.2867
 X121.8750 Z-18.3806
 X120.3750 Z-18.7987
 X120.0000 Z-18.9032
 X118.7812 Z-19.2429
 X118.7344 Z-19.2563
 X118.6875 Z-19.2714
 X118.5938 Z-19.3069
 X118.5000 Z-19.3494
 X118.1250 Z-19.5521
 X114.7500 Z-21.3925
 X114.5625 Z-21.4949
 X114.4688 Z-21.5504
 X114.3750 Z-21.6117
 X114.0000 Z-21.8992
 X109.5000 Z-25.4454
 X109.1250 Z-25.7444
 X108.7500 Z-26.0952
 X104.8315 Z-29.9993
 X104.8308 Z-30.0000
 X70.8750
 X70.5000 Z-28.1091
 X70.2188 Z-25.7790
 X70.1250 Z-25.1563
 X69.4688 Z-22.4678
 X69.3750 Z-22.1362
 X68.4375 Z-19.6236
 X68.2500 Z-19.1557
 X67.5000 Z-17.6888
 X67.1250 Z-16.9555
 X66.9375 Z-16.6000
 X66.8906 Z-16.5140
 X66.8438 Z-16.4292
 X66.7500 Z-16.2897
 X66.3750 Z-15.8006
 X64.8750 Z-13.8592
 X64.5000 Z-13.4328
 X62.3438 Z-11.2151
 X62.2500 Z-11.1190
 X59.6250 Z-8.9406
 X59.2500 Z-8.6591
 X58.8750 Z-8.4222
 X58.5000 Z-8.2203
 X55.8750 Z-6.8234
 X55.5000 Z-6.6358
 X54.0000 Z-5.9916
 X53.6250 Z-5.8349
 X53.2500 Z-5.7155
 X50.6250 Z-4.9355
 X50.2500 Z-4.8274
 X49.8750 Z-4.7388
 X49.5000 Z-4.6510
 X49.1250 Z-4.5936
 X45.9375 Z-4.2089
 X45.7500 Z-4.1908
 X45.3750 Z-4.1859
 X42.7500
 X42.3750 Z-4.1861
 X42.0000 Z-4.2164
 X39.0000 Z-4.5785
 X38.6250 Z-4.6271
 X38.2500 Z-4.7093
 X37.8750 Z-4.7978
 X37.5000 Z-4.8984
 X34.8750 Z-5.6784
 X34.5000 Z-5.7911
 X34.1250 Z-5.9380
 X32.6250 Z-6.5821
 X32.2500 Z-6.7569
 X29.2500 Z-8.3533
 X28.8750 Z-8.5755
 X28.5000 Z-8.8368
 X25.8750 Z-11.0153
 X25.5000 Z-11.3758
 X23.4375 Z-13.4971
 X23.2500 Z-13.6974
 X21.5625 Z-15.8815
 X21.3750 Z-16.1242
 X21.0000 Z-16.7165
 X20.6250 Z-17.4443
 X19.8750 Z-18.9112
 X19.5000 Z-19.7911
 X18.7500 Z-21.8012
 X18.3750 Z-23.1079
 X18.0000 Z-24.6442
 X17.6250 Z-27.0735
 X17.4613 Z-28.4297
 X17.4611 Z-30.0000
 X1.5000
 Y25.3638
 X16.5000
 X16.8750 Z-27.5847
 X17.0625 Z-26.0313
 X17.2500 Z-24.8970
 X17.8125 Z-22.5925
 X18.0000 Z-21.9665
 X18.7500 Z-19.9565
 X19.1250 Z-19.0319
 X20.2500 Z-16.8316
 X20.6250 Z-16.1627
 X22.1250 Z-13.9003
 X22.5000 Z-13.4017
 X22.8750 Z-12.9753
 X23.2500 Z-12.5859
 X24.3750 Z-11.4289
 X24.7500 Z-11.0581
 X27.3750 Z-8.8796
 X27.7500 Z-8.6097
 X29.6250 Z-7.3482
 X30.0000 Z-7.0978
 X30.3750 Z-6.8814
 X30.7500 Z-6.6826
 X34.8750 Z-4.9113
 X34.9688 Z-4.8717
 X35.0156 Z-4.8530
 X35.0625 Z-4.8361
 X35.2500 Z-4.7855
 X35.6250 Z-4.6969
 X38.6250 Z-3.9885
 X39.0000 Z-3.9056
 X39.3750 Z-3.8563
 X42.1875 Z-3.5168
 X42.3750 Z-3.4988
 X42.7500 Z-3.4938
 X45.3750
 X45.7500 Z-3.5094
 X46.1250 Z-3.5545
 X48.7500 Z-3.8714
 X49.1250 Z-3.9300
 X49.5000 Z-4.0180
 X52.6875 Z-4.7707
 X52.7812 Z-4.7932
 X52.8281 Z-4.8053
 X52.8750 Z-4.8181
 X53.2500 Z-4.9650
 X57.0000 Z-6.5753
 X57.3750 Z-6.7484
 X57.7500 Z-6.9487
 X58.1250 Z-7.1800
 X60.3750 Z-8.6938
 X60.7500 Z-8.9834
 X63.1875 Z-11.0062
 X63.3750 Z-11.1717
 X64.8750 Z-12.7145
 X65.2500 Z-13.1125
 X65.4375 Z-13.3275
 X65.6250 Z-13.5515
 X66.0000 Z-14.0888
 X67.5000 Z-16.3512
 X67.8750 Z-17.0760
 X68.9062 Z-19.0930
 X69.0000 Z-19.2865
 X69.9375 Z-21.7990
 X70.1250 Z-22.3365
 X70.7812 Z-25.0250
 X70.8750 Z-25.5135
 X71.2266 Z-28.4262
 X71.2280 Z-30.0000
 X103.7571
 X103.7578 Z-29.9996
 X109.8750 Z-23.9049
 X110.2500 Z-23.5624
 X110.6250 Z-23.2658
 X114.7500 Z-20.0152
 X114.9375 Z-19.8677
 X115.0312 Z-19.7985
 X115.1250 Z-19.7352
 X115.5000 Z-19.5234
 X118.7812 Z-17.7342
 X118.8281 Z-17.7086
 X118.8750 Z-17.6842
 X119.2500 Z-17.5489
 X120.0000 Z-17.3398
 X120.3750 Z-17.2353
 X122.2031 Z-16.7257
 X122.2266 Z-16.7192
 X122.2500 Z-16.7130
 X122.3438 Z-16.6933
 X122.3906 Z-16.6863
 X122.4375 Z-16.6812
 X122.6250 Z-16.6769
 X125.4375
 X125.5312 Z-16.6789
 X125.5781 Z-16.6827
 X125.6250 Z-16.6884
 X126.0000 Z-16.7823
 X127.1250 Z-17.0959
 X127.5000 Z-17.2004
 X127.8750 Z-17.3050
 X128.2500 Z-17.4095
 X128.8125 Z-17.5663
 X128.9062 Z-17.5938
 X128.9531 Z-17.6099
 X129.0000 Z-17.6278
 X129.3750 Z-17.8194
 X132.6562 Z-19.6086
 X132.7500 Z-19.6599
 X133.1250 Z-19.9167
 X137.6250 Z-23.4628
 X138.0000 Z-23.7831
 X138.3750 Z-24.1540
 X144.2424 Z-29.9998
 X144.2428 Z-30.0000
 X166.5000
 Y26.5560
 X145.1250
 X144.7500 Z-29.6258
 X144.0000 Z-28.7550
 X143.6250 Z-28.3285
 X143.2500 Z-27.9416
 X137.2500 Z-21.9637
 X136.8750 Z-21.5961
 X136.5000 Z-21.2832
 X132.5625 Z-18.1803
 X132.3750 Z-18.0328
 X132.0000 Z-17.7907
 X128.8125 Z-16.0525
 X128.7188 Z-16.0035
 X128.6719 Z-15.9816
 X128.6250 Z-15.9615
 X128.2500 Z-15.8461
 X127.8750 Z-15.7416
 X127.5000 Z-15.6371
 X127.1250 Z-15.5325
 X125.6719 Z-15.1275
 X125.6484 Z-15.1210
 X125.6250 Z-15.1148
 X125.5312 Z-15.0950
 X125.4844 Z-15.0880
 X125.4375 Z-15.0829
 X125.2500 Z-15.0786
 X122.6719
 X122.6484 Z-15.0787
 X122.6250 Z-15.0792
 X122.2500 Z-15.1493
 X120.0000 Z-15.7764
 X119.6250 Z-15.8810
 X119.5312 Z-15.9071
 X119.4844 Z-15.9214
 X119.4375 Z-15.9374
 X119.2500 Z-16.0191
 X118.8750 Z-16.2229
 X115.9688 Z-17.8077
 X115.8750 Z-17.8613
 X115.5000 Z-18.1311
 X111.7500 Z-21.0862
 X111.3750 Z-21.3818
 X111.0000 Z-21.7148
 X110.6250 Z-22.0882
 X105.0000 Z-27.6925
 X104.6250 Z-28.0664
 X104.2500 Z-28.4668
 X103.8750 Z-28.9002
 X102.9375 Z-29.9887
 X102.7500 Z-30.0000
 X72.0000
 X71.8125 Z-27.5781
 X71.6250 Z-26.0247
 X71.2500 Z-24.1256
 X70.8750 Z-22.5893
 X70.5000 Z-21.4619
 X69.7500 Z-19.4519
 X69.3750 Z-18.6636
 X68.2500 Z-16.4633
 X67.8750 Z-15.8787
 X66.4688 Z-13.7577
 X66.3750 Z-13.6254
 X64.5000 Z-11.3782
 X64.1250 Z-10.9657
 X63.7500 Z-10.6048
 X63.3750 Z-10.2712
 X63.0000 Z-9.9598
 X61.8750 Z-9.0262
 X61.5000 Z-8.7285
 X58.5000 Z-6.7101
 X58.1250 Z-6.5018
 X57.3750 Z-6.0946
 X57.0000 Z-5.8912
 X56.6250 Z-5.7097
 X56.2500 Z-5.5486
 X54.7500 Z-4.9045
 X54.3750 Z-4.7633
 X52.5000 Z-4.1235
 X52.1250 Z-4.0066
 X51.7500 Z-3.9170
 X49.1250 Z-3.2972
 X48.7500 Z-3.2229
 X48.3750 Z-3.1768
 X45.7500 Z-2.9324
 X45.3750 Z-2.9090
 X45.0000 Z-2.9088
 X42.7500
 X42.3750 Z-2.9209
 X42.0000 Z-2.9557
 X39.7500 Z-3.1651
 X39.3750 Z-3.2036
 X39.0000 Z-3.2682
 X38.6250 Z-3.3562
 X36.0000 Z-3.9761
 X35.6250 Z-4.0809
 X35.2500 Z-4.2088
 X33.7500 Z-4.7206
 X33.3750 Z-4.8508
 X31.5000 Z-5.6560
 X31.1250 Z-5.8265
 X30.7500 Z-6.0267
 X29.6250 Z-6.6375
 X29.2500 Z-6.8783
 X26.6250 Z-8.6444
 X26.2500 Z-8.9224
 X24.7500 Z-10.1673
 X24.3750 Z-10.4896
 X24.0000 Z-10.8448
 X23.6250 Z-11.2283
 X21.7500 Z-13.4756
 X21.3750 Z-13.9934
 X19.8750 Z-16.2558
 X19.5000 Z-16.9522
 X18.3750 Z-19.1526
 X18.0000 Z-20.1219
 X17.2500 Z-22.1319
 X16.8750 Z-23.6135
 X16.5000 Z-25.1498
 X16.1250 Z-28.0959
 X16.0847 Z-28.4297
 X16.0844 Z-30.0000
 X1.5000
 Y27.7481
 X15.3750
 X15.5625 Z-27.0537
 X15.7500 Z-25.5003
 X16.1250 Z-23.8663
 X16.4531 Z-22.5220
 X16.5000 Z-22.3300
 X16.8750 Z-21.2923
 X17.6250 Z-19.2822
 X18.0000 Z-18.5398
 X19.0312 Z-16.5228
 X19.1250 Z-16.3488
 X20.6250 Z-14.0864
 X21.0000 Z-13.5496
 X22.8750 Z-11.3023
 X23.2500 Z-10.9045
 X25.3125 Z-8.9098
 X25.5000 Z-8.7395
 X25.8750 Z-8.4465
 X26.2500 Z-8.1749
 X26.6250 Z-7.9222
 X28.1250 Z-6.9130
 X28.5000 Z-6.6655
 X31.7812 Z-4.8841
 X31.8750 Z-4.8346
 X32.2500 Z-4.6774
 X32.6250 Z-4.5446
 X36.2812 Z-3.2970
 X36.3750 Z-3.2670
 X36.7500 Z-3.1903
 X39.3750 Z-2.7123
 X39.7500 Z-2.6473
 X40.1250 Z-2.6082
 X42.3750 Z-2.3987
 X42.7500 Z-2.3753
 X43.1250 Z-2.3751
 X45.0000
 X45.3750 Z-2.3790
 X45.7500 Z-2.4104
 X48.0000 Z-2.6198
 X48.3750 Z-2.6669
 X48.7500 Z-2.7351
 X51.0000 Z-3.1448
 X51.3750 Z-3.2131
 X51.7500 Z-3.3076
 X55.5000 Z-4.5872
 X55.8750 Z-4.7275
 X56.2500 Z-4.9011
 X59.2500 Z-6.5298
 X59.6250 Z-6.7448
 X61.5000 Z-8.0063
 X61.8750 Z-8.2622
 X62.2500 Z-8.5435
 X62.6250 Z-8.8494
 X64.8750 Z-11.0254
 X65.2500 Z-11.4521
 X66.9375 Z-13.4747
 X67.1250 Z-13.7094
 X68.6250 Z-15.9718
 X69.0000 Z-16.5840
 X70.1250 Z-18.7843
 X70.5000 Z-19.6172
 X71.2500 Z-21.6273
 X71.6250 Z-22.8421
 X72.0000 Z-24.3784
 X72.3750 Z-26.5359
 X72.6035 Z-28.4292
 X72.6050 Z-30.0000
 X102.2388
 X102.2395 Z-29.9999
 X105.7500 Z-25.9240
 X106.1250 Z-25.5074
 X106.5000 Z-25.1285
 X111.7500 Z-19.8979
 X112.1250 Z-19.5260
 X112.5000 Z-19.2021
 X116.2500 Z-16.2470
 X116.4375 Z-16.1069
 X116.6250 Z-15.9899
 X117.0000 Z-15.7852
 X119.3906 Z-14.4816
 X119.4141 Z-14.4690
 X119.4258 Z-14.4633
 X119.4316 Z-14.4606
 X119.4346 Z-14.4593
 X119.4375 Z-14.4580
 X119.6250 Z-14.4260
 X120.0000 Z-14.3848
 X120.3750 Z-14.3454
 X120.7500 Z-14.3072
 X121.1250 Z-14.2699
 X121.5000 Z-14.2332
 X121.8750 Z-14.2273
 X126.3750
 X126.7500 Z-14.2576
 X127.1250 Z-14.2947
 X127.5000 Z-14.3326
 X127.8750 Z-14.3715
 X128.0625 Z-14.3916
 X128.1562 Z-14.4017
 X128.2500 Z-14.4120
 X128.3438 Z-14.4225
 X128.3906 Z-14.4278
 X128.4141 Z-14.4304
 X128.4258 Z-14.4318
 X128.4375 Z-14.4331
 X128.4844 Z-14.4385
 X128.5078 Z-14.4412
 X128.5195 Z-14.4426
 X128.5225 Z-14.4429
 X128.5239 Z-14.4431
 X128.5247 Z-14.4432
 X128.5250
 X128.5254 Z-14.4433
 X128.5312 Z-14.4449
 X128.6250 Z-14.4901
 X131.2500 Z-15.9216
 X131.4375 Z-16.0263
 X131.6250 Z-16.1511
 X132.0000 Z-16.4440
 X135.3750 Z-19.1036
 X135.7500 Z-19.4104
 X136.1250 Z-19.7733
 X141.3750 Z-25.0040
 X141.7500 Z-25.3782
 X142.1250 Z-25.7804
 X142.5000 Z-26.2143
 X145.7606 Z-30.0000
 X145.7607
 X166.5000
 Y28.9403
 X146.4492
 X146.4375 Z-29.9868
 X140.6250 Z-23.2381
 X140.2500 Z-22.8199
 X139.8750 Z-22.4400
 X135.0000 Z-17.5830
 X134.6250 Z-17.2261
 X134.2500 Z-16.9240
 X131.9062 Z-15.0771
 X131.8594 Z-15.0431
 X131.8125 Z-15.0144
 X131.7188 Z-14.9646
 X131.6719 Z-14.9421
 X131.6484 Z-14.9312
 X131.6250 Z-14.9206
 X131.2500 Z-14.8203
 X130.8750 Z-14.7421
 X130.5000 Z-14.6671
 X130.1250 Z-14.5947
 X129.7500 Z-14.5244
 X129.3750 Z-14.4560
 X129.0000 Z-14.4173
 X128.6250 Z-14.3852
 X128.2500 Z-14.3532
 X127.8750 Z-14.3214
 X127.5000 Z-14.2899
 X127.1250 Z-14.2584
 X126.7500 Z-14.2273
 X121.5000
 X121.1250 Z-14.2376
 X120.7500 Z-14.2689
 X120.3750 Z-14.3004
 X120.0000 Z-14.3320
 X119.6250 Z-14.3638
 X119.2500 Z-14.3958
 X118.8750 Z-14.4280
 X118.5000 Z-14.4786
 X118.1250 Z-14.5476
 X117.7500 Z-14.6186
 X117.3750 Z-14.6918
 X117.0000 Z-14.7677
 X116.8125 Z-14.8070
 X116.7188 Z-14.8270
 X116.6719 Z-14.8371
 X116.6250 Z-14.8473
 X116.5312 Z-14.8679
 X116.4844 Z-14.8784
 X116.4727 Z-14.8810
 X116.4668 Z-14.8823
 X116.4639 Z-14.8830
 X116.4624 Z-14.8833
 X116.4609 Z-14.8836
 X116.4375 Z-14.8933
 X116.3438 Z-14.9348
 X116.2969 Z-14.9570
 X116.2734 Z-14.9685
 X116.2500 Z-14.9804
 X115.8750 Z-15.2495
 X113.6250 Z-17.0225
 X113.2500 Z-17.3384
 X112.8750 Z-17.7075
 X108.0000 Z-22.5646
 X107.6250 Z-22.9546
 X107.2500 Z-23.3833
 X101.5518 Z-29.9993
 X101.5510 Z-30.0000
 X73.1250
 X72.9375 Z-27.3744
 X72.7500 Z-25.6684
 X72.3750 Z-23.7985
 X72.0938 Z-22.5332
 X72.0000 Z-22.1543
 X71.2500 Z-19.9469
 X70.8750 Z-18.9552
 X70.5000 Z-18.1800
 X70.1250 Z-17.4381
 X69.7500 Z-16.7046
 X69.3750 Z-16.0648
 X67.8750 Z-13.8024
 X67.5000 Z-13.3239
 X65.8125 Z-11.3013
 X65.6250 Z-11.0851
 X63.3750 Z-8.9091
 X63.0000 Z-8.5919
 X60.6094 Z-6.7175
 X60.5625 Z-6.6817
 X60.3750 Z-6.5667
 X60.0000 Z-6.3542
 X57.3750 Z-4.9291
 X57.0000 Z-4.7490
 X55.1250 Z-3.9401
 X54.7500 Z-3.7802
 X54.3750 Z-3.6435
 X53.6250 Z-3.3875
 X53.2500 Z-3.2619
 X51.3750 Z-2.7685
 X51.0000 Z-2.6699
 X50.6250 Z-2.5889
 X48.3750 Z-2.1792
 X48.0000 Z-2.1110
 X47.6250 Z-2.0629
 X46.8750 Z-1.9930
 X46.5000 Z-1.9674
 X45.7500 Z-1.9165
 X45.3750 Z-1.8923
 X45.0000 Z-1.8812
 X43.1250
 X42.7500 Z-1.8865
 X42.3750 Z-1.9068
 X41.2500 Z-1.9843
 X40.8750 Z-2.0163
 X40.5000 Z-2.0512
 X40.1250 Z-2.0909
 X39.7500 Z-2.1565
 X37.5000 Z-2.5662
 X37.1250 Z-2.6395
 X36.7500 Z-2.7356
 X34.8750 Z-3.2290
 X34.5000 Z-3.3449
 X33.7500 Z-3.6008
 X33.3750 Z-3.7316
 X33.0000 Z-3.8861
 X31.1250 Z-4.6950
 X30.7500 Z-4.8612
 X28.1250 Z-6.2863
 X27.7500 Z-6.4933
 X27.5625 Z-6.6044
 X27.3750 Z-6.7297
 X24.8438 Z-8.7144
 X24.7500 Z-8.7882
 X22.5000 Z-10.9642
 X22.1250 Z-11.3763
 X20.2500 Z-13.6235
 X19.8750 Z-14.1795
 X18.5625 Z-16.1591
 X18.3750 Z-16.4602
 X18.0000 Z-17.1936
 X17.6250 Z-17.9293
 X17.2500 Z-18.6929
 X16.8750 Z-19.5790
 X16.1250 Z-21.7864
 X15.7500 Z-23.2362
 X15.3750 Z-24.9233
 X15.0000 Z-27.9430
 X14.9473 Z-28.4228
 X14.9458 Z-30.0000
 X1.5000
 Y30.1325
 X14.2500
 X14.6250 Z-27.8306
 X14.8125 Z-26.1246
 X15.0000 Z-24.8677
 X15.3750 Z-23.1806
 X15.7500 Z-21.7500
 X16.5000 Z-19.5427
 X16.8750 Z-18.6578
 X17.8125 Z-16.6442
 X18.0000 Z-16.2732
 X19.5000 Z-13.7887
 X19.8750 Z-13.2722
 X20.2500 Z-12.8013
 X20.6250 Z-12.3491
 X21.3750 Z-11.4502
 X21.7500 Z-11.0239
 X24.0000 Z-8.8478
 X24.3750 Z-8.5423
 X26.6250 Z-6.7781
 X27.0000 Z-6.5230
 X28.8750 Z-5.3367
 X29.2500 Z-5.1026
 X29.6250 Z-4.8892
 X30.0000 Z-4.7173
 X33.0000 Z-3.4230
 X33.3750 Z-3.2632
 X34.1250 Z-3.0137
 X34.5000 Z-2.8969
 X34.8750 Z-2.7972
 X37.5000 Z-2.1065
 X37.6875 Z-2.0572
 X37.8750 Z-2.0129
 X38.2500 Z-1.9552
 X39.7500 Z-1.7531
 X40.1250 Z-1.7029
 X40.5000 Z-1.6650
 X40.8750 Z-1.6281
 X41.2500 Z-1.5980
 X42.3750 Z-1.5205
 X42.7500 Z-1.5065
 X43.5000 Z-1.4915
 X43.8750 Z-1.4882
 X44.6250
 X45.0000 Z-1.4927
 X45.3750 Z-1.5147
 X45.7500 Z-1.5374
 X46.1250 Z-1.5610
 X47.2500 Z-1.6374
 X47.6250 Z-1.6733
 X49.8750 Z-1.9723
 X50.2500 Z-2.0416
 X50.6250 Z-2.1394
 X53.2500 Z-2.8301
 X53.6250 Z-2.9334
 X54.0000 Z-3.0553
 X54.3750 Z-3.1800
 X54.7500 Z-3.3152
 X58.1250 Z-4.7712
 X58.5000 Z-4.9578
 X58.8750 Z-5.1790
 X59.2500 Z-5.4158
 X61.1250 Z-6.6021
 X61.5000 Z-6.8761
 X63.7500 Z-8.6403
 X64.1250 Z-8.9687
 X66.1875 Z-10.9634
 X66.3750 Z-11.1506
 X67.5000 Z-12.4989
 X67.8750 Z-12.9559
 X68.2500 Z-13.4339
 X68.6250 Z-13.9958
 X69.7500 Z-15.8592
 X70.1250 Z-16.5100
 X71.2500 Z-18.9263
 X71.6250 Z-19.9105
 X72.3750 Z-22.1179
 X72.7500 Z-23.7429
 X72.9375 Z-24.5865
 X73.1250 Z-25.5559
 X73.4407 Z-28.4281
 X73.4410 Z-30.0000
 X100.8625
 X100.8629 Z-29.9999
 X108.7500 Z-20.8425
 X109.1250 Z-20.4078
 X109.5000 Z-20.0019
 X109.8750 Z-19.6270
 X113.8594 Z-15.6573
 X113.8828 Z-15.6340
 X113.8945 Z-15.6229
 X113.9004 Z-15.6175
 X113.9062 Z-15.6123
 X113.9297 Z-15.5922
 X113.9414 Z-15.5827
 X113.9473 Z-15.5781
 X113.9502 Z-15.5758
 X113.9517 Z-15.5746
 X113.9531 Z-15.5735
 X114.0000 Z-15.5497
 X114.3750 Z-15.4100
 X114.7500 Z-15.2866
 X115.1250 Z-15.1731
 X115.5000 Z-15.0669
 X115.8750 Z-14.9666
 X116.2500 Z-14.8757
 X116.6250 Z-14.8148
 X117.0000 Z-14.7554
 X117.3750 Z-14.6972
 X117.7500 Z-14.6404
 X118.1250 Z-14.5850
 X118.5000 Z-14.5311
 X118.8750 Z-14.4788
 X119.2500 Z-14.4350
 X119.6250 Z-14.4075
 X120.0000 Z-14.3804
 X120.3750 Z-14.3537
 X120.7500 Z-14.3275
 X121.1250 Z-14.3019
 X121.5000 Z-14.2771
 X121.8750 Z-14.2533
 X122.2500 Z-14.2308
 X122.6250 Z-14.2273
 X125.6250
 X126.0000 Z-14.2456
 X126.3750 Z-14.2690
 X126.7500 Z-14.2936
 X127.1250 Z-14.3189
 X127.5000 Z-14.3449
 X127.8750 Z-14.3714
 X128.2500 Z-14.3984
 X128.6250 Z-14.4258
 X129.0000 Z-14.4617
 X129.3750 Z-14.5134
 X129.7500 Z-14.5668
 X130.1250 Z-14.6217
 X130.5000 Z-14.6781
 X130.8750 Z-14.7358
 X131.2500 Z-14.7949
 X131.6250 Z-14.8552
 X132.0000 Z-14.9344
 X132.3750 Z-15.0329
 X132.7500 Z-15.1370
 X133.1250 Z-15.2479
 X133.5000 Z-15.3675
 X133.6875 Z-15.4319
 X133.7812 Z-15.4656
 X133.8281 Z-15.4829
 X133.8516 Z-15.4917
 X133.8633 Z-15.4961
 X133.8750 Z-15.5006
 X133.9688 Z-15.5371
 X133.9922 Z-15.5465
 X134.0039 Z-15.5512
 X134.0098 Z-15.5536
 X134.0127 Z-15.5548
 X134.0156 Z-15.5560
 X134.0273 Z-15.5608
 X134.0303 Z-15.5621
 X134.0317 Z-15.5627
 X134.0325 Z-15.5630
 X134.0328 Z-15.5631
 X134.0330 Z-15.5632
 X134.0332 Z-15.5633
 X134.0391 Z-15.5675
 X134.0625 Z-15.5859
 X134.2500 Z-15.7663
 X138.3750 Z-19.8761
 X138.7500 Z-20.2677
 X139.1250 Z-20.6974
 X147.1370 Z-29.9998
 X147.1373 Z-30.0000
 X166.5000
 Y31.3246
 X147.5977
 X147.5918 Z-29.9934
 X145.8750 Z-27.8043
 X145.5000 Z-27.3280
 X145.1250 Z-26.8689
 X144.7500 Z-26.4292
 X137.6250 Z-18.1566
 X137.2500 Z-17.7217
 X136.8750 Z-17.3139
 X136.5000 Z-16.9385
 X135.8906 Z-16.3314
 X135.8672 Z-16.3088
 X135.8438 Z-16.2882
 X135.7969 Z-16.2509
 X135.7500 Z-16.2171
 X135.5625 Z-16.1016
 X135.3750 Z-16.0035
 X135.0000 Z-15.8340
 X134.6250 Z-15.6863
 X134.4375 Z-15.6183
 X134.2500 Z-15.5562
 X133.8750 Z-15.4657
 X133.5000 Z-15.3796
 X133.1250 Z-15.2978
 X132.7500 Z-15.2203
 X132.3750 Z-15.1474
 X132.0000 Z-15.0795
 X131.6250 Z-15.0174
 X131.2500 Z-14.9624
 X130.8750 Z-14.9169
 X130.5000 Z-14.8866
 X130.1250 Z-14.8818
 X117.7500
 X117.3750 Z-14.8944
 X117.0000 Z-14.9308
 X116.6250 Z-14.9798
 X116.2500 Z-15.0374
 X115.8750 Z-15.1015
 X115.5000 Z-15.1712
 X115.1250 Z-15.2457
 X114.7500 Z-15.3246
 X114.3750 Z-15.4079
 X114.0000 Z-15.4954
 X113.6250 Z-15.5963
 X113.2500 Z-15.7337
 X112.8750 Z-15.8876
 X112.6875 Z-15.9732
 X112.5938 Z-16.0191
 X112.5000 Z-16.0675
 X112.4062 Z-16.1194
 X112.3594 Z-16.1469
 X112.3125 Z-16.1758
 X112.2656 Z-16.2064
 X112.2188 Z-16.2393
 X112.1250 Z-16.3161
 X111.7500 Z-16.6894
 X111.3750 Z-17.0630
 X111.0000 Z-17.4450
 X110.6250 Z-17.8664
 X103.1250 Z-26.5743
 X102.7500 Z-27.0196
 X102.3750 Z-27.4856
 X102.0000 Z-27.9637
 X100.4062 Z-29.9958
 X100.3594 Z-30.0000
 X73.8750
 X73.6875 Z-27.1495
 X73.5000 Z-25.4435
 X73.1250 Z-23.6873
 X72.9375 Z-22.8438
 X72.7500 Z-22.0816
 X72.0000 Z-19.8742
 X71.6250 Z-18.8998
 X70.5000 Z-16.4834
 X70.1250 Z-15.8387
 X69.0000 Z-13.9753
 X68.6250 Z-13.4171
 X67.1250 Z-11.4428
 X66.7500 Z-10.9823
 X66.0000 Z-10.1857
 X65.6250 Z-9.7875
 X65.2500 Z-9.3993
 X64.8750 Z-9.0284
 X64.5000 Z-8.6887
 X62.2500 Z-6.9245
 X61.8750 Z-6.6411
 X59.2500 Z-4.9804
 X58.8750 Z-4.7630
 X57.3750 Z-4.0089
 X57.0000 Z-3.8264
 X56.6250 Z-3.6610
 X55.8750 Z-3.3374
 X55.5000 Z-3.1972
 X52.8750 Z-2.3239
 X52.5000 Z-2.2038
 X52.1250 Z-2.1023
 X51.7500 Z-2.0036
 X51.3750 Z-1.9281
 X49.8750 Z-1.6373
 X49.5000 Z-1.5726
 X49.1250 Z-1.5211
 X48.3750 Z-1.4182
 X48.0000 Z-1.3673
 X47.2500 Z-1.2677
 X46.8750 Z-1.2310
 X46.5000 Z-1.2055
 X46.1250 Z-1.1825
 X45.0000 Z-1.1146
 X44.6250 Z-1.0959
 X44.2500 Z-1.0965
 X42.7500 Z-1.1265
 X42.3750 Z-1.1355
 X42.0000 Z-1.1601
 X41.6250 Z-1.1933
 X40.5000 Z-1.3040
 X40.1250 Z-1.3421
 X39.7500 Z-1.3923
 X39.3750 Z-1.4428
 X39.0000 Z-1.4942
 X38.6250 Z-1.5564
 X38.2500 Z-1.6206
 X37.8750 Z-1.6858
 X36.3750 Z-1.9765
 X36.0000 Z-2.0694
 X35.6250 Z-2.1684
 X35.2500 Z-2.2823
 X32.6250 Z-3.1556
 X32.2500 Z-3.2835
 X31.5000 Z-3.6071
 X31.1250 Z-3.7696
 X30.7500 Z-3.9462
 X30.3750 Z-4.1345
 X29.2500 Z-4.7001
 X28.8750 Z-4.9013
 X26.2500 Z-6.5620
 X25.8750 Z-6.8265
 X23.6250 Z-8.5906
 X23.2500 Z-8.9075
 X22.8750 Z-9.2738
 X22.5000 Z-9.6562
 X22.1250 Z-10.0529
 X21.3750 Z-10.8495
 X21.0000 Z-11.2783
 X19.5000 Z-13.2526
 X19.1250 Z-13.7682
 X17.6250 Z-16.2528
 X17.2500 Z-17.0204
 X16.5000 Z-18.6313
 X16.1250 Z-19.5063
 X15.3750 Z-21.7137
 X15.0000 Z-23.1250
 X14.6250 Z-24.8121
 X14.2500 Z-27.7181
 X14.1724 Z-28.4245
 X14.1716 Z-30.0000
 X1.5000
 Y32.5168
 X13.5000
 X13.8750 Z-27.6057
 X14.2500 Z-24.7565
 X14.6250 Z-23.0694
 X15.0000 Z-21.6773
 X15.7500 Z-19.4699
 X16.1250 Z-18.6048
 X16.8750 Z-16.9938
 X17.2500 Z-16.2323
 X18.7500 Z-13.7478
 X19.1250 Z-13.2363
 X20.6250 Z-11.2620
 X21.0000 Z-10.8364
 X22.8750 Z-8.8450
 X23.2500 Z-8.5111
 X24.7500 Z-7.2195
 X25.1250 Z-6.8971
 X25.3125 Z-6.7394
 X25.5000 Z-6.6045
 X25.8750 Z-6.3638
 X28.1250 Z-4.9403
 X28.5000 Z-4.7312
 X31.1250 Z-3.4114
 X31.5000 Z-3.2336
 X32.2500 Z-2.9429
 X32.6250 Z-2.8017
 X33.0000 Z-2.6737
 X34.8750 Z-2.0499
 X35.2500 Z-1.9434
 X35.6250 Z-1.8523
 X36.0000 Z-1.7621
 X36.3750 Z-1.6740
 X36.7500 Z-1.5880
 X37.1250 Z-1.5131
 X37.8750 Z-1.3678
 X38.2500 Z-1.2991
 X39.7500 Z-1.0424
 X40.1250 Z-0.9960
 X40.5000 Z-0.9700
 X42.0000 Z-0.8728
 X42.3750 Z-0.8486
 X42.7500 Z-0.8353
 X43.8750 Z-0.8200
 X44.2500 Z-0.8168
 X44.6250 Z-0.8244
 X45.0000 Z-0.8329
 X45.3750 Z-0.8478
 X46.1250 Z-0.8779
 X46.5000 Z-0.8929
 X46.8750 Z-0.9174
 X47.2500 Z-0.9516
 X48.0000 Z-1.0201
 X48.3750 Z-1.0704
 X48.7500 Z-1.1219
 X49.1250 Z-1.1759
 X49.5000 Z-1.2466
 X49.8750 Z-1.3193
 X50.2500 Z-1.3924
 X50.6250 Z-1.4687
 X51.3750 Z-1.6214
 X51.7500 Z-1.6985
 X52.1250 Z-1.7888
 X52.8750 Z-1.9735
 X53.2500 Z-2.0915
 X55.1250 Z-2.7153
 X55.5000 Z-2.8473
 X55.8750 Z-2.9913
 X56.2500 Z-3.1367
 X56.6250 Z-3.2857
 X59.6250 Z-4.7940
 X60.0000 Z-5.0194
 X61.8750 Z-6.2057
 X62.2500 Z-6.4430
 X62.4375 Z-6.5637
 X62.5312 Z-6.6251
 X62.6250 Z-6.6876
 X63.0000 Z-7.0042
 X64.8750 Z-8.6187
 X65.2500 Z-8.9777
 X67.1250 Z-10.9691
 X67.5000 Z-11.4265
 X69.0000 Z-13.4009
 X69.3750 Z-13.9548
 X70.6875 Z-16.1288
 X70.8750 Z-16.4569
 X72.0000 Z-18.8732
 X72.3750 Z-19.8378
 X73.1250 Z-22.0452
 X73.5000 Z-23.6318
 X73.7812 Z-24.8971
 X73.8750 Z-25.3311
 X74.2148 Z-28.4231
 X74.2178 Z-30.0000
 X100.0151
 X100.0159 Z-29.9997
 X105.0000 Z-23.6446
 X105.3750 Z-23.1757
 X105.7500 Z-22.7275
 X106.1250 Z-22.2920
 X110.7891 Z-16.8767
 X110.8125 Z-16.8502
 X110.8594 Z-16.8026
 X110.9062 Z-16.7603
 X110.9531 Z-16.7216
 X111.0000 Z-16.6855
 X111.0938 Z-16.6192
 X111.1406 Z-16.5883
 X111.1875 Z-16.5587
 X111.2344 Z-16.5302
 X111.2578 Z-16.5163
 X111.2695 Z-16.5094
 X111.2812 Z-16.5034
 X111.3750 Z-16.4654
 X111.7500 Z-16.3237
 X112.1250 Z-16.1955
 X112.5000 Z-16.0784
 X112.8750 Z-15.9713
 X113.2500 Z-15.8737
 X113.6250 Z-15.7859
 X114.0000 Z-15.7086
 X114.3750 Z-15.6437
 X114.7500 Z-15.5948
 X115.1250 Z-15.5704
 X115.5000 Z-15.5701
 X132.7500
 X133.1250 Z-15.5832
 X133.5000 Z-15.6254
 X133.8750 Z-15.6855
 X134.2500 Z-15.7589
 X134.6250 Z-15.8434
 X135.0000 Z-15.9377
 X135.3750 Z-16.0416
 X135.7500 Z-16.1553
 X136.1250 Z-16.2796
 X136.3125 Z-16.3463
 X136.5000 Z-16.4165
 X136.5938 Z-16.4530
 X136.6406 Z-16.4717
 X136.6641 Z-16.4811
 X136.6875 Z-16.4906
 X136.7812 Z-16.5396
 X136.8281 Z-16.5685
 X136.8750 Z-16.5985
 X136.9688 Z-16.6626
 X137.0156 Z-16.6973
 X137.0391 Z-16.7154
 X137.0625 Z-16.7342
 X137.2500 Z-16.9221
 X142.1250 Z-22.5823
 X142.5000 Z-23.0240
 X142.8750 Z-23.4860
 X143.2500 Z-23.9634
 X147.9843 Z-30.0000
 X147.9844
 X166.5000
 Y33.7090
 X148.3718
 X148.3711 Z-29.9992
 X140.6250 Z-20.1225
 X140.2500 Z-19.6445
 X139.8750 Z-19.1796
 X139.5000 Z-18.7353
 X138.5156 Z-17.5924
 X138.4688 Z-17.5386
 X138.4219 Z-17.4911
 X138.3750 Z-17.4487
 X138.1875 Z-17.3076
 X138.0000 Z-17.1910
 X137.6250 Z-16.9960
 X137.2500 Z-16.8327
 X136.8750 Z-16.6919
 X136.5000 Z-16.5697
 X136.1250 Z-16.4711
 X135.7500 Z-16.3942
 X135.3750 Z-16.3298
 X135.0000 Z-16.2816
 X134.6250 Z-16.2585
 X134.2500 Z-16.2584
 X113.6250
 X113.2500 Z-16.2624
 X112.8750 Z-16.2955
 X112.5000 Z-16.3497
 X112.1250 Z-16.4186
 X111.7500 Z-16.4991
 X111.3750 Z-16.6085
 X111.0000 Z-16.7366
 X110.6250 Z-16.8844
 X110.2500 Z-17.0568
 X110.0625 Z-17.1555
 X109.9688 Z-17.2093
 X109.9219 Z-17.2375
 X109.8750 Z-17.2667
 X109.7812 Z-17.3289
 X109.7344 Z-17.3623
 X109.6875 Z-17.3977
 X109.6406 Z-17.4355
 X109.5938 Z-17.4765
 X109.5000 Z-17.5743
 X108.7500 Z-18.4451
 X108.3750 Z-18.8811
 X108.0000 Z-19.3322
 X107.6250 Z-19.8037
 X99.6284 Z-29.9998
 X99.6277 Z-30.0000
 X74.6250
 X74.4375 Z-26.9246
 X74.2969 Z-25.6451
 X74.2500 Z-25.2633
 X73.6875 Z-22.7326
 X73.5000 Z-22.0088
 X72.7500 Z-19.8014
 X72.3750 Z-18.8467
 X71.2500 Z-16.4303
 X70.8750 Z-15.7977
 X69.7500 Z-13.9344
 X69.3750 Z-13.3846
 X67.8750 Z-11.4103
 X67.5000 Z-10.9560
 X65.6250 Z-8.9646
 X65.2500 Z-8.6081
 X63.0938 Z-6.7514
 X63.0000 Z-6.6736
 X60.3750 Z-4.8498
 X60.0000 Z-4.6436
 X59.6250 Z-4.4483
 X59.2500 Z-4.2594
 X57.3750 Z-3.3168
 X57.0000 Z-3.1606
 X54.0938 Z-2.0339
 X54.0000 Z-1.9975
 X53.6250 Z-1.8973
 X53.2500 Z-1.8018
 X52.8750 Z-1.7092
 X51.3750 Z-1.3400
 X51.0000 Z-1.2517
 X50.6250 Z-1.1753
 X49.8750 Z-1.0226
 X49.5000 Z-0.9707
 X49.1250 Z-0.9190
 X48.7500 Z-0.8690
 X48.3750 Z-0.8297
 X48.0000 Z-0.7911
 X47.6250 Z-0.7547
 X46.5000 Z-0.6521
 X46.1250 Z-0.6270
 X45.7500 Z-0.6119
 X45.3750 Z-0.5969
 X45.0000 Z-0.5881
 X44.2500 Z-0.5719
 X43.8750 Z-0.5643
 X43.5000 Z-0.5674
 X43.1250 Z-0.5725
 X42.7500 Z-0.5864
 X42.3750 Z-0.6107
 X40.8750 Z-0.7079
 X40.5000 Z-0.7341
 X40.1250 Z-0.7744
 X38.6250 Z-0.9485
 X38.2500 Z-0.9933
 X37.8750 Z-1.0584
 X36.3750 Z-1.4109
 X36.0000 Z-1.5007
 X34.8750 Z-1.7738
 X34.5000 Z-1.8649
 X34.1250 Z-1.9616
 X33.7500 Z-2.0944
 X30.7500 Z-3.2576
 X30.3750 Z-3.4425
 X28.5000 Z-4.3851
 X28.1250 Z-4.5775
 X27.7500 Z-4.7788
 X27.3750 Z-5.0235
 X25.1250 Z-6.5867
 X24.7500 Z-6.8860
 X22.6875 Z-8.6619
 X22.5000 Z-8.8319
 X20.6250 Z-10.8233
 X20.2500 Z-11.2457
 X18.5625 Z-13.4669
 X18.3750 Z-13.7273
 X16.8750 Z-16.2118
 X16.5000 Z-16.9673
 X15.7500 Z-18.5782
 X15.3750 Z-19.4335
 X14.6250 Z-21.6409
 X14.2500 Z-23.0138
 X13.8750 Z-24.7009
 X13.5000 Z-27.4933
 X13.3975 Z-28.4262
 X13.3960 Z-30.0000
 X1.5000
 Y34.9011
 X13.1250
 X13.3125 Z-26.9057
 X13.4062 Z-26.0137
 X13.5000 Z-25.2154
 X13.8750 Z-23.4512
 X14.2500 Z-21.8766
 X15.0000 Z-19.5683
 X15.3750 Z-18.6398
 X15.7500 Z-17.7993
 X16.1250 Z-16.9673
 X16.5000 Z-16.1984
 X16.8750 Z-15.5708
 X17.2500 Z-14.9491
 X18.0000 Z-13.7068
 X18.3750 Z-13.2038
 X19.8750 Z-11.2295
 X20.2500 Z-10.8101
 X22.1250 Z-8.8187
 X22.5000 Z-8.4898
 X24.3750 Z-6.8753
 X24.7500 Z-6.5781
 X27.0000 Z-5.0149
 X27.3750 Z-4.7719
 X30.0000 Z-3.3226
 X30.3750 Z-3.1508
 X30.7500 Z-2.9946
 X31.1250 Z-2.8453
 X31.5000 Z-2.6999
 X33.0000 Z-2.1184
 X33.3750 Z-1.9783
 X35.6250 Z-1.3417
 X36.0000 Z-1.2410
 X36.3750 Z-1.1490
 X36.7500 Z-1.0597
 X37.1250 Z-0.9885
 X38.2500 Z-0.8128
 X38.6250 Z-0.7581
 X39.3750 Z-0.6547
 X39.7500 Z-0.6031
 X40.1250 Z-0.5564
 X40.5000 Z-0.5129
 X40.8750 Z-0.4723
 X41.2500 Z-0.4458
 X42.3750 Z-0.3729
 X42.7500 Z-0.3596
 X43.1250 Z-0.3481
 X43.5000 Z-0.3413
 X43.8750 Z-0.3433
 X45.3750 Z-0.3602
 X45.7500 Z-0.3653
 X46.1250 Z-0.3868
 X46.5000 Z-0.4237
 X48.0000 Z-0.5783
 X48.3750 Z-0.6178
 X48.7500 Z-0.6682
 X49.5000 Z-0.7718
 X49.8750 Z-0.8236
 X50.2500 Z-0.8800
 X50.6250 Z-0.9427
 X51.0000 Z-1.0063
 X51.3750 Z-1.0946
 X52.8750 Z-1.4810
 X53.2500 Z-1.5836
 X54.3750 Z-1.9064
 X54.7500 Z-2.0214
 X56.6250 Z-2.7484
 X57.0000 Z-2.8943
 X57.3750 Z-3.0459
 X57.7500 Z-3.2041
 X58.1250 Z-3.3916
 X60.6562 Z-4.7892
 X60.7500 Z-4.8412
 X63.3750 Z-6.6650
 X63.7500 Z-6.9830
 X65.6250 Z-8.5974
 X66.0000 Z-8.9515
 X67.8750 Z-10.9429
 X68.2500 Z-11.3940
 X69.7500 Z-13.3683
 X70.1250 Z-13.9139
 X70.8750 Z-15.1561
 X71.2500 Z-15.7792
 X71.4375 Z-16.0933
 X71.6250 Z-16.4177
 X72.0000 Z-17.2436
 X72.3750 Z-18.0786
 X72.7500 Z-18.9205
 X73.1250 Z-19.9531
 X73.6875 Z-21.6842
 X73.8750 Z-22.2750
 X74.2500 Z-24.0392
 X74.6250 Z-26.3111
 X74.8477 Z-28.4295
 X74.8506 Z-30.0000
 X99.2402
 X99.2410 Z-29.9999
 X108.5625 Z-18.1144
 X108.6094 Z-18.0556
 X108.6562 Z-18.0034
 X108.7031 Z-17.9568
 X108.7266 Z-17.9350
 X108.7500 Z-17.9141
 X108.8438 Z-17.8373
 X108.8906 Z-17.8022
 X108.9141 Z-17.7852
 X108.9375 Z-17.7687
 X109.1250 Z-17.6698
 X109.5000 Z-17.5086
 X109.8750 Z-17.3694
 X110.2500 Z-17.2487
 X110.6250 Z-17.1452
 X111.0000 Z-17.0595
 X111.3750 Z-16.9937
 X111.7500 Z-16.9535
 X112.1250 Z-16.9467
 X121.1250
 X121.5000 Z-16.9322
 X121.8750 Z-16.9036
 X122.2500 Z-16.9019
 X126.0000
 X126.3750 Z-16.9186
 X126.7500 Z-16.9467
 X135.7500
 X136.1250 Z-16.9477
 X136.5000 Z-16.9770
 X136.8750 Z-17.0352
 X137.2500 Z-17.1146
 X137.6250 Z-17.2123
 X138.0000 Z-17.3272
 X138.3750 Z-17.4600
 X138.5625 Z-17.5338
 X138.7500 Z-17.6132
 X138.8438 Z-17.6553
 X138.8906 Z-17.6771
 X138.9375 Z-17.6992
 X138.9844 Z-17.7219
 X139.0078 Z-17.7334
 X139.0312 Z-17.7473
 X139.0781 Z-17.7797
 X139.1016 Z-17.7965
 X139.1250 Z-17.8137
 X139.2188 Z-17.8874
 X139.2656 Z-17.9280
 X139.2891 Z-17.9494
 X139.3125 Z-17.9718
 X139.5000 Z-18.1941
 X148.7578 Z-29.9984
 X148.7812 Z-30.0000
 X166.5000
 Y36.0933
 X149.0156
 X148.9922 Z-29.9708
 X147.0000 Z-27.3145
 X146.6250 Z-26.8157
 X146.2500 Z-26.3220
 X145.8750 Z-25.8338
 X145.5000 Z-25.3509
 X145.1250 Z-24.8724
 X140.3438 Z-18.7760
 X140.2969 Z-18.7197
 X140.2734 Z-18.6943
 X140.2500 Z-18.6703
 X140.1562 Z-18.5844
 X140.0625 Z-18.5097
 X139.9688 Z-18.4426
 X139.8750 Z-18.3812
 X139.6875 Z-18.2712
 X139.5000 Z-18.1743
 X139.1250 Z-18.0100
 X138.7500 Z-17.8769
 X138.3750 Z-17.7711
 X138.0000 Z-17.6964
 X137.6250 Z-17.6489
 X137.2500 Z-17.6350
 X127.8750
 X127.5000 Z-17.5767
 X127.1250 Z-17.4919
 X126.7500 Z-17.4075
 X126.5625 Z-17.3746
 X126.3750 Z-17.3525
 X126.0000 Z-17.3358
 X122.2500
 X121.8750 Z-17.3375
 X121.6875 Z-17.3473
 X121.5000 Z-17.3661
 X121.1250 Z-17.4353
 X120.3750 Z-17.6050
 X120.0000 Z-17.6350
 X111.0000
 X110.6250 Z-17.6353
 X110.2500 Z-17.6617
 X109.8750 Z-17.7178
 X109.5000 Z-17.8034
 X109.1250 Z-17.9181
 X108.7500 Z-18.0609
 X108.5625 Z-18.1444
 X108.3750 Z-18.2376
 X108.1875 Z-18.3428
 X108.0938 Z-18.4011
 X108.0469 Z-18.4320
 X108.0234 Z-18.4479
 X108.0000 Z-18.4642
 X107.9062 Z-18.5336
 X107.8594 Z-18.5713
 X107.8359 Z-18.5911
 X107.8125 Z-18.6115
 X107.6250 Z-18.8159
 X102.7500 Z-25.0318
 X102.3750 Z-25.5113
 X102.0000 Z-25.9959
 X101.6250 Z-26.4860
 X101.2500 Z-26.9815
 X100.8750 Z-27.4812
 X99.0000 Z-29.9812
 X98.6250 Z-30.0000
 X75.0000
 X74.8125 Z-26.9028
 X74.7188 Z-26.0109
 X74.6250 Z-25.2140
 X74.2500 Z-23.4497
 X73.8750 Z-21.8757
 X73.1250 Z-19.5674
 X72.7500 Z-18.6391
 X72.0000 Z-16.9546
 X71.6250 Z-16.1736
 X70.3125 Z-13.9003
 X70.1250 Z-13.5931
 X68.6250 Z-11.5285
 X68.2500 Z-11.0332
 X67.1250 Z-9.7838
 X66.7500 Z-9.3675
 X66.3750 Z-8.9548
 X66.0000 Z-8.5921
 X65.6250 Z-8.2648
 X65.2500 Z-7.9410
 X63.9375 Z-6.8109
 X63.7500 Z-6.6564
 X61.2188 Z-4.8977
 X61.1250 Z-4.8341
 X58.5000 Z-3.3848
 X58.1250 Z-3.1988
 X55.5000 Z-2.0812
 X55.1250 Z-1.9402
 X54.7500 Z-1.8279
 X54.3750 Z-1.7165
 X54.0000 Z-1.6052
 X53.6250 Z-1.4951
 X53.2500 Z-1.3863
 X52.8750 Z-1.2786
 X52.5000 Z-1.1710
 X52.1250 Z-1.0649
 X51.7500 Z-0.9866
 X49.1250 Z-0.5412
 X48.7500 Z-0.4776
 X48.3750 Z-0.4185
 X48.0000 Z-0.3681
 X47.6250 Z-0.3472
 X46.1250 Z-0.2666
 X45.7500 Z-0.2468
 X45.3750 Z-0.2338
 X45.0000 Z-0.2286
 X44.2500 Z-0.2201
 X43.8750 Z-0.2180
 X43.5000 Z-0.2246
 X43.1250 Z-0.2360
 X41.6250 Z-0.2818
 X41.2500 Z-0.2946
 X40.8750 Z-0.3152
 X40.5000 Z-0.3420
 X40.1250 Z-0.3690
 X39.7500 Z-0.4203
 X39.0000 Z-0.5238
 X38.6250 Z-0.5794
 X37.8750 Z-0.6966
 X37.5000 Z-0.7581
 X37.1250 Z-0.8265
 X36.3750 Z-0.9673
 X36.0000 Z-1.0455
 X33.7500 Z-1.6811
 X33.3750 Z-1.7878
 X33.0000 Z-1.9010
 X32.6250 Z-2.0279
 X30.0000 Z-3.1456
 X29.6250 Z-3.3158
 X27.0000 Z-4.7651
 X26.6250 Z-5.0063
 X24.3750 Z-6.5696
 X24.0000 Z-6.8647
 X22.8750 Z-7.8334
 X22.5000 Z-8.1565
 X22.1250 Z-8.4826
 X21.9375 Z-8.6470
 X21.7500 Z-8.8183
 X21.3750 Z-9.2295
 X21.0000 Z-9.6449
 X19.8750 Z-10.8944
 X19.5000 Z-11.3564
 X18.0000 Z-13.4210
 X17.6250 Z-14.0086
 X16.5000 Z-15.9571
 X16.1250 Z-16.6738
 X15.0000 Z-19.2006
 X14.6250 Z-20.3368
 X14.2500 Z-21.4910
 X13.8750 Z-22.8617
 X13.5000 Z-24.6259
 X13.1250 Z-27.4975
 X13.0283 Z-28.4173
 X13.0269 Z-30.0000
 X1.5000
 Y37.2854
 X12.7500
 X13.1250 Z-26.3053
 X13.5000 Z-24.0364
 X13.8750 Z-22.2722
 X14.2500 Z-21.1053
 X14.6250 Z-19.9512
 X15.0000 Z-18.9192
 X16.1250 Z-16.3924
 X16.5000 Z-15.7401
 X17.6250 Z-13.7915
 X18.0000 Z-13.2486
 X19.5000 Z-11.1840
 X19.8750 Z-10.7552
 X21.3750 Z-9.0893
 X21.7500 Z-8.6944
 X23.9062 Z-6.7529
 X24.0000 Z-6.6718
 X26.2500 Z-5.0371
 X26.6250 Z-4.7801
 X27.0000 Z-4.5642
 X27.3750 Z-4.3505
 X27.7500 Z-4.1392
 X28.1250 Z-3.9302
 X28.5000 Z-3.7230
 X29.2500 Z-3.3089
 X29.6250 Z-3.1403
 X32.2500 Z-2.0227
 X32.6250 Z-1.8972
 X34.8750 Z-1.1916
 X35.2500 Z-1.0753
 X35.6250 Z-0.9854
 X36.0000 Z-0.9149
 X36.3750 Z-0.8444
 X36.7500 Z-0.7739
 X37.1250 Z-0.7035
 X37.5000 Z-0.6330
 X37.8750 Z-0.5626
 X38.6250 Z-0.4218
 X39.0000 Z-0.3607
 X39.3750 Z-0.3290
 X39.7500 Z-0.3007
 X40.8750 Z-0.2198
 X41.2500 Z-0.1929
 X41.6250 Z-0.1715
 X42.0000 Z-0.1583
 X43.5000 Z-0.1125
 X43.8750 Z-0.1011
 X44.2500 Z-0.0947
 X44.6250 Z-0.0970
 X45.0000 Z-0.1023
 X45.3750 Z-0.1156
 X45.7500 Z-0.1355
 X46.1250 Z-0.1556
 X46.5000 Z-0.1772
 X46.8750 Z-0.2024
 X47.2500 Z-0.2311
 X48.7500 Z-0.3511
 X49.1250 Z-0.3942
 X50.2500 Z-0.5851
 X50.6250 Z-0.6492
 X51.0000 Z-0.7187
 X51.3750 Z-0.7939
 X52.5000 Z-1.0204
 X52.8750 Z-1.1309
 X53.6250 Z-1.3536
 X54.0000 Z-1.4660
 X55.5000 Z-1.9364
 X55.8750 Z-2.0759
 X58.5000 Z-3.1935
 X58.8750 Z-3.3780
 X59.6250 Z-3.7920
 X60.0000 Z-3.9996
 X60.3750 Z-4.2094
 X60.7500 Z-4.4215
 X61.1250 Z-4.6359
 X61.3125 Z-4.7440
 X61.5000 Z-4.8554
 X63.7500 Z-6.4902
 X64.1250 Z-6.7810
 X66.1875 Z-8.6381
 X66.3750 Z-8.8117
 X68.2500 Z-10.8940
 X68.6250 Z-11.3560
 X70.1250 Z-13.4206
 X70.5000 Z-14.0080
 X71.6250 Z-15.9566
 X72.0000 Z-16.6731
 X73.1250 Z-19.1999
 X73.5000 Z-20.3359
 X73.8750 Z-21.4900
 X74.2500 Z-22.8602
 X74.6250 Z-24.6245
 X75.0000 Z-27.4946
 X75.0981 Z-28.4284
 X75.0989 Z-30.0000
 X98.8594
 X98.8828 Z-29.9704
 X106.6875 Z-19.5641
 X106.7812 Z-19.4392
 X106.8281 Z-19.3768
 X106.8516 Z-19.3456
 X106.8633 Z-19.3301
 X106.8691 Z-19.3223
 X106.8750 Z-19.3145
 X106.9688 Z-19.2300
 X107.0156 Z-19.1940
 X107.0625 Z-19.1599
 X107.2500 Z-19.0373
 X107.6250 Z-18.8376
 X108.0000 Z-18.6780
 X108.3750 Z-18.5488
 X108.7500 Z-18.4468
 X109.1250 Z-18.3723
 X109.3125 Z-18.3465
 X109.5000 Z-18.3295
 X109.8750 Z-18.3233
 X119.0625
 X119.2500 Z-18.2934
 X121.1250 Z-17.8692
 X121.3125 Z-17.8291
 X121.5000 Z-17.8001
 X121.8750 Z-17.7714
 X122.2500 Z-17.7697
 X126.0000
 X126.1875 Z-17.7737
 X126.3750 Z-17.7864
 X126.7500 Z-17.8414
 X127.1250 Z-17.9258
 X128.8125 Z-18.3075
 X129.0000 Z-18.3233
 X138.0000
 X138.3750 Z-18.3240
 X138.5625 Z-18.3341
 X138.7500 Z-18.3541
 X139.1250 Z-18.4188
 X139.5000 Z-18.5119
 X139.8750 Z-18.6318
 X140.2500 Z-18.7806
 X140.4375 Z-18.8677
 X140.6250 Z-18.9652
 X140.8125 Z-19.0760
 X140.9062 Z-19.1380
 X140.9531 Z-19.1711
 X140.9766 Z-19.1882
 X140.9883 Z-19.1969
 X141.0000 Z-19.2058
 X141.3750 Z-19.6474
 X149.1394 Z-30.0000
 X149.1401
 X166.5000
 Y38.4776
 X149.2647
 X149.2646 Z-29.9999
 X141.7500 Z-19.9804
 X141.6562 Z-19.8687
 X141.6094 Z-19.8216
 X141.5625 Z-19.7785
 X141.4688 Z-19.7012
 X141.3750 Z-19.6326
 X141.1875 Z-19.5142
 X141.0938 Z-19.4622
 X141.0000 Z-19.4142
 X140.8125 Z-19.3284
 X140.6250 Z-19.2601
 X140.2500 Z-19.1528
 X139.8750 Z-19.0728
 X139.6875 Z-19.0438
 X139.5000 Z-19.0232
 X139.1250 Z-19.0116
 X130.1250
 X129.7500 Z-18.9535
 X127.1250 Z-18.3597
 X126.7500 Z-18.2753
 X126.5625 Z-18.2425
 X126.3750 Z-18.2203
 X126.0000 Z-18.2036
 X122.2500
 X121.8750 Z-18.2053
 X121.6875 Z-18.2151
 X121.5000 Z-18.2340
 X121.1250 Z-18.3031
 X118.1250 Z-18.9817
 X117.7500 Z-19.0116
 X109.1250
 X108.7500
 X108.5625 Z-19.0185
 X108.3750 Z-19.0360
 X108.0000 Z-19.0963
 X107.6250 Z-19.1856
 X107.4375 Z-19.2403
 X107.3438 Z-19.2702
 X107.2500 Z-19.3024
 X107.0625 Z-19.3842
 X106.9688 Z-19.4298
 X106.8750 Z-19.4791
 X106.6875 Z-19.5907
 X106.5938 Z-19.6546
 X106.5469 Z-19.6892
 X106.5234 Z-19.7072
 X106.5000 Z-19.7258
 X106.1250 Z-20.1470
 X98.7356 Z-29.9996
 X98.7352 Z-30.0000
 X75.3750
 X75.0000 Z-26.3025
 X74.6250 Z-24.0350
 X74.2500 Z-22.2707
 X73.8750 Z-21.1044
 X73.5000 Z-19.9503
 X73.1250 Z-18.9185
 X72.0000 Z-16.3917
 X71.6250 Z-15.7396
 X70.5000 Z-13.7910
 X70.1250 Z-13.2481
 X68.6250 Z-11.1836
 X68.2500 Z-10.7549
 X66.7500 Z-9.0890
 X66.3750 Z-8.6941
 X64.2188 Z-6.7526
 X64.1250 Z-6.6716
 X61.8750 Z-5.0369
 X61.5000 Z-4.7799
 X58.9688 Z-3.3185
 X58.8750 Z-3.2656
 X56.2500 Z-2.0969
 X55.8750 Z-1.9470
 X55.1250 Z-1.7071
 X54.7500 Z-1.5872
 X54.3750 Z-1.4676
 X54.0000 Z-1.3483
 X53.6250 Z-1.2293
 X53.2500 Z-1.1106
 X52.8750 Z-1.0031
 X49.8750 Z-0.3984
 X49.5000 Z-0.3468
 X49.1250 Z-0.3128
 X48.7500 Z-0.2818
 X45.7500 Z-0.0419
 X45.3750 Z-0.0411
 X42.3750
 X42.0000 Z-0.0485
 X41.6250 Z-0.0707
 X41.2500 Z-0.0978
 X40.8750 Z-0.1274
 X40.5000 Z-0.1604
 X40.1250 Z-0.1966
 X38.6250 Z-0.3438
 X38.2500 Z-0.3910
 X37.1250 Z-0.6028
 X36.7500 Z-0.6752
 X36.3750 Z-0.7533
 X35.2500 Z-0.9893
 X34.8750 Z-1.0897
 X33.0000 Z-1.6697
 X32.6250 Z-1.7858
 X32.2500 Z-1.9052
 X31.8750 Z-2.0412
 X29.2500 Z-3.2099
 X28.8750 Z-3.4087
 X26.6250 Z-4.7077
 X26.2500 Z-4.9460
 X24.0000 Z-6.5808
 X23.6250 Z-6.8933
 X21.7500 Z-8.5816
 X21.3750 Z-8.9501
 X19.5000 Z-11.0325
 X19.1250 Z-11.5277
 X17.6250 Z-13.5922
 X17.2500 Z-14.2240
 X16.1250 Z-16.1726
 X15.7500 Z-16.9532
 X15.0000 Z-18.6377
 X14.6250 Z-19.5656
 X13.8750 Z-21.8738
 X13.5000 Z-23.4469
 X13.1250 Z-25.2111
 X12.9375 Z-26.8971
 X12.7764 Z-28.4297
 Z-30.0000
 X1.5000
 Y39.6698
 X12.3750
 X12.7500 Z-27.4889
 X13.1250 Z-24.6216
 X13.5000 Z-22.8574
 X13.8750 Z-21.4882
 X14.5312 Z-19.4685
 X14.6250 Z-19.1986
 X15.7500 Z-16.6718
 X16.1250 Z-15.9556
 X17.2500 Z-14.0070
 X17.6250 Z-13.4198
 X19.1250 Z-11.3552
 X19.5000 Z-10.8934
 X21.3750 Z-8.8110
 X21.7500 Z-8.4688
 X23.6250 Z-6.7805
 X24.0000 Z-6.4897
 X26.2500 Z-4.8550
 X26.6250 Z-4.6354
 X28.8750 Z-3.3364
 X29.2500 Z-3.1542
 X31.6875 Z-2.0689
 X31.8750 Z-1.9873
 X34.6875 Z-1.0607
 X34.8750 Z-1.0074
 X37.8750 Z-0.3782
 X38.2500 Z-0.3365
 X39.3750 Z-0.2255
 X40.5000 Z-0.1145
 X41.1562 Z-0.0497
 X41.2500 Z-0.0411
 X46.5000
 X46.8750 Z-0.0626
 X47.2500 Z-0.0927
 X47.6250 Z-0.1252
 X48.0000 Z-0.1610
 X48.3750 Z-0.1999
 X49.8750 Z-0.3575
 X50.2500 Z-0.4223
 X51.0000 Z-0.5735
 X51.3750 Z-0.6491
 X51.7500 Z-0.7280
 X52.8750 Z-0.9671
 X53.2500 Z-1.0592
 X54.3750 Z-1.4190
 X54.7500 Z-1.5406
 X55.8750 Z-1.9061
 X56.2500 Z-2.0411
 X58.8750 Z-3.2098
 X59.2500 Z-3.4085
 X61.5000 Z-4.7076
 X61.8750 Z-4.9458
 X64.1250 Z-6.5805
 X64.5000 Z-6.8930
 X66.3750 Z-8.5813
 X66.7500 Z-8.9498
 X68.6250 Z-11.0322
 X69.0000 Z-11.5272
 X70.5000 Z-13.5918
 X70.8750 Z-14.2235
 X72.0000 Z-16.1721
 X72.3750 Z-16.9525
 X73.1250 Z-18.6371
 X73.5000 Z-19.5646
 X74.2500 Z-21.8729
 X74.6250 Z-23.4455
 X75.0000 Z-25.2097
 X75.1875 Z-26.8942
 X75.3486 Z-28.4273
 X75.3501 Z-30.0000
 X98.6100
 X98.6104 Z-29.9995
 X105.6094 Z-20.6675
 X105.6562 Z-20.6081
 X105.7031 Z-20.5560
 X105.7266 Z-20.5320
 X105.7500 Z-20.5091
 X105.8438 Z-20.4261
 X105.9375 Z-20.3536
 X106.0312 Z-20.2886
 X106.1250 Z-20.2296
 X106.3125 Z-20.1256
 X106.5000 Z-20.0365
 X106.6875 Z-19.9597
 X106.8750 Z-19.8935
 X107.0625 Z-19.8372
 X107.2500 Z-19.7901
 X107.4375 Z-19.7524
 X107.6250 Z-19.7242
 X108.0000 Z-19.6998
 X116.9531
 X117.0000 Z-19.6878
 X117.3750 Z-19.5853
 X121.1250 Z-18.7371
 X121.3125 Z-18.6970
 X121.5000 Z-18.6679
 X121.8750 Z-18.6392
 X122.2500 Z-18.6375
 X126.0000 Z-18.6376
 X126.1875 Z-18.6415
 X126.3750 Z-18.6542
 X126.7500 Z-18.7092
 X127.1250 Z-18.7936
 X130.6875 Z-19.5994
 X130.7812 Z-19.6213
 X130.8281 Z-19.6335
 X130.8750 Z-19.6467
 X130.9688 Z-19.6766
 X130.9922 Z-19.6850
 X131.0039 Z-19.6893
 X131.0098 Z-19.6915
 X131.0127 Z-19.6926
 X131.0142 Z-19.6931
 X131.0156 Z-19.6937
 X131.0273 Z-19.6982
 X131.0288 Z-19.6987
 X131.0295 Z-19.6990
 X131.0299 Z-19.6992
 X131.0301
 X131.0302 Z-19.6993
 X131.0303
 X131.0310 Z-19.6996
 X131.0314 Z-19.6997
 X131.0316 Z-19.6998
 X131.0317
 X139.8750
 X140.0625 Z-19.7006
 X140.2500 Z-19.7111
 X140.4375 Z-19.7325
 X140.6250 Z-19.7639
 X140.8125 Z-19.8048
 X141.0000 Z-19.8549
 X141.1875 Z-19.9145
 X141.3750 Z-19.9841
 X141.5625 Z-20.0648
 X141.6562 Z-20.1098
 X141.7500 Z-20.1584
 X141.9375 Z-20.2683
 X142.0312 Z-20.3312
 X142.0781 Z-20.3651
 X142.1016 Z-20.3827
 X142.1250 Z-20.4010
 X142.2188 Z-20.4800
 X142.2656 Z-20.5242
 X142.3125 Z-20.5727
 X142.5000 Z-20.8133
 X149.3899 Z-29.9998
 X149.3906 Z-30.0000
 X166.5000
 Y40.8619
 X149.4990
 X149.4961 Z-29.9968
 X142.9102 Z-21.2155
 X142.9043 Z-21.2097
 X142.8984 Z-21.2040
 X142.8750 Z-21.1818
 X142.7812 Z-21.1010
 X142.6875 Z-21.0299
 X142.5938 Z-20.9661
 X142.5000 Z-20.9080
 X142.3125 Z-20.8055
 X142.1250 Z-20.7176
 X141.9375 Z-20.6418
 X141.7500 Z-20.5765
 X141.5625 Z-20.5209
 X141.3750 Z-20.4747
 X141.1875 Z-20.4378
 X141.0000 Z-20.4105
 X140.6250 Z-20.3881
 X131.6250
 X131.2500 Z-20.2333
 X131.1562 Z-20.1888
 X131.0625 Z-20.1462
 X130.9688 Z-20.1106
 X130.8750 Z-20.0806
 X130.5000 Z-19.9909
 X127.1250 Z-19.2275
 X126.7500 Z-19.1432
 X126.5625 Z-19.1103
 X126.3750 Z-19.0881
 X126.0000 Z-19.0715
 X122.2500
 X121.8750 Z-19.0732
 X121.6875 Z-19.0829
 X121.5000 Z-19.1018
 X121.1250 Z-19.1710
 X117.3750 Z-20.0192
 X117.1875 Z-20.0632
 X117.0938 Z-20.0900
 X117.0000 Z-20.1217
 X116.8125 Z-20.2036
 X116.4375 Z-20.3813
 X116.2500 Z-20.3881
 X107.4375
 X107.2500 Z-20.3904
 X107.0625 Z-20.4036
 X106.8750 Z-20.4276
 X106.6875 Z-20.4614
 X106.5000 Z-20.5045
 X106.3125 Z-20.5569
 X106.1250 Z-20.6189
 X105.9375 Z-20.6911
 X105.7500 Z-20.7747
 X105.5625 Z-20.8720
 X105.4688 Z-20.9268
 X105.4219 Z-20.9560
 X105.3984 Z-20.9712
 X105.3750 Z-20.9867
 X105.2812 Z-21.0527
 X105.2344 Z-21.0885
 X105.2109 Z-21.1073
 X105.1875 Z-21.1267
 X105.0000 Z-21.3353
 X98.5020 Z-29.9994
 X98.5012 Z-30.0000
 X75.7500
 X75.3750 Z-27.6461
 X75.0000 Z-24.6994
 X74.6250 Z-22.9351
 X74.2500 Z-21.5390
 X73.5938 Z-19.5193
 X73.5000 Z-19.2357
 X72.3750 Z-16.7089
 X72.0000 Z-15.9842
 X70.8750 Z-14.0356
 X70.5000 Z-13.4425
 X69.0000 Z-11.3779
 X68.6250 Z-10.9117
 X66.7500 Z-8.8293
 X66.3750 Z-8.4836
 X64.5000 Z-6.7954
 X64.1250 Z-6.5017
 X61.8750 Z-4.8670
 X61.5000 Z-4.6449
 X59.2500 Z-3.3459
 X58.8750 Z-3.1615
 X56.2500 Z-1.9928
 X55.8750 Z-1.8709
 X53.3438 Z-1.0484
 X53.2500 Z-1.0194
 X50.2500 Z-0.3818
 X49.8750 Z-0.3361
 X47.2500 Z-0.0602
 X46.8750 Z-0.0411
 X41.2500
 X40.8750 Z-0.0762
 X38.0625 Z-0.3542
 X37.8750 Z-0.3766
 X34.8750 Z-1.0058
 X34.5000 Z-1.1167
 X32.2500 Z-1.8331
 X31.8750 Z-1.9525
 X31.5000 Z-2.1041
 X28.9688 Z-3.2311
 X28.8750 Z-3.2737
 X26.2500 Z-4.7893
 X25.8750 Z-5.0486
 X23.6250 Z-6.6834
 X23.2500 Z-7.0205
 X21.3750 Z-8.7087
 X21.0000 Z-9.1070
 X19.5000 Z-10.7729
 X19.1250 Z-11.2059
 X17.6250 Z-13.2705
 X17.2500 Z-13.8191
 X15.9375 Z-16.0924
 X15.7500 Z-16.4281
 X14.6250 Z-18.9549
 X14.2500 Z-20.0002
 X13.6875 Z-21.7314
 X13.5000 Z-22.3471
 X13.1250 Z-24.1113
 X12.7500 Z-26.4568
 X12.5427 Z-28.4289
 X12.5424 Z-30.0000
 X1.5000
 Y42.0541
 X12.3750
 X12.7500 Z-27.6232
 X13.1250 Z-24.6881
 X13.5000 Z-22.9238
 X13.8750 Z-21.5316
 X14.5312 Z-19.5119
 X14.6250 Z-19.2303
 X15.7500 Z-16.7035
 X16.1250 Z-15.9800
 X17.2500 Z-14.0315
 X17.6250 Z-13.4392
 X19.1250 Z-11.3746
 X19.5000 Z-10.9091
 X21.3750 Z-8.8267
 X21.7500 Z-8.4815
 X23.6250 Z-6.7932
 X24.0000 Z-6.5000
 X26.2500 Z-4.8653
 X26.6250 Z-4.6435
 X28.8750 Z-3.3445
 X29.2500 Z-3.1604
 X31.7812 Z-2.0335
 X31.8750 Z-1.9919
 X34.5000 Z-1.1271
 X34.6875 Z-1.0660
 X34.8750 Z-1.0116
 X37.8750 Z-0.3823
 X38.2500 Z-0.3385
 X39.3750 Z-0.2276
 X40.5000 Z-0.1168
 X41.2500 Z-0.0429
 X41.6250 Z-0.0411
 X46.5000
 X46.8750 Z-0.0704
 X47.2500 Z-0.1004
 X47.6250 Z-0.1314
 X48.0000 Z-0.1654
 X48.3750 Z-0.2029
 X49.8750 Z-0.3605
 X50.2500 Z-0.4281
 X51.3750 Z-0.6549
 X51.7500 Z-0.7316
 X52.8750 Z-0.9707
 X53.2500 Z-1.0646
 X54.3750 Z-1.4245
 X54.7500 Z-1.5452
 X55.8750 Z-1.9107
 X56.2500 Z-2.0474
 X58.8750 Z-3.2161
 X59.2500 Z-3.4167
 X61.5000 Z-4.7157
 X61.8750 Z-4.9561
 X64.1250 Z-6.5908
 X64.5000 Z-6.9058
 X66.3750 Z-8.5940
 X66.7500 Z-8.9655
 X68.6250 Z-11.0479
 X69.0000 Z-11.5467
 X70.5000 Z-13.6113
 X70.8750 Z-14.2480
 X72.0000 Z-16.1965
 X72.3750 Z-16.9843
 X73.1250 Z-18.6688
 X73.5000 Z-19.6081
 X74.2500 Z-21.9163
 X74.6250 Z-23.5119
 X75.0000 Z-25.2762
 X75.1875 Z-27.0286
 X75.3340 Z-28.4223
 X75.3354 Z-30.0000
 X98.6221
 X98.6250 Z-29.9988
 X104.7188 Z-21.8738
 X104.7656 Z-21.8133
 X104.7891 Z-21.7860
 X104.8125 Z-21.7603
 X104.9062 Z-21.6702
 X104.9531 Z-21.6307
 X105.0000 Z-21.5942
 X105.0938 Z-21.5281
 X105.1875 Z-21.4696
 X105.2812 Z-21.4172
 X105.3750 Z-21.3700
 X105.5625 Z-21.2889
 X105.6562 Z-21.2541
 X105.7500 Z-21.2227
 X105.9375 Z-21.1735
 X106.1250 Z-21.1343
 X106.3125 Z-21.1046
 X106.5000 Z-21.0850
 X106.8750 Z-21.0764
 X115.8750
 X116.2500 Z-20.9041
 X116.8125 Z-20.6375
 X116.9062 Z-20.5936
 X116.9531 Z-20.5737
 X117.0000 Z-20.5556
 X117.3750 Z-20.4531
 X121.1250 Z-19.6049
 X121.3125 Z-19.5648
 X121.5000 Z-19.5357
 X121.8750 Z-19.5071
 X122.2500 Z-19.5054
 X126.0000
 X126.1875 Z-19.5093
 X126.3750 Z-19.5221
 X126.7500 Z-19.5771
 X127.1250 Z-19.6614
 X130.6875 Z-20.4673
 X130.7812 Z-20.4891
 X130.8281 Z-20.5013
 X130.8750 Z-20.5145
 X131.2500 Z-20.6672
 X132.1135 Z-21.0763
 X132.1139 Z-21.0764
 X141.1875
 X141.3750 Z-21.0781
 X141.5625 Z-21.0903
 X141.7500 Z-21.1134
 X141.9375 Z-21.1463
 X142.0312 Z-21.1663
 X142.1250 Z-21.1886
 X142.3125 Z-21.2433
 X142.4062 Z-21.2769
 X142.5000 Z-21.3142
 X142.6875 Z-21.4009
 X142.7812 Z-21.4515
 X142.8281 Z-21.4788
 X142.8516 Z-21.4931
 X142.8750 Z-21.5078
 X142.9688 Z-21.5712
 X143.0156 Z-21.6061
 X143.0625 Z-21.6435
 X143.1094 Z-21.6840
 X143.1562 Z-21.7283
 X143.2500 Z-21.8326
 X143.6250 Z-22.3321
 X149.3759 Z-30.0000
 X149.3760
 X166.5000
 Y43.2463
 X149.2515
 X149.2500 Z-29.9992
 X143.6719 Z-22.5617
 X143.6484 Z-22.5306
 X143.6367 Z-22.5156
 X143.6250 Z-22.5013
 X143.5312 Z-22.4011
 X143.4844 Z-22.3582
 X143.4375 Z-22.3188
 X143.3438 Z-22.2481
 X143.2969 Z-22.2162
 X143.2500 Z-22.1861
 X143.0625 Z-22.0812
 X142.9688 Z-22.0364
 X142.8750 Z-21.9959
 X142.6875 Z-21.9262
 X142.5000 Z-21.8700
 X142.3125 Z-21.8260
 X142.1250 Z-21.7937
 X141.7500 Z-21.7649
 X141.3750 Z-21.7647
 X132.6562
 X132.6094 Z-21.7452
 X131.1562 Z-21.0567
 X131.0625 Z-21.0140
 X130.9688 Z-20.9784
 X130.8750 Z-20.9484
 X130.5000 Z-20.8588
 X127.1250 Z-20.0953
 X126.7500 Z-20.0110
 X126.5625 Z-19.9781
 X126.3750 Z-19.9560
 X126.0000 Z-19.9393
 X122.2500
 X121.8750 Z-19.9410
 X121.6875 Z-19.9507
 X121.5000 Z-19.9696
 X121.1250 Z-20.0388
 X117.3750 Z-20.8870
 X117.1875 Z-20.9310
 X117.0938 Z-20.9579
 X117.0000 Z-20.9896
 X116.6250 Z-21.1603
 X115.3594 Z-21.7600
 X115.3125 Z-21.7647
 X106.3125
 X106.2188 Z-21.7654
 X106.1250 Z-21.7690
 X105.9375 Z-21.7856
 X105.7500 Z-21.8140
 X105.5625 Z-21.8540
 X105.4688 Z-21.8785
 X105.3750 Z-21.9060
 X105.1875 Z-21.9711
 X105.0938 Z-22.0089
 X105.0000 Z-22.0508
 X104.9062 Z-22.0971
 X104.8125 Z-22.1486
 X104.7188 Z-22.2059
 X104.6719 Z-22.2373
 X104.6484 Z-22.2537
 X104.6250 Z-22.2706
 X104.5312 Z-22.3447
 X104.4844 Z-22.3864
 X104.4609 Z-22.4086
 X104.4375 Z-22.4320
 X104.2500 Z-22.6659
 X98.7495 Z-29.9999
 X98.7480 Z-30.0000
 X75.3750
 X75.0000 Z-26.4368
 X74.6250 Z-24.1014
 X74.2500 Z-22.3372
 X73.8750 Z-21.1479
 X73.5000 Z-19.9937
 X73.1250 Z-18.9502
 X72.0000 Z-16.4234
 X71.6250 Z-15.7640
 X70.5000 Z-13.8155
 X70.1250 Z-13.2676
 X68.6250 Z-11.2030
 X68.2500 Z-10.7706
 X66.7500 Z-9.1047
 X66.3750 Z-8.7068
 X64.2188 Z-6.7653
 X64.1250 Z-6.6818
 X61.8750 Z-5.0471
 X61.5000 Z-4.7881
 X58.8750 Z-3.2725
 X58.5000 Z-3.1049
 X56.6250 Z-2.2701
 X56.2500 Z-2.1032
 X55.8750 Z-1.9526
 X55.5000 Z-1.8331
 X55.1250 Z-1.7140
 X54.7500 Z-1.5952
 X54.3750 Z-1.4766
 X54.0000 Z-1.3585
 X53.6250 Z-1.2406
 X53.2500 Z-1.1230
 X53.0625 Z-1.0642
 X52.8750 Z-1.0117
 X50.2500 Z-0.4830
 X49.8750 Z-0.4075
 X49.5000 Z-0.3521
 X49.1250 Z-0.3197
 X48.7500 Z-0.2896
 X46.1250 Z-0.0797
 X45.7500 Z-0.0497
 X45.3750 Z-0.0411
 X42.7500
 X42.3750 Z-0.0474
 X42.0000 Z-0.0604
 X41.6250 Z-0.0815
 X41.2500 Z-0.1084
 X40.8750 Z-0.1364
 X40.5000 Z-0.1677
 X40.1250 Z-0.2024
 X39.7500 Z-0.2392
 X38.6250 Z-0.3497
 X38.2500 Z-0.4022
 X37.1250 Z-0.6141
 X36.7500 Z-0.6849
 X36.3750 Z-0.7605
 X35.2500 Z-0.9965
 X34.8750 Z-1.1004
 X32.6250 Z-1.7964
 X32.2500 Z-1.9127
 X31.8750 Z-2.0477
 X31.5000 Z-2.2145
 X29.2500 Z-3.2162
 X28.8750 Z-3.4168
 X26.6250 Z-4.7159
 X26.2500 Z-4.9563
 X24.0000 Z-6.5910
 X23.6250 Z-6.9060
 X21.7500 Z-8.5943
 X21.3750 Z-8.9658
 X19.5000 Z-11.0482
 X19.1250 Z-11.5471
 X17.6250 Z-13.6117
 X17.2500 Z-14.2485
 X16.1250 Z-16.1970
 X15.7500 Z-16.9849
 X15.0000 Z-18.6695
 X14.6250 Z-19.6090
 X13.8750 Z-21.9173
 X13.5000 Z-23.5133
 X13.1250 Z-25.2776
 X12.9375 Z-27.0314
 X12.7910 Z-28.4252
 X12.7896 Z-30.0000
 X1.5000
 Y44.4384
 X12.7500
 X13.1250 Z-26.4397
 X13.5000 Z-24.1028
 X13.8750 Z-22.3386
 X14.2500 Z-21.1488
 X14.6250 Z-19.9946
 X15.0000 Z-18.9509
 X16.1250 Z-16.4241
 X16.5000 Z-15.7646
 X17.6250 Z-13.8160
 X18.0000 Z-13.2680
 X19.5000 Z-11.2034
 X19.8750 Z-10.7709
 X21.3750 Z-9.1050
 X21.7500 Z-8.7071
 X23.9062 Z-6.7656
 X24.0000 Z-6.6821
 X25.8750 Z-5.3198
 X26.2500 Z-5.0476
 X26.6250 Z-4.7905
 X27.0000 Z-4.5785
 X27.3750 Z-4.3687
 X27.7500 Z-4.1612
 X29.2500 Z-3.3330
 X29.6250 Z-3.1589
 X32.2500 Z-2.0413
 X32.6250 Z-1.9108
 X34.5000 Z-1.3229
 X34.8750 Z-1.2054
 X35.2500 Z-1.0934
 X35.6250 Z-0.9989
 X38.6250 Z-0.4357
 X38.8125 Z-0.4010
 X39.0000 Z-0.3687
 X39.3750 Z-0.3387
 X39.7500 Z-0.3114
 X40.8750 Z-0.2306
 X41.2500 Z-0.2038
 X41.6250 Z-0.1835
 X42.0000 Z-0.1709
 X43.5000 Z-0.1251
 X43.8750 Z-0.1138
 X44.2500 Z-0.1084
 X44.6250 Z-0.1113
 X45.0000 Z-0.1162
 X45.3750 Z-0.1285
 X45.7500 Z-0.1480
 X46.1250 Z-0.1681
 X46.5000 Z-0.1886
 X46.8750 Z-0.2121
 X47.2500 Z-0.2391
 X47.6250 Z-0.2689
 X48.7500 Z-0.3589
 X49.1250 Z-0.4108
 X50.6250 Z-0.6653
 X51.0000 Z-0.7315
 X51.3750 Z-0.8046
 X52.1250 Z-0.9556
 X52.5000 Z-1.0353
 X54.0000 Z-1.4808
 X54.3750 Z-1.5972
 X55.5000 Z-1.9500
 X55.8750 Z-2.0945
 X58.5000 Z-3.2121
 X58.8750 Z-3.4021
 X60.3750 Z-4.2302
 X60.7500 Z-4.4384
 X61.1250 Z-4.6489
 X61.3125 Z-4.7550
 X61.5000 Z-4.8674
 X61.8750 Z-5.1382
 X63.7500 Z-6.5004
 X64.1250 Z-6.7938
 X66.1875 Z-8.6508
 X66.3750 Z-8.8273
 X68.2500 Z-10.9097
 X68.6250 Z-11.3755
 X70.1250 Z-13.4400
 X70.5000 Z-14.0325
 X71.6250 Z-15.9811
 X72.0000 Z-16.7049
 X73.1250 Z-19.2316
 X73.5000 Z-20.3794
 X73.8750 Z-21.5335
 X74.2500 Z-22.9267
 X74.6250 Z-24.6909
 X75.0000 Z-27.6290
 X75.0820 Z-28.4094
 X75.0850 Z-30.0000
 X98.8740
 X98.8748 Z-29.9999
 X103.8750 Z-23.3329
 X103.9688 Z-23.2085
 X104.0156 Z-23.1532
 X104.0391 Z-23.1281
 X104.0625 Z-23.1043
 X104.1562 Z-23.0196
 X104.2031 Z-22.9822
 X104.2500 Z-22.9473
 X104.3438 Z-22.8840
 X104.4375 Z-22.8277
 X104.5312 Z-22.7772
 X104.6250 Z-22.7317
 X104.8125 Z-22.6533
 X105.0000 Z-22.5894
 X105.1875 Z-22.5384
 X105.3750 Z-22.4994
 X105.5625 Z-22.4720
 X105.7500 Z-22.4565
 X106.1250 Z-22.4530
 X114.7500
 X115.1250 Z-22.3049
 X116.8125 Z-21.5054
 X116.9062 Z-21.4614
 X116.9531 Z-21.4415
 X117.0000 Z-21.4235
 X117.3750 Z-21.3209
 X121.1250 Z-20.4727
 X121.3125 Z-20.4326
 X121.5000 Z-20.4035
 X121.8750 Z-20.3749
 X122.2500 Z-20.3732
 X126.0000
 X126.1875 Z-20.3772
 X126.3750 Z-20.3899
 X126.7500 Z-20.4449
 X127.1250 Z-20.5293
 X130.6875 Z-21.3351
 X130.7812 Z-21.3569
 X130.8281 Z-21.3691
 X130.8750 Z-21.3823
 X131.2500 Z-21.5350
 X133.1250 Z-22.4234
 X133.5000 Z-22.4530
 X141.7500
 X142.1250 Z-22.4531
 X142.3125 Z-22.4603
 X142.5000 Z-22.4798
 X142.6875 Z-22.5111
 X142.8750 Z-22.5541
 X143.0625 Z-22.6092
 X143.1562 Z-22.6417
 X143.2500 Z-22.6777
 X143.4375 Z-22.7615
 X143.5312 Z-22.8103
 X143.5781 Z-22.8367
 X143.6016 Z-22.8504
 X143.6250 Z-22.8645
 X143.7188 Z-22.9253
 X143.7656 Z-22.9587
 X143.8125 Z-22.9944
 X143.8594 Z-23.0327
 X143.9062 Z-23.0744
 X143.9531 Z-23.1200
 X144.0000 Z-23.1708
 X144.3750 Z-23.6663
 X149.1251 Z-29.9998
 X149.1253 Z-30.0000
 X166.5000
 Y45.6306
 X149.0002
 X148.9999 Z-29.9998
 X147.7500 Z-28.3333
 X147.3750 Z-27.8337
 X147.0000 Z-27.3383
 X146.6250 Z-26.8483
 X146.2500 Z-26.3638
 X145.8750 Z-25.8844
 X144.1992 Z-23.7476
 X144.1875 Z-23.7328
 X144.1406 Z-23.6786
 X144.0938 Z-23.6314
 X144.0469 Z-23.5894
 X144.0234 Z-23.5700
 X144.0117 Z-23.5606
 X144.0000 Z-23.5514
 X143.9766 Z-23.5337
 X143.9648 Z-23.5251
 X143.9531 Z-23.5167
 X143.9062 Z-23.4900
 X143.8594 Z-23.4654
 X143.8125 Z-23.4420
 X143.7188 Z-23.3988
 X143.6250 Z-23.3596
 X143.4375 Z-23.2923
 X143.2500 Z-23.2383
 X143.0625 Z-23.1963
 X142.8750 Z-23.1660
 X142.5000 Z-23.1413
 X133.7344
 X133.6875 Z-23.1238
 X131.1562 Z-21.9245
 X131.0625 Z-21.8819
 X130.9688 Z-21.8462
 X130.8750 Z-21.8163
 X130.5000 Z-21.7266
 X127.1250 Z-20.9632
 X126.7500 Z-20.8788
 X126.5625 Z-20.8459
 X126.3750 Z-20.8238
 X126.0000 Z-20.8071
 X122.2500
 X121.8750 Z-20.8088
 X121.6875 Z-20.8186
 X121.5000 Z-20.8374
 X121.1250 Z-20.9066
 X117.3750 Z-21.7549
 X117.1875 Z-21.7989
 X117.0938 Z-21.8257
 X117.0000 Z-21.8574
 X116.6250 Z-22.0281
 X114.2812 Z-23.1386
 X114.2344 Z-23.1413
 X105.5625
 X105.3750 Z-23.1440
 X105.1875 Z-23.1585
 X105.0000 Z-23.1849
 X104.8125 Z-23.2230
 X104.7188 Z-23.2464
 X104.6250 Z-23.2729
 X104.4375 Z-23.3356
 X104.3438 Z-23.3722
 X104.2969 Z-23.3920
 X104.2734 Z-23.4022
 X104.2500 Z-23.4127
 X104.1562 Z-23.4575
 X104.1094 Z-23.4816
 X104.0859 Z-23.4942
 X104.0742 Z-23.5006
 X104.0625 Z-23.5071
 X104.0156 Z-23.5395
 X103.9688 Z-23.5763
 X103.9219 Z-23.6169
 X103.8750 Z-23.6622
 X103.5000 Z-24.1312
 X102.0000 Z-26.0438
 X101.6250 Z-26.5247
 X101.2500 Z-27.0110
 X100.8750 Z-27.5028
 X100.5000 Z-28.0000
 X99.0004 Z-29.9995
 X99.0000 Z-30.0000
 X75.0000
 X74.8125 Z-27.0372
 X74.6719 Z-25.6992
 X74.6250 Z-25.2804
 X74.2500 Z-23.5162
 X73.8750 Z-21.9191
 X73.1250 Z-19.6109
 X72.7500 Z-18.6708
 X72.0000 Z-16.9863
 X71.6250 Z-16.1981
 X70.3125 Z-13.9248
 X70.1250 Z-13.6125
 X68.6250 Z-11.5479
 X68.2500 Z-11.0489
 X67.5000 Z-10.2159
 X67.1250 Z-9.8018
 X66.7500 Z-9.3922
 X66.3750 Z-8.9871
 X66.0000 Z-8.6244
 X63.7500 Z-6.6870
 X63.3750 Z-6.4262
 X61.1250 Z-4.8629
 X60.7500 Z-4.6511
 X58.5000 Z-3.4089
 X58.1250 Z-3.2174
 X55.5000 Z-2.0997
 X55.1250 Z-1.9550
 X54.7500 Z-1.8437
 X54.3750 Z-1.7331
 X54.0000 Z-1.6239
 X53.6250 Z-1.5160
 X52.5000 Z-1.1932
 X52.1250 Z-1.0898
 X51.7500 Z-1.0031
 X49.1250 Z-0.5577
 X48.7500 Z-0.4956
 X48.3750 Z-0.4399
 X48.0000 Z-0.3900
 X47.6250 Z-0.3597
 X46.1250 Z-0.2791
 X45.7500 Z-0.2597
 X45.3750 Z-0.2477
 X45.0000 Z-0.2429
 X44.2500 Z-0.2345
 X43.8750 Z-0.2317
 X43.5000 Z-0.2373
 X43.1250 Z-0.2486
 X41.6250 Z-0.2945
 X41.2500 Z-0.3067
 X40.8750 Z-0.3262
 X40.5000 Z-0.3527
 X40.1250 Z-0.3892
 X39.0000 Z-0.5443
 X38.6250 Z-0.5991
 X37.8750 Z-0.7163
 X37.5000 Z-0.7755
 X37.1250 Z-0.8406
 X36.7500 Z-0.9107
 X36.3750 Z-0.9811
 X36.0000 Z-1.0663
 X33.3750 Z-1.8079
 X33.0000 Z-1.9165
 X32.6250 Z-2.0465
 X30.0000 Z-3.1642
 X29.6250 Z-3.3399
 X27.0000 Z-4.7892
 X26.6250 Z-5.0366
 X24.3750 Z-6.5999
 X24.0000 Z-6.9023
 X22.1250 Z-8.5167
 X21.9375 Z-8.6782
 X21.7500 Z-8.8530
 X21.3750 Z-9.2566
 X21.0000 Z-9.6647
 X20.6250 Z-10.0774
 X20.2500 Z-10.4936
 X19.8750 Z-10.9101
 X19.5000 Z-11.3759
 X18.0000 Z-13.4405
 X17.6250 Z-14.0330
 X16.5000 Z-15.9816
 X16.1250 Z-16.7055
 X15.0000 Z-19.2323
 X14.6250 Z-20.3803
 X14.2500 Z-21.5344
 X13.8750 Z-22.9281
 X13.5000 Z-24.6923
 X13.1250 Z-27.6318
 X13.0430 Z-28.4123
 X13.0400 Z-30.0000
 X1.5000
 Y46.8228
 X13.1250
 X13.3125 Z-27.0401
 X13.4531 Z-25.7021
 X13.5000 Z-25.2818
 X13.8750 Z-23.5176
 X14.2500 Z-21.9201
 X14.6250 Z-20.7659
 X15.0000 Z-19.6124
 X15.3750 Z-18.6793
 X15.7500 Z-17.8535
 X16.1250 Z-17.0369
 X16.3125 Z-16.6320
 X16.5000 Z-16.2637
 X18.0000 Z-13.7791
 X18.3750 Z-13.2613
 X19.8750 Z-11.2869
 X20.2500 Z-10.8565
 X22.1250 Z-8.8651
 X22.5000 Z-8.5274
 X24.3750 Z-6.9129
 X24.7500 Z-6.6085
 X27.0000 Z-5.0452
 X27.3750 Z-4.7960
 X30.0000 Z-3.3467
 X30.3750 Z-3.1717
 X30.7500 Z-3.0210
 X31.1250 Z-2.8754
 X33.3750 Z-2.0031
 X33.7500 Z-1.8941
 X35.2500 Z-1.4697
 X35.6250 Z-1.3650
 X36.0000 Z-1.2694
 X36.3750 Z-1.1784
 X36.7500 Z-1.0893
 X37.1250 Z-1.0082
 X38.2500 Z-0.8325
 X38.6250 Z-0.7787
 X39.3750 Z-0.6752
 X39.7500 Z-0.6251
 X40.1250 Z-0.5810
 X40.5000 Z-0.5374
 X40.8750 Z-0.4982
 X41.2500 Z-0.4726
 X42.7500 Z-0.3754
 X43.1250 Z-0.3608
 X43.5000 Z-0.3550
 X43.8750 Z-0.3577
 X44.6250 Z-0.3661
 X45.0000 Z-0.3712
 X45.3750 Z-0.3793
 X45.7500 Z-0.3893
 X46.1250 Z-0.4129
 X46.5000 Z-0.4477
 X46.8750 Z-0.4863
 X48.0000 Z-0.6023
 X48.3750 Z-0.6412
 X48.7500 Z-0.6906
 X49.8750 Z-0.8460
 X50.2500 Z-0.8993
 X50.6250 Z-0.9592
 X51.0000 Z-1.0232
 X52.8750 Z-1.5061
 X53.2500 Z-1.6059
 X54.3750 Z-1.9286
 X54.7500 Z-2.0515
 X57.0000 Z-2.9238
 X57.3750 Z-3.0705
 X57.7500 Z-3.2234
 X58.1250 Z-3.4157
 X60.5625 Z-4.7615
 X60.7500 Z-4.8715
 X63.1875 Z-6.5651
 X63.3750 Z-6.6976
 X65.6250 Z-8.6350
 X66.0000 Z-8.9979
 X67.8750 Z-10.9892
 X68.2500 Z-11.4514
 X69.7500 Z-13.4258
 X70.1250 Z-13.9862
 X71.4375 Z-16.1601
 X71.6250 Z-16.4976
 X72.0000 Z-17.3081
 X72.3750 Z-18.1278
 X72.7500 Z-18.9566
 X73.1250 Z-19.9965
 X73.6875 Z-21.7277
 X73.8750 Z-22.3414
 X74.2500 Z-24.1057
 X74.6250 Z-26.4454
 X74.8330 Z-28.4245
 X74.8345 Z-30.0000
 X99.2812
 X99.3750 Z-29.8847
 X103.6406 Z-24.4458
 X103.6641 Z-24.4161
 X103.6875 Z-24.3884
 X103.7344 Z-24.3386
 X103.7812 Z-24.2946
 X103.8281 Z-24.2550
 X103.8516 Z-24.2366
 X103.8750 Z-24.2190
 X103.9688 Z-24.1557
 X104.0625 Z-24.1013
 X104.1562 Z-24.0541
 X104.2500 Z-24.0130
 X104.4375 Z-23.9458
 X104.5312 Z-23.9187
 X104.6250 Z-23.8956
 X104.8125 Z-23.8601
 X105.0000 Z-23.8383
 X105.3750 Z-23.8296
 X113.7385
 X113.7393 Z-23.8293
 X116.8125 Z-22.3732
 X116.9062 Z-22.3292
 X116.9531 Z-22.3094
 X117.0000 Z-22.2913
 X117.3750 Z-22.1888
 X121.1250 Z-21.3405
 X121.3125 Z-21.3004
 X121.5000 Z-21.2714
 X121.8750 Z-21.2427
 X122.2500 Z-21.2410
 X126.0000
 X126.1875 Z-21.2450
 X126.3750 Z-21.2577
 X126.7500 Z-21.3127
 X127.1250 Z-21.3971
 X130.6875 Z-22.2029
 X130.7812 Z-22.2248
 X130.8281 Z-22.2369
 X130.8750 Z-22.2502
 X131.2500 Z-22.4028
 X134.2500 Z-23.8242
 X134.6250 Z-23.8296
 X142.7812
 X142.8750 Z-23.8311
 X143.0625 Z-23.8441
 X143.1562 Z-23.8555
 X143.2500 Z-23.8704
 X143.4375 Z-23.9106
 X143.5312 Z-23.9363
 X143.5781 Z-23.9507
 X143.6250 Z-23.9662
 X143.7188 Z-24.0005
 X143.8125 Z-24.0398
 X143.9062 Z-24.0849
 X143.9531 Z-24.1098
 X143.9766 Z-24.1230
 X144.0000 Z-24.1366
 X144.0938 Z-24.1968
 X144.1406 Z-24.2307
 X144.1641 Z-24.2488
 X144.1875 Z-24.2678
 X144.3750 Z-24.4657
 X148.7153 Z-29.9999
 X148.7168 Z-30.0000
 X166.5000
 Y48.0149
 X148.3286
 X148.3279 Z-29.9998
 X144.5156 Z-25.1389
 X144.4922 Z-25.1091
 X144.4688 Z-25.0810
 X144.4219 Z-25.0307
 X144.3984 Z-25.0078
 X144.3750 Z-24.9862
 X144.2812 Z-24.9101
 X144.2344 Z-24.8769
 X144.1875 Z-24.8463
 X144.0938 Z-24.7916
 X144.0469 Z-24.7671
 X144.0000 Z-24.7442
 X143.8125 Z-24.6667
 X143.7188 Z-24.6353
 X143.6250 Z-24.6080
 X143.4375 Z-24.5651
 X143.3438 Z-24.5490
 X143.2500 Z-24.5363
 X142.8750 Z-24.5179
 X134.8125
 X134.6250 Z-24.4358
 X131.1562 Z-22.7923
 X131.0625 Z-22.7497
 X130.9688 Z-22.7140
 X130.8750 Z-22.6841
 X130.5000 Z-22.5944
 X127.1250 Z-21.8310
 X126.7500 Z-21.7466
 X126.5625 Z-21.7138
 X126.3750 Z-21.6916
 X126.0000 Z-21.6749
 X122.2500
 X121.8750 Z-21.6766
 X121.6875 Z-21.6864
 X121.5000 Z-21.7053
 X121.1250 Z-21.7744
 X117.3750 Z-22.6227
 X117.1875 Z-22.6667
 X117.0938 Z-22.6935
 X117.0000 Z-22.7252
 X116.6250 Z-22.8959
 X113.2500 Z-24.4950
 X112.8750 Z-24.5179
 X105.1875
 X105.0000 Z-24.5186
 X104.8125 Z-24.5297
 X104.7188 Z-24.5401
 X104.6250 Z-24.5540
 X104.4375 Z-24.5921
 X104.3438 Z-24.6167
 X104.2969 Z-24.6304
 X104.2500 Z-24.6453
 X104.1562 Z-24.6782
 X104.0625 Z-24.7160
 X103.9688 Z-24.7593
 X103.9219 Z-24.7833
 X103.8984 Z-24.7959
 X103.8750 Z-24.8090
 X103.7812 Z-24.8665
 X103.7344 Z-24.8987
 X103.7109 Z-24.9159
 X103.6875 Z-24.9339
 X103.6406 Z-24.9725
 X103.5938 Z-25.0153
 X103.5000 Z-25.1190
 X99.6724 Z-29.9994
 X99.6716 Z-30.0000
 X74.6250
 X74.4375 Z-27.3217
 X74.2500 Z-25.6158
 X73.8750 Z-23.7725
 X73.5938 Z-22.5072
 X73.5000 Z-22.1373
 X72.7500 Z-19.9299
 X72.3750 Z-18.9404
 X71.2500 Z-16.5241
 X70.8750 Z-15.8700
 X69.7500 Z-14.0067
 X69.3750 Z-13.4421
 X67.8750 Z-11.4677
 X67.5000 Z-11.0024
 X65.6250 Z-9.0110
 X65.2500 Z-8.6457
 X63.0000 Z-6.7083
 X62.6250 Z-6.4434
 X60.7500 Z-5.1406
 X60.5625 Z-5.0104
 X60.4688 Z-4.9460
 X60.3750 Z-4.8822
 X60.0000 Z-4.6764
 X59.6250 Z-4.4870
 X57.3750 Z-3.3558
 X57.0000 Z-3.1907
 X54.3750 Z-2.1730
 X54.1875 Z-2.1003
 X54.0000 Z-2.0298
 X53.6250 Z-1.9238
 X53.2500 Z-1.8313
 X51.3750 Z-1.3697
 X51.0000 Z-1.2847
 X49.8750 Z-1.0557
 X49.5000 Z-0.9931
 X49.1250 Z-0.9414
 X48.7500 Z-0.8925
 X48.3750 Z-0.8537
 X48.0000 Z-0.8153
 X47.6250 Z-0.7808
 X46.8750 Z-0.7124
 X46.5000 Z-0.6783
 X46.1250 Z-0.6552
 X45.3750 Z-0.6251
 X45.0000 Z-0.6156
 X44.2500 Z-0.5994
 X43.8750 Z-0.5925
 X43.5000 Z-0.5964
 X43.1250 Z-0.6015
 X42.7500 Z-0.6135
 X42.3750 Z-0.6375
 X40.8750 Z-0.7347
 X40.5000 Z-0.7601
 X40.1250 Z-0.7990
 X38.6250 Z-0.9730
 X38.2500 Z-1.0166
 X37.8750 Z-1.0892
 X37.5000 Z-1.1762
 X36.3750 Z-1.4405
 X36.0000 Z-1.5300
 X34.5000 Z-1.8942
 X34.3125 Z-1.9398
 X34.2188 Z-1.9630
 X34.1250 Z-1.9869
 X33.7500 Z-2.1245
 X31.1250 Z-3.1422
 X30.7500 Z-3.2929
 X28.5000 Z-4.4241
 X28.1250 Z-4.6127
 X27.9375 Z-4.7086
 X27.8438 Z-4.7574
 X27.7500 Z-4.8068
 X27.3750 Z-5.0538
 X25.1250 Z-6.6171
 X24.7500 Z-6.9236
 X22.8750 Z-8.5380
 X22.5000 Z-8.8782
 X20.6250 Z-10.8696
 X20.2500 Z-11.3032
 X18.7500 Z-13.2775
 X18.3750 Z-13.7996
 X16.8750 Z-16.2841
 X16.5000 Z-17.0611
 X15.7500 Z-18.6720
 X15.3750 Z-19.5620
 X14.6250 Z-21.7694
 X14.2500 Z-23.2102
 X13.8750 Z-24.8973
 X13.5000 Z-27.8904
 X13.4414 Z-28.4235
 X13.4385 Z-30.0000
 X1.5000
 Y49.2071
 X13.5000
 X13.8750 Z-28.0028
 X14.0625 Z-26.2969
 X14.2500 Z-24.9529
 X14.6250 Z-23.2658
 X15.0000 Z-21.8058
 X15.7500 Z-19.5984
 X16.1250 Z-18.6985
 X17.0625 Z-16.6849
 X17.2500 Z-16.3046
 X18.7500 Z-13.8201
 X19.1250 Z-13.2938
 X20.6250 Z-11.3195
 X21.0000 Z-10.8827
 X22.8750 Z-8.8913
 X23.2500 Z-8.5487
 X24.3750 Z-7.5800
 X24.7500 Z-7.2571
 X25.1250 Z-6.9424
 X25.3125 Z-6.7903
 X25.5000 Z-6.6501
 X28.1250 Z-4.9894
 X28.5000 Z-4.7702
 X31.3125 Z-3.3562
 X31.5000 Z-3.2637
 X31.8750 Z-3.1183
 X32.2500 Z-2.9734
 X32.6250 Z-2.8389
 X33.0000 Z-2.7140
 X34.8750 Z-2.0902
 X35.2500 Z-1.9728
 X35.6250 Z-1.8817
 X36.0000 Z-1.7918
 X36.3750 Z-1.7036
 X36.7500 Z-1.6218
 X37.1250 Z-1.5490
 X37.8750 Z-1.4036
 X38.2500 Z-1.3354
 X39.7500 Z-1.0787
 X40.1250 Z-1.0220
 X40.5000 Z-0.9968
 X42.0000 Z-0.8996
 X42.3750 Z-0.8757
 X42.7500 Z-0.8643
 X43.8750 Z-0.8490
 X44.2500 Z-0.8450
 X44.6250 Z-0.8519
 X45.0000 Z-0.8610
 X46.5000 Z-0.9212
 X46.8750 Z-0.9437
 X47.2500 Z-0.9777
 X47.6250 Z-1.0119
 X48.0000 Z-1.0582
 X48.7500 Z-1.1611
 X49.1250 Z-1.2136
 X49.5000 Z-1.2825
 X50.2500 Z-1.4278
 X50.6250 Z-1.5017
 X51.3750 Z-1.6544
 X51.7500 Z-1.7308
 X52.1250 Z-1.8186
 X52.5000 Z-1.9109
 X52.8750 Z-2.0070
 X55.1250 Z-2.7556
 X55.5000 Z-2.8822
 X55.8750 Z-3.0214
 X56.2500 Z-3.1668
 X56.6250 Z-3.3247
 X59.6250 Z-4.8330
 X60.0000 Z-5.0685
 X62.4375 Z-6.6106
 X62.6250 Z-6.7403
 X63.0000 Z-7.0458
 X63.3750 Z-7.3647
 X64.8750 Z-8.6563
 X65.2500 Z-9.0241
 X67.1250 Z-11.0155
 X67.5000 Z-11.4840
 X69.0000 Z-13.4583
 X69.3750 Z-14.0271
 X70.5000 Z-15.8905
 X70.8750 Z-16.5506
 X72.0000 Z-18.9670
 X72.3750 Z-19.9663
 X73.1250 Z-22.1737
 X73.5000 Z-23.8281
 X73.6875 Z-24.6717
 X73.8750 Z-25.7282
 X74.1709 Z-28.4205
 X74.1724 Z-30.0000
 X100.0591
 X100.0605 Z-29.9984
 X103.3125 Z-25.8520
 X103.3594 Z-25.7924
 X103.3828 Z-25.7647
 X103.4062 Z-25.7390
 X103.4531 Z-25.6923
 X103.4766 Z-25.6710
 X103.5000 Z-25.6507
 X103.5938 Z-25.5786
 X103.6406 Z-25.5470
 X103.6875 Z-25.5178
 X103.7812 Z-25.4654
 X103.8281 Z-25.4418
 X103.8750 Z-25.4198
 X104.0625 Z-25.3454
 X104.1562 Z-25.3152
 X104.2500 Z-25.2891
 X104.4375 Z-25.2483
 X104.5312 Z-25.2332
 X104.6250 Z-25.2215
 X105.0000 Z-25.2062
 X112.8281
 X112.8750 Z-25.1775
 X113.0391 Z-25.0507
 X113.0625 Z-25.0331
 X113.2500 Z-24.9289
 X116.8125 Z-23.2410
 X116.9062 Z-23.1970
 X116.9531 Z-23.1772
 X117.0000 Z-23.1591
 X117.3750 Z-23.0566
 X121.1250 Z-22.2084
 X121.3125 Z-22.1683
 X121.5000 Z-22.1392
 X121.8750 Z-22.1105
 X122.2500 Z-22.1088
 X126.0000
 X126.1875 Z-22.1128
 X126.3750 Z-22.1255
 X126.7500 Z-22.1805
 X127.1250 Z-22.2649
 X130.6875 Z-23.0707
 X130.7812 Z-23.0926
 X130.8281 Z-23.1048
 X130.8750 Z-23.1180
 X131.2500 Z-23.2706
 X134.7891 Z-24.9475
 X134.8125 Z-24.9589
 X134.8594 Z-24.9837
 X134.9062 Z-25.0119
 X134.9531 Z-25.0447
 X134.9766 Z-25.0628
 X135.1619 Z-25.2060
 X135.1622 Z-25.2062
 X143.0625
 X143.1562 Z-25.2070
 X143.2500 Z-25.2110
 X143.4375 Z-25.2289
 X143.5312 Z-25.2429
 X143.6250 Z-25.2603
 X143.8125 Z-25.3060
 X143.9062 Z-25.3348
 X143.9531 Z-25.3508
 X144.0000 Z-25.3680
 X144.0938 Z-25.4060
 X144.1875 Z-25.4495
 X144.2812 Z-25.4995
 X144.3281 Z-25.5273
 X144.3516 Z-25.5420
 X144.3633 Z-25.5495
 X144.3750 Z-25.5573
 X144.4688 Z-25.6252
 X144.5156 Z-25.6641
 X144.5391 Z-25.6851
 X144.5625 Z-25.7072
 X144.7500 Z-25.9316
 X147.9375 Z-29.9959
 X148.1250 Z-30.0000
 X166.5000
 Y50.3993
 X147.5625
 X147.3750 Z-29.7726
 X146.2500 Z-28.3381
 X145.8750 Z-27.8605
 X145.5000 Z-27.3973
 X145.1250 Z-26.9547
 X144.5859 Z-26.3288
 X144.5742 Z-26.3154
 X144.5625 Z-26.3027
 X144.5156 Z-26.2567
 X144.4922 Z-26.2361
 X144.4688 Z-26.2169
 X144.4453 Z-26.1988
 X144.4336 Z-26.1902
 X144.4277 Z-26.1859
 X144.4219 Z-26.1818
 X144.3750 Z-26.1556
 X144.2812 Z-26.1098
 X144.1875 Z-26.0699
 X144.0938 Z-26.0350
 X144.0000 Z-26.0046
 X143.8125 Z-25.9560
 X143.7188 Z-25.9373
 X143.6250 Z-25.9220
 X143.2500 Z-25.8945
 X142.8750
 X135.4922
 X135.4688 Z-25.8772
 X135.0000 Z-25.5148
 X134.6250 Z-25.3036
 X131.1562 Z-23.6601
 X131.0625 Z-23.6175
 X130.9688 Z-23.5819
 X130.8750 Z-23.5519
 X130.5000 Z-23.4622
 X127.1250 Z-22.6988
 X126.7500 Z-22.6145
 X126.5625 Z-22.5816
 X126.3750 Z-22.5594
 X126.0000 Z-22.5428
 X122.2500
 X121.8750 Z-22.5445
 X121.6875 Z-22.5542
 X121.5000 Z-22.5731
 X121.1250 Z-22.6423
 X117.3750 Z-23.4905
 X117.1875 Z-23.5345
 X117.0938 Z-23.5613
 X117.0000 Z-23.5930
 X116.6250 Z-23.7638
 X113.2500 Z-25.3629
 X112.8750 Z-25.6114
 X112.5117 Z-25.8923
 X112.5000 Z-25.8945
 X104.8125
 X104.7188 Z-25.8948
 X104.6250 Z-25.8978
 X104.4375 Z-25.9138
 X104.3438 Z-25.9267
 X104.2500 Z-25.9431
 X104.0625 Z-25.9867
 X103.9688 Z-26.0142
 X103.9219 Z-26.0296
 X103.8750 Z-26.0461
 X103.7812 Z-26.0826
 X103.7344 Z-26.1028
 X103.7109 Z-26.1134
 X103.6875 Z-26.1244
 X103.6406 Z-26.1476
 X103.6172 Z-26.1598
 X103.6055 Z-26.1660
 X103.5938 Z-26.1724
 X103.5469 Z-26.2047
 X103.5234 Z-26.2231
 X103.5000 Z-26.2428
 X103.1250 Z-26.6644
 X102.7500 Z-27.1001
 X102.3750 Z-27.5494
 X102.0000 Z-28.0194
 X100.4473 Z-29.9992
 X100.4465 Z-30.0000
 X73.8750
 X73.6875 Z-27.5466
 X73.5000 Z-25.8407
 X73.1250 Z-23.8837
 X72.7969 Z-22.4075
 X72.7500 Z-22.2100
 X72.0000 Z-20.0026
 X71.6250 Z-18.9935
 X70.5000 Z-16.5772
 X70.1250 Z-15.9110
 X69.0000 Z-14.0476
 X68.6250 Z-13.4746
 X67.1250 Z-11.5002
 X66.7500 Z-11.0286
 X66.0000 Z-10.2321
 X65.6250 Z-9.8406
 X65.2500 Z-9.4663
 X64.8750 Z-9.1034
 X64.6875 Z-8.9221
 X64.5000 Z-8.7495
 X61.8750 Z-6.6913
 X61.5000 Z-6.4529
 X59.2500 Z-5.0294
 X58.8750 Z-4.8020
 X57.7500 Z-4.2364
 X57.3750 Z-4.0487
 X57.0000 Z-3.8751
 X56.6250 Z-3.7132
 X55.8750 Z-3.3896
 X55.5000 Z-3.2374
 X52.8750 Z-2.3641
 X52.5000 Z-2.2500
 X52.1250 Z-2.1510
 X51.7500 Z-2.0523
 X51.3750 Z-1.9639
 X49.8750 Z-1.6732
 X49.5000 Z-1.6118
 X48.3750 Z-1.4574
 X48.0000 Z-1.4074
 X47.6250 Z-1.3576
 X47.2500 Z-1.3079
 X46.8750 Z-1.2739
 X46.5000 Z-1.2484
 X46.1250 Z-1.2251
 X45.0000 Z-1.1571
 X44.6250 Z-1.1398
 X44.2500 Z-1.1396
 X43.8750 Z-1.1468
 X42.7500 Z-1.1694
 X42.3750 Z-1.1787
 X42.0000 Z-1.2036
 X41.6250 Z-1.2339
 X40.5000 Z-1.3446
 X40.1250 Z-1.3827
 X39.7500 Z-1.4330
 X39.0000 Z-1.5340
 X38.6250 Z-1.5927
 X38.2500 Z-1.6568
 X37.8750 Z-1.7217
 X37.5000 Z-1.7943
 X36.7500 Z-1.9397
 X36.3750 Z-2.0194
 X35.6250 Z-2.2168
 X35.2500 Z-2.3235
 X34.8750 Z-2.4473
 X32.6250 Z-3.1959
 X32.2500 Z-3.3357
 X31.1250 Z-3.8210
 X30.7500 Z-3.9887
 X30.3750 Z-4.1735
 X29.2500 Z-4.7391
 X28.8750 Z-4.9504
 X26.2500 Z-6.6111
 X25.8750 Z-6.8873
 X23.6250 Z-8.6515
 X23.2500 Z-8.9825
 X22.8750 Z-9.3452
 X22.5000 Z-9.7139
 X22.1250 Z-10.0997
 X21.7500 Z-10.4976
 X21.3750 Z-10.8959
 X21.0000 Z-11.3357
 X19.5000 Z-13.3101
 X19.1250 Z-13.8405
 X17.6250 Z-16.3251
 X17.2500 Z-17.1141
 X16.5000 Z-18.7250
 X16.1250 Z-19.6347
 X15.3750 Z-21.8421
 X15.0000 Z-23.3214
 X14.6250 Z-25.0085
 X14.2500 Z-28.1153
 X14.2156 Z-28.4285
 X14.2152 Z-30.0000
 X1.5000
 Y51.5914
 X14.2500
 X14.6250 Z-28.2277
 X14.9062 Z-25.6687
 X15.0000 Z-25.0641
 X15.3750 Z-23.3769
 X15.7500 Z-21.8785
 X16.5000 Z-19.6711
 X16.8750 Z-18.7516
 X17.9062 Z-16.5366
 X18.0000 Z-16.3455
 X19.1250 Z-14.4821
 X19.5000 Z-13.8628
 X19.8750 Z-13.3462
 X20.2500 Z-12.8915
 X21.6562 Z-11.2061
 X21.7500 Z-11.0989
 X24.0000 Z-8.9229
 X24.3750 Z-8.6031
 X26.6250 Z-6.8389
 X27.0000 Z-6.5721
 X28.8750 Z-5.3858
 X29.2500 Z-5.1605
 X29.6250 Z-4.9549
 X30.0000 Z-4.7695
 X33.3750 Z-3.3134
 X33.7500 Z-3.1787
 X34.1250 Z-3.0542
 X34.5000 Z-2.9446
 X37.5000 Z-2.1552
 X37.8750 Z-2.0659
 X38.2500 Z-1.9970
 X38.6250 Z-1.9453
 X39.7500 Z-1.7937
 X40.1250 Z-1.7436
 X40.5000 Z-1.7056
 X40.8750 Z-1.6689
 X41.2500 Z-1.6416
 X42.3750 Z-1.5641
 X42.7500 Z-1.5494
 X43.5000 Z-1.5343
 X43.8750 Z-1.5324
 X44.6250
 X45.0000 Z-1.5359
 X45.3750 Z-1.5573
 X45.7500 Z-1.5799
 X46.1250 Z-1.6039
 X47.2500 Z-1.6803
 X47.6250 Z-1.7136
 X48.0000 Z-1.7632
 X49.5000 Z-1.9626
 X49.8750 Z-2.0197
 X50.2500 Z-2.0924
 X50.6250 Z-2.1880
 X53.2500 Z-2.8788
 X53.6250 Z-2.9786
 X54.0000 Z-3.0955
 X54.3750 Z-3.2203
 X54.7500 Z-3.3674
 X58.1250 Z-4.8234
 X58.5000 Z-5.0227
 X58.8750 Z-5.2330
 X59.2500 Z-5.4649
 X61.1250 Z-6.6512
 X61.5000 Z-6.9369
 X63.7500 Z-8.7011
 X64.1250 Z-9.0437
 X66.0000 Z-10.8571
 X66.3750 Z-11.2435
 X67.8750 Z-13.0414
 X68.0625 Z-13.2691
 X68.2500 Z-13.5022
 X68.6250 Z-14.0681
 X69.7500 Z-15.9315
 X70.1250 Z-16.6037
 X71.2500 Z-19.0201
 X71.6250 Z-20.0390
 X72.2812 Z-21.9705
 X72.3750 Z-22.2522
 X72.7500 Z-23.9393
 X73.1250 Z-25.9531
 X73.3945 Z-28.4054
 X73.3975 Z-30.0000
 X100.9395
 X100.9453 Z-29.9943
 X103.5000 Z-27.0281
 X103.5469 Z-26.9766
 X103.5938 Z-26.9326
 X103.6406 Z-26.8943
 X103.6641 Z-26.8769
 X103.6875 Z-26.8604
 X103.7812 Z-26.8027
 X103.8281 Z-26.7779
 X103.8750 Z-26.7554
 X103.9688 Z-26.7160
 X104.0625 Z-26.6832
 X104.1562 Z-26.6560
 X104.2500 Z-26.6337
 X104.4375 Z-26.6021
 X104.6250 Z-26.5858
 X105.0000 Z-26.5828
 X112.1250
 X112.5000 Z-26.3353
 X113.0391 Z-25.9185
 X113.0625 Z-25.9009
 X113.2500 Z-25.7968
 X116.8125 Z-24.1088
 X116.9062 Z-24.0649
 X116.9531 Z-24.0450
 X117.0000 Z-24.0269
 X117.3750 Z-23.9244
 X121.1250 Z-23.0762
 X121.3125 Z-23.0361
 X121.5000 Z-23.0070
 X121.8750 Z-22.9784
 X122.2500 Z-22.9767
 X126.0000
 X126.1875 Z-22.9806
 X126.3750 Z-22.9934
 X126.7500 Z-23.0484
 X127.1250 Z-23.1327
 X130.6875 Z-23.9386
 X130.7812 Z-23.9604
 X130.8281 Z-23.9726
 X130.8750 Z-23.9858
 X131.2500 Z-24.1385
 X134.7891 Z-25.8153
 X134.8125 Z-25.8267
 X135.0000 Z-25.9487
 X135.8201 Z-26.5828
 X135.8203
 X143.2500
 X143.4375 Z-26.5896
 X143.5312 Z-26.5984
 X143.6250 Z-26.6108
 X143.7188 Z-26.6273
 X143.8125 Z-26.6480
 X143.9062 Z-26.6735
 X143.9531 Z-26.6883
 X143.9766 Z-26.6961
 X144.0000 Z-26.7044
 X144.0938 Z-26.7415
 X144.1406 Z-26.7627
 X144.1875 Z-26.7859
 X144.2344 Z-26.8116
 X144.2812 Z-26.8398
 X144.3281 Z-26.8713
 X144.3516 Z-26.8884
 X144.3750 Z-26.9065
 X144.7500 Z-27.3184
 X147.0593 Z-29.9997
 X147.0601 Z-30.0000
 X166.5000
 Y52.7836
 X146.3716
 X146.3708 Z-29.9995
 X144.3984 Z-27.7094
 X144.3867 Z-27.6959
 X144.3809 Z-27.6894
 X144.3750 Z-27.6830
 X144.3281 Z-27.6364
 X144.2812 Z-27.5962
 X144.2344 Z-27.5608
 X144.1875 Z-27.5292
 X144.0938 Z-27.4751
 X144.0469 Z-27.4518
 X144.0000 Z-27.4305
 X143.9062 Z-27.3933
 X143.8125 Z-27.3624
 X143.7188 Z-27.3368
 X143.6250 Z-27.3159
 X143.4375 Z-27.2869
 X143.2500 Z-27.2729
 X142.8750 Z-27.2711
 X136.1492
 X136.1484 Z-27.2705
 X135.0000 Z-26.3826
 X134.6250 Z-26.1715
 X131.1562 Z-24.5280
 X131.0625 Z-24.4853
 X130.9688 Z-24.4497
 X130.8750 Z-24.4197
 X130.5000 Z-24.3301
 X127.1250 Z-23.5666
 X126.7500 Z-23.4823
 X126.5625 Z-23.4494
 X126.3750 Z-23.4273
 X126.0000 Z-23.4106
 X122.2500
 X121.8750 Z-23.4123
 X121.6875 Z-23.4220
 X121.5000 Z-23.4409
 X121.1250 Z-23.5101
 X117.3750 Z-24.3583
 X117.1875 Z-24.4023
 X117.0938 Z-24.4292
 X117.0000 Z-24.4609
 X116.6250 Z-24.6316
 X113.2500 Z-26.2307
 X112.8750 Z-26.4793
 X111.8511 Z-27.2709
 X111.8503 Z-27.2711
 X105.0000
 X104.8125 Z-27.2713
 X104.7188 Z-27.2742
 X104.6250 Z-27.2806
 X104.4375 Z-27.3044
 X104.3438 Z-27.3224
 X104.2969 Z-27.3330
 X104.2500 Z-27.3447
 X104.1562 Z-27.3721
 X104.1094 Z-27.3878
 X104.0625 Z-27.4050
 X103.9688 Z-27.4445
 X103.9219 Z-27.4671
 X103.8984 Z-27.4793
 X103.8867 Z-27.4856
 X103.8750 Z-27.4920
 X103.7812 Z-27.5499
 X103.7344 Z-27.5839
 X103.7109 Z-27.6025
 X103.6875 Z-27.6224
 X103.5000 Z-27.8273
 X101.6294 Z-29.9992
 X101.6287 Z-30.0000
 X73.1250
 X72.7500 Z-26.0655
 X72.3750 Z-23.9949
 X72.0000 Z-22.3078
 X71.6250 Z-21.1791
 X71.2500 Z-20.0761
 X71.0625 Z-19.5343
 X70.8750 Z-19.0705
 X70.5000 Z-18.3232
 X69.7500 Z-16.8563
 X69.3750 Z-16.1818
 X67.8750 Z-13.9194
 X67.5000 Z-13.4169
 X65.6250 Z-11.1696
 X65.2500 Z-10.7974
 X63.3750 Z-8.9841
 X63.0000 Z-8.6527
 X61.1250 Z-7.1826
 X60.7500 Z-6.8886
 X60.5625 Z-6.7460
 X60.3750 Z-6.6251
 X60.0000 Z-6.4199
 X57.3750 Z-4.9947
 X57.0000 Z-4.8012
 X55.1250 Z-3.9923
 X54.7500 Z-3.8375
 X54.3750 Z-3.7065
 X53.2500 Z-3.3227
 X52.8750 Z-3.2119
 X51.3750 Z-2.8172
 X51.0000 Z-2.7197
 X50.6250 Z-2.6439
 X48.3750 Z-2.2342
 X48.0000 Z-2.1664
 X47.6250 Z-2.1217
 X46.5000 Z-2.0170
 X46.1250 Z-1.9849
 X45.7500 Z-1.9594
 X45.3750 Z-1.9348
 X45.0000 Z-1.9255
 X43.1250
 X42.7500 Z-1.9294
 X42.3750 Z-1.9504
 X42.0000 Z-1.9762
 X41.6250 Z-2.0053
 X40.5000 Z-2.1100
 X40.1250 Z-2.1478
 X39.7500 Z-2.2114
 X37.5000 Z-2.6211
 X37.1250 Z-2.6914
 X36.7500 Z-2.7843
 X35.2500 Z-3.1790
 X34.8750 Z-3.2800
 X33.7500 Z-3.6639
 X33.3750 Z-3.7920
 X33.0000 Z-3.9383
 X31.1250 Z-4.7472
 X30.7500 Z-4.9269
 X28.1250 Z-6.3520
 X27.7500 Z-6.5556
 X27.6562 Z-6.6075
 X27.5625 Z-6.6609
 X27.3750 Z-6.7927
 X27.0000 Z-7.0846
 X25.1250 Z-8.5547
 X24.7500 Z-8.8632
 X22.5000 Z-11.0392
 X22.1250 Z-11.4692
 X20.4375 Z-13.4918
 X20.2500 Z-13.7309
 X18.7500 Z-15.9933
 X18.3750 Z-16.6119
 X17.6250 Z-18.0787
 X17.2500 Z-18.8176
 X16.8750 Z-19.7135
 X16.5000 Z-20.8112
 X16.1250 Z-21.9149
 X15.7500 Z-23.4325
 X15.3750 Z-25.1197
 X15.1875 Z-26.6342
 X14.9912 Z-28.4201
 X14.9897 Z-30.0000
 X1.5000
 Y53.9757
 X15.3750
 X15.7500 Z-26.1429
 X16.1250 Z-24.1840
 X16.5000 Z-22.6477
 X16.8750 Z-21.5001
 X17.6250 Z-19.4901
 X18.0000 Z-18.6915
 X19.1250 Z-16.4912
 X19.5000 Z-15.9002
 X20.9062 Z-13.7792
 X21.0000 Z-13.6425
 X22.8750 Z-11.3953
 X23.2500 Z-10.9795
 X25.5000 Z-8.8035
 X25.8750 Z-8.5147
 X26.2500 Z-8.2559
 X28.5000 Z-6.7421
 X28.8750 Z-6.5276
 X31.8750 Z-4.8989
 X32.2500 Z-4.7366
 X32.6250 Z-4.6077
 X36.1875 Z-3.3921
 X36.3750 Z-3.3321
 X36.7500 Z-3.2453
 X39.3750 Z-2.7673
 X39.7500 Z-2.7043
 X40.1250 Z-2.6670
 X42.3750 Z-2.4576
 X42.7500 Z-2.4353
 X43.1250
 X45.0000
 X45.3750 Z-2.4385
 X45.7500 Z-2.4692
 X48.0000 Z-2.6786
 X48.3750 Z-2.7225
 X48.7500 Z-2.7900
 X51.3750 Z-3.2680
 X51.7500 Z-3.3710
 X52.1250 Z-3.4987
 X55.5000 Z-4.6503
 X55.6875 Z-4.7144
 X55.7812 Z-4.7480
 X55.8750 Z-4.7834
 X56.2500 Z-4.9667
 X59.2500 Z-6.5954
 X59.6250 Z-6.8262
 X61.8750 Z-8.3400
 X62.2500 Z-8.6070
 X62.6250 Z-8.9244
 X64.8750 Z-11.1004
 X65.2500 Z-11.5451
 X66.7500 Z-13.3429
 X67.1250 Z-13.8263
 X68.6250 Z-16.0887
 X69.0000 Z-16.7357
 X70.1250 Z-18.9360
 X70.5000 Z-19.8251
 X71.2500 Z-21.8351
 X71.6250 Z-23.1598
 X72.0000 Z-24.6961
 X72.3750 Z-27.1785
 X72.5259 Z-28.4285
 X72.5266 Z-30.0000
 X102.3164
 X102.3281 Z-29.9871
 X103.6875 Z-28.4088
 X103.7344 Z-28.3567
 X103.7578 Z-28.3336
 X103.7812 Z-28.3122
 X103.8281 Z-28.2736
 X103.8516 Z-28.2560
 X103.8750 Z-28.2394
 X103.9688 Z-28.1813
 X104.0156 Z-28.1563
 X104.0625 Z-28.1336
 X104.1562 Z-28.0939
 X104.2031 Z-28.0767
 X104.2500 Z-28.0609
 X104.3438 Z-28.0335
 X104.4375 Z-28.0110
 X104.5312 Z-27.9930
 X104.6250 Z-27.9791
 X105.0000 Z-27.9594
 X111.5156
 X111.5625 Z-27.9280
 X113.0391 Z-26.7863
 X113.0625 Z-26.7688
 X113.2500 Z-26.6646
 X116.8125 Z-24.9767
 X116.9062 Z-24.9327
 X116.9531 Z-24.9128
 X117.0000 Z-24.8948
 X117.3750 Z-24.7922
 X121.1250 Z-23.9440
 X121.3125 Z-23.9039
 X121.5000 Z-23.8748
 X121.8750 Z-23.8462
 X122.2500 Z-23.8445
 X126.0000
 X126.1875 Z-23.8485
 X126.3750 Z-23.8612
 X126.7500 Z-23.9162
 X127.1250 Z-24.0006
 X130.6875 Z-24.8064
 X130.7812 Z-24.8282
 X130.8281 Z-24.8404
 X130.8750 Z-24.8536
 X131.2500 Z-25.0063
 X134.7891 Z-26.6831
 X134.8125 Z-26.6945
 X135.0000 Z-26.8165
 X136.4766 Z-27.9582
 X136.5000 Z-27.9594
 X142.8750
 X143.0625
 X143.1562 Z-27.9612
 X143.2500 Z-27.9665
 X143.4375 Z-27.9880
 X143.5312 Z-28.0046
 X143.5781 Z-28.0145
 X143.6250 Z-28.0255
 X143.7188 Z-28.0512
 X143.8125 Z-28.0822
 X143.9062 Z-28.1195
 X143.9531 Z-28.1409
 X143.9766 Z-28.1523
 X143.9883 Z-28.1583
 X144.0000 Z-28.1643
 X144.0938 Z-28.2186
 X144.1406 Z-28.2503
 X144.1641 Z-28.2676
 X144.1875 Z-28.2859
 X144.3750 Z-28.4813
 X145.6824 Z-29.9993
 X145.6831 Z-30.0000
 X166.5000
 Y55.1679
 X144.9961
 X144.9844 Z-29.9880
 X144.2109 Z-29.0900
 X144.1992 Z-29.0764
 X144.1875 Z-29.0633
 X144.1406 Z-29.0162
 X144.0938 Z-28.9756
 X144.0469 Z-28.9399
 X144.0234 Z-28.9235
 X144.0000 Z-28.9081
 X143.9062 Z-28.8536
 X143.8594 Z-28.8300
 X143.8125 Z-28.8086
 X143.7188 Z-28.7712
 X143.6719 Z-28.7549
 X143.6250 Z-28.7400
 X143.4375 Z-28.6932
 X143.3438 Z-28.6765
 X143.2500 Z-28.6638
 X142.8750 Z-28.6477
 X136.8076
 X136.8047 Z-28.6458
 X135.0000 Z-27.2504
 X134.6250 Z-27.0393
 X131.1562 Z-25.3958
 X131.0625 Z-25.3532
 X130.9688 Z-25.3175
 X130.8750 Z-25.2875
 X130.5000 Z-25.1979
 X127.1250 Z-24.4345
 X126.7500 Z-24.3501
 X126.5625 Z-24.3172
 X126.3750 Z-24.2951
 X126.0000 Z-24.2784
 X122.2500
 X121.8750 Z-24.2801
 X121.6875 Z-24.2899
 X121.5000 Z-24.3087
 X121.1250 Z-24.3779
 X117.3750 Z-25.2262
 X117.1875 Z-25.2702
 X117.0938 Z-25.2970
 X117.0000 Z-25.3287
 X116.6250 Z-25.4994
 X113.2500 Z-27.0985
 X112.8750 Z-27.3471
 X111.1934 Z-28.6473
 X111.1875 Z-28.6477
 X105.3750
 X105.0000 Z-28.6480
 X104.8125 Z-28.6575
 X104.7188 Z-28.6676
 X104.6719 Z-28.6741
 X104.6250 Z-28.6816
 X104.5312 Z-28.6997
 X104.4375 Z-28.7223
 X104.3438 Z-28.7498
 X104.2969 Z-28.7656
 X104.2734 Z-28.7740
 X104.2500 Z-28.7829
 X104.1562 Z-28.8227
 X104.1094 Z-28.8455
 X104.0859 Z-28.8577
 X104.0625 Z-28.8705
 X104.0156 Z-28.8982
 X103.9688 Z-28.9289
 X103.9219 Z-28.9632
 X103.8984 Z-28.9820
 X103.8750 Z-29.0020
 X103.5000 Z-29.4256
 X103.0056 Z-29.9996
 X103.0052 Z-30.0000
 X72.0000
 X71.6250 Z-26.6673
 X71.2500 Z-24.4433
 X70.8750 Z-22.9070
 X70.5000 Z-21.6698
 X69.7500 Z-19.6597
 X69.3750 Z-18.8153
 X68.2500 Z-16.6150
 X67.8750 Z-15.9957
 X66.3750 Z-13.7333
 X66.0000 Z-13.2689
 X64.3125 Z-11.2464
 X64.1250 Z-11.0407
 X63.7500 Z-10.6896
 X63.3750 Z-10.3714
 X61.5000 Z-8.8153
 X61.1250 Z-8.5576
 X58.5000 Z-6.7915
 X58.1250 Z-6.5674
 X57.3750 Z-6.1603
 X57.0000 Z-5.9598
 X56.6250 Z-5.7890
 X54.7500 Z-4.9839
 X54.3750 Z-4.8264
 X52.5000 Z-4.1866
 X52.1250 Z-4.0768
 X51.7500 Z-3.9883
 X48.8438 Z-3.3020
 X48.7500 Z-3.2812
 X48.3750 Z-3.2356
 X45.7500 Z-2.9913
 X45.3750 Z-2.9690
 X45.0000
 X42.7500
 X42.3750 Z-2.9799
 X42.0000 Z-3.0145
 X39.5625 Z-3.2414
 X39.4688 Z-3.2502
 X39.3750 Z-3.2608
 X39.0000 Z-3.3389
 X36.0000 Z-4.0473
 X35.6250 Z-4.1455
 X35.2500 Z-4.2719
 X33.7500 Z-4.7837
 X33.3750 Z-4.9302
 X31.5000 Z-5.7354
 X31.1250 Z-5.8992
 X30.7500 Z-6.0924
 X30.0000 Z-6.4996
 X29.6250 Z-6.7074
 X26.6250 Z-8.7258
 X26.2500 Z-9.0228
 X24.7500 Z-10.2676
 X24.3750 Z-10.5804
 X24.0000 Z-10.9202
 X23.6250 Z-11.3213
 X21.7500 Z-13.5686
 X21.3750 Z-14.1103
 X19.8750 Z-16.3727
 X19.5000 Z-17.1039
 X18.5625 Z-18.9375
 X18.3750 Z-19.3247
 X17.4375 Z-21.8373
 X17.2500 Z-22.3949
 X16.6875 Z-24.6994
 X16.5000 Z-25.6316
 X16.1631 Z-28.4230
 X16.1616 Z-30.0000
 X1.5000
 Y56.3601
 X16.5000
 X16.8750 Z-28.2273
 X17.2031 Z-25.5088
 X17.2500 Z-25.2147
 X17.9062 Z-22.5262
 X18.0000 Z-22.1744
 X19.0312 Z-19.4106
 X19.1250 Z-19.1836
 X20.4375 Z-16.6165
 X20.6250 Z-16.2797
 X22.3125 Z-13.7345
 X22.5000 Z-13.5004
 X22.8750 Z-13.0960
 X24.7500 Z-11.1676
 X25.1250 Z-10.8473
 X27.3750 Z-8.9800
 X27.7500 Z-8.6911
 X29.6250 Z-7.4296
 X30.0000 Z-7.1858
 X30.3750 Z-6.9798
 X30.7500 Z-6.7803
 X31.1250 Z-6.6010
 X34.5000 Z-5.1517
 X34.8750 Z-4.9911
 X35.0625 Z-4.9199
 X35.2500 Z-4.8610
 X35.6250 Z-4.7681
 X38.6250 Z-4.0597
 X39.0000 Z-3.9799
 X39.3750 Z-3.9326
 X42.1875 Z-3.5931
 X42.3750 Z-3.5759
 X42.7500 Z-3.5718
 X45.3750
 X45.7500 Z-3.5859
 X46.1250 Z-3.6308
 X48.7500 Z-3.9477
 X49.1250 Z-4.0024
 X49.5000 Z-4.0893
 X52.5000 Z-4.7976
 X52.6875 Z-4.8424
 X52.8750 Z-4.8990
 X53.2500 Z-5.0444
 X57.0000 Z-6.6547
 X57.3750 Z-6.8468
 X57.7500 Z-7.0464
 X58.1250 Z-7.2631
 X58.5000 Z-7.5137
 X60.3750 Z-8.7752
 X60.7500 Z-9.0837
 X63.0000 Z-10.9510
 X63.3750 Z-11.2961
 X64.8750 Z-12.8389
 X65.2500 Z-13.2259
 X65.4375 Z-13.4300
 X65.5312 Z-13.5362
 X65.5781 Z-13.5903
 X65.6250 Z-13.6451
 X66.0000 Z-14.2058
 X67.3125 Z-16.1854
 X67.5000 Z-16.4943
 X68.6250 Z-18.6946
 X69.0000 Z-19.4944
 X69.7500 Z-21.5044
 X70.1250 Z-22.6542
 X70.5000 Z-24.1905
 X70.8750 Z-26.1561
 X71.1489 Z-28.4256
 X71.1497 Z-30.0000
 X103.8750
 X104.0625 Z-29.8165
 X104.2500 Z-29.6297
 X104.2734 Z-29.6070
 X104.2969 Z-29.5864
 X104.3438 Z-29.5504
 X104.3906 Z-29.5199
 X104.4141 Z-29.5063
 X104.4375 Z-29.4936
 X104.5312 Z-29.4503
 X104.5781 Z-29.4325
 X104.6250 Z-29.4168
