;PYCAM-META-DATA: Filename: /home/surya/Desktop/SampleScene3.stl
;PYCAM-META-DATA: Timestamp: 2016-03-12 01:47:17.353420
;PYCAM-META-DATA: Version: 0.5.1
;Estimated machine time: 51 minutes
G40 (disable tool radius compensation)
G49 (disable tool length compensation)
G80 (cancel modal motion)
G54 (select coordinate system 1)
G90 (disable incremental moves)
G21 (metric)
G61 (exact path mode)
F200.00000
S1000.00000
;PYCAM_TOOLPATH_SETTINGS: START
;[Bounds]
;maxz = -0.041114
;maxx = 166.5
;maxy = 130.2742448
;minx = 1.5
;miny = 1.5205232
;minz = -30.0
;
;[Tool]
;torus_radius = 0.25
;speed = 1000.0
;shape = CylindricalCutter
;tool_radius = 1.5
;feedrate = 200.0
;
;[Process]
;engrave_offset = 0.0
;step_down = 2.0
;generator = PushCutter
;postprocessor = ContourCutter
;milling_style = ignore
;material_allowance = 0.5
;pocketing_type = none
;path_direction = x
;
;PYCAM_TOOLPATH_SETTINGS: END
T1 M6
G0 Z5.0000
M3 (start spindle)
G04 P3 (wait for 3 seconds)
 X43.7059 Y37.4518
G1 Z-0.0411
 X40.7298 Y40.4461
 X41.7138 Y43.4403
 X46.1201
 X47.5394 Y40.4461
 X45.2457 Y37.4518
 X43.7059
G0 Z5.0000
 X38.6615 Y52.4232
G1 Z-2.0384
 X34.5576 Y49.4289
 X32.4824 Y46.4346
 X31.4215 Y43.4403
 X31.1718 Y40.4461
 X31.6334 Y37.4518
 X32.8851 Y34.4575
 X35.1856 Y31.4632
 X40.4505 Y28.4690
 X47.5495
 X52.8144 Y31.4632
 X55.1149 Y34.4575
 X56.3666 Y37.4518
 X56.8282 Y40.4461
 X56.5785 Y43.4403
 X55.5176 Y46.4346
 X53.4424 Y49.4289
 X49.3385 Y52.4232
 X38.6615
G0 Z5.0000
 X36.9470 Y25.4747
G1 Z-4.0356
 X32.4051 Y28.4690
 X29.9143 Y31.4632
 X28.3269 Y34.4575
 X27.3944 Y37.4518
 X27.0795 Y40.4461
 X27.3209 Y43.4403
 X28.1003 Y46.4346
 X29.5117 Y49.4289
 X31.7771 Y52.4232
 X35.4400 Y55.4174
 X52.5600
 X56.2229 Y52.4232
 X58.4883 Y49.4289
 X59.8997 Y46.4346
 X60.6791 Y43.4403
 X60.9205 Y40.4461
 X60.6056 Y37.4518
 X59.6731 Y34.4575
 X58.0857 Y31.4632
 X55.5949 Y28.4690
 X51.0530 Y25.4747
 X36.9470
G0 Z5.0000
 X34.6848 Y58.4117
G1 Z-6.0329
 X30.4115 Y55.4174
 X27.7565 Y52.4232
 X26.0263 Y49.4289
 X24.9266 Y46.4346
 X24.2858 Y43.4403
 X24.0444 Y40.4461
 X24.3591 Y37.4518
 X25.1532 Y34.4575
 X26.4290 Y31.4632
 X28.3434 Y28.4690
 X31.2598 Y25.4747
 X36.2512 Y22.4804
 X51.7488
 X56.7402 Y25.4747
 X59.6566 Y28.4690
 X61.5710 Y31.4632
 X62.8468 Y34.4575
 X63.6409 Y37.4518
 X63.9556 Y40.4461
 X63.7142 Y43.4403
 X63.0734 Y46.4346
 X61.9737 Y49.4289
 X60.2435 Y52.4232
 X57.5885 Y55.4174
 X53.3152 Y58.4117
 X34.6848
G0 Z5.0000
 X37.1906 Y19.4862
G1 Z-8.0302
 X31.3344 Y22.4804
 X27.8388 Y25.4747
 X25.4112 Y28.4690
 X23.6825 Y31.4632
 X22.6522 Y34.4575
 X21.9675 Y37.4518
 X21.6528 Y40.4461
 X21.8942 Y43.4403
 X22.4256 Y46.4346
 X23.3985 Y49.4289
 X25.0086 Y52.4232
 X27.2108 Y55.4174
 X30.3745 Y58.4117
 X35.5621 Y61.4060
 X52.4379
 X57.6255 Y58.4117
 X60.7892 Y55.4174
 X62.9914 Y52.4232
 X64.6015 Y49.4289
 X65.5744 Y46.4346
 X66.1058 Y43.4403
 X66.3472 Y40.4461
 X66.0325 Y37.4518
 X65.3478 Y34.4575
 X64.3175 Y31.4632
 X62.5888 Y28.4690
 X60.1612 Y25.4747
 X56.6656 Y22.4804
 X50.8094 Y19.4862
 X37.1906
G0 Z5.0000
 X52.0176 Y106.3201
G1 Z-10.0274
 X115.9824
 X52.0176
G0 Z5.0000
 X38.6213 Y64.4002
G1 Z-10.0274
 X31.1839 Y61.4060
 X27.2874 Y58.4117
 X24.5913 Y55.4174
 X22.7607 Y52.4232
 X21.3517 Y49.4289
 X20.3788 Y46.4346
 X19.9368 Y43.4403
 X19.6954 Y40.4461
 X20.0101 Y37.4518
 X20.6054 Y34.4575
 X21.5783 Y31.4632
 X23.1634 Y28.4690
 X25.2193 Y25.4747
 X28.0225 Y22.4804
 X32.3425 Y19.4862
 X55.6575
 X59.9775 Y22.4804
 X62.7807 Y25.4747
 X64.8366 Y28.4690
 X66.4217 Y31.4632
 X67.3946 Y34.4575
 X67.9899 Y37.4518
 X68.3046 Y40.4461
 X68.0632 Y43.4403
 X67.6212 Y46.4346
 X66.6483 Y49.4289
 X65.2393 Y52.4232
 X63.4087 Y55.4174
 X60.7126 Y58.4117
 X56.8161 Y61.4060
 X49.3787 Y64.4002
 X38.6213
G0 Z5.0000
 X35.0550 Y16.4919
G1 Z-12.0247
 X29.3670 Y19.4862
 X25.7191 Y22.4804
 X23.0297 Y25.4747
 X21.2788 Y28.4690
 X19.8621 Y31.4632
 X18.8893 Y34.4575
 X18.3690 Y37.4518
 X18.0543 Y40.4461
 X18.2957 Y43.4403
 X18.6627 Y46.4346
 X19.6355 Y49.4289
 X20.8761 Y52.4232
 X22.6049 Y55.4174
 X25.0911 Y58.4117
 X28.4072 Y61.4060
 X33.4886 Y64.4002
 X54.5114
 X59.5928 Y61.4060
 X62.9089 Y58.4117
 X65.3951 Y55.4174
 X67.1239 Y52.4232
 X68.3645 Y49.4289
 X69.3373 Y46.4346
 X69.7043 Y43.4403
 X69.9457 Y40.4461
 X69.6310 Y37.4518
 X69.1107 Y34.4575
 X68.1379 Y31.4632
 X66.7212 Y28.4690
 X64.9703 Y25.4747
 X62.2809 Y22.4804
 X58.6329 Y19.4862
 X52.9450 Y16.4919
 X35.0550
G0 Z5.0000
 X52.0000 Y100.3315
G1 Z-12.0247
 Y109.3143
 X52.0657 Y112.3086
 X115.9343
 X116.0000 Y109.3143
 Y100.3315
 X52.0000
G0 Z5.0000
 X52.7465 Y115.3029
G1 Z-14.0219
 X52.0000 Y112.3086
 Y100.3315
 X52.0656 Y97.3372
 X115.9344
 X116.0000 Y100.3315
 Y112.3086
 X115.2535 Y115.3029
 X52.7465
G0 Z5.0000
 X38.1747 Y67.3945
G1 Z-14.0219
 X30.1647 Y64.4002
 X26.0431 Y61.4060
 X23.2213 Y58.4117
 X21.0003 Y55.4174
 X19.2716 Y52.4232
 X18.1745 Y49.4289
 X17.2194 Y46.4346
 X16.8984 Y43.4403
 X16.6570 Y40.4461
 X16.9717 Y37.4518
 X17.4282 Y34.4575
 X18.4011 Y31.4632
 X19.6742 Y28.4690
 X21.4030 Y25.4747
 X23.8492 Y22.4804
 X27.0030 Y19.4862
 X31.6386 Y16.4919
 X56.3614
 X60.9970 Y19.4862
 X64.1508 Y22.4804
 X66.5970 Y25.4747
 X68.3258 Y28.4690
 X69.5989 Y31.4632
 X70.5718 Y34.4575
 X71.0283 Y37.4518
 X71.3430 Y40.4461
 X71.1016 Y43.4403
 X70.7806 Y46.4346
 X69.8255 Y49.4289
 X68.7284 Y52.4232
 X66.9997 Y55.4174
 X64.7787 Y58.4117
 X61.9569 Y61.4060
 X57.8353 Y64.4002
 X49.8253 Y67.3945
 X38.1747
G0 Z5.0000
 X35.9399 Y13.4976
G1 Z-16.0192
 X29.1732 Y16.4919
 X25.0524 Y19.4862
 X22.3061 Y22.4804
 X20.0788 Y25.4747
 X18.3500 Y28.4690
 X17.1953 Y31.4632
 X16.2224 Y34.4575
 X15.8186 Y37.4518
 X15.5039 Y40.4461
 X15.7453 Y43.4403
 X16.0600 Y46.4346
 X16.9687 Y49.4289
 X17.9566 Y52.4232
 X19.6761 Y55.4174
 X21.6781 Y58.4117
 X24.3742 Y61.4060
 X28.2133 Y64.4002
 X33.9779 Y67.3945
 X54.0221
 X59.7867 Y64.4002
 X63.6258 Y61.4060
 X66.3219 Y58.4117
 X68.3239 Y55.4174
 X70.0434 Y52.4232
 X71.0313 Y49.4289
 X71.9400 Y46.4346
 X72.2547 Y43.4403
 X72.4961 Y40.4461
 X72.1814 Y37.4518
 X71.7776 Y34.4575
 X70.8047 Y31.4632
 X69.6500 Y28.4690
 X67.9212 Y25.4747
 X65.6939 Y22.4804
 X62.9476 Y19.4862
 X58.8268 Y16.4919
 X52.0601 Y13.4976
 X35.9399
G0 Z5.0000
 X121.8112 Y25.4747
G1 Z-16.0192
 X114.6963 Y28.4690
 X112.0456 Y31.4632
 X135.9544
 X133.3037 Y28.4690
 X126.1888 Y25.4747
 X121.8112
G0 Z5.0000
 X52.0000 Y97.3372
G1 Z-16.0192
 Y112.3086
 X52.0392 Y115.3029
 X115.9608
 X116.0000 Y112.3086
 Y97.3372
 X52.0000
G0 Z5.0000
 Y115.3029
G1 Z-18.0164
 Y97.3372
 X52.9562 Y94.3430
 X115.0438
 X116.0000 Y97.3372
 Y115.3029
 X52.0000
G0 Z5.0000
 X31.6870 Y67.3945
G1 Z-18.0164
 X26.6280 Y64.4002
 X23.1203 Y61.4060
 X20.4242 Y58.4117
 X18.6002 Y55.4174
 X16.9618 Y52.4232
 X15.9889 Y49.4289
 X15.1231 Y46.4346
 X14.8084 Y43.4403
 X14.5670 Y40.4461
 X14.8817 Y37.4518
 X15.2426 Y34.4575
 X16.2155 Y31.4632
 X17.2741 Y28.4690
 X19.0028 Y25.4747
 X21.0522 Y22.4804
 X23.7482 Y19.4862
 X27.5879 Y16.4919
 X33.2534 Y13.4976
 X54.7466
 X60.4121 Y16.4919
 X64.2518 Y19.4862
 X66.9478 Y22.4804
 X68.9972 Y25.4747
 X70.7259 Y28.4690
 X71.7845 Y31.4632
 X72.7574 Y34.4575
 X73.1183 Y37.4518
 X73.4330 Y40.4461
 X73.1916 Y43.4403
 X72.8769 Y46.4346
 X72.0111 Y49.4289
 X71.0382 Y52.4232
 X69.3998 Y55.4174
 X67.5758 Y58.4117
 X64.8797 Y61.4060
 X61.3720 Y64.4002
 X56.3130 Y67.3945
 X31.6870
G0 Z5.0000
 X119.7946 Y37.4518
G1 Z-18.0164
 X108.2577 Y34.4575
 X109.8384 Y31.4632
 X112.3165 Y28.4690
 X116.7852 Y25.4747
 X131.2148
 X135.6835 Y28.4690
 X138.1616 Y31.4632
 X139.7423 Y34.4575
 X128.2054 Y37.4518
 X119.7946
G0 Z5.0000
 X31.3040 Y13.4976
G1 Z-20.0137
 X26.2390 Y16.4919
 X22.6813 Y19.4862
 X19.9853 Y22.4804
 X18.0873 Y25.4747
 X16.3687 Y28.4690
 X15.3818 Y31.4632
 X14.4158 Y34.4575
 X14.0845 Y37.4518
 X13.7697 Y40.4461
 X14.0112 Y43.4403
 X14.3259 Y46.4346
 X15.1552 Y49.4289
 X16.1281 Y52.4232
 X17.6846 Y55.4174
 X19.4134 Y58.4117
 X22.0534 Y61.4060
 X25.2791 Y64.4002
 X29.7376 Y67.3945
 X38.4506 Y70.3888
 X49.5494
 X58.2623 Y67.3945
 X62.7209 Y64.4002
 X65.9466 Y61.4060
 X68.5866 Y58.4117
 X70.3154 Y55.4174
 X71.8719 Y52.4232
 X72.8448 Y49.4289
 X73.6741 Y46.4346
 X73.9888 Y43.4403
 X74.2303 Y40.4461
 X73.9155 Y37.4518
 X73.5842 Y34.4575
 X72.6182 Y31.4632
 X71.6313 Y28.4690
 X69.9127 Y25.4747
 X68.0147 Y22.4804
 X65.3187 Y19.4862
 X61.7610 Y16.4919
 X56.6960 Y13.4976
 X31.3040
G0 Z5.0000
 X121.5677 Y22.4804
G1 Z-20.0137
 X113.7486 Y25.4747
 X110.3119 Y28.4690
 X108.1182 Y31.4632
 X106.6913 Y34.4575
 X105.8301 Y37.4518
 X106.7096 Y40.4461
 X120.6010 Y43.4403
 X127.3991
 X141.2904 Y40.4461
 X142.1699 Y37.4518
 X141.3087 Y34.4575
 X139.8818 Y31.4632
 X137.6881 Y28.4690
 X134.2514 Y25.4747
 X126.4323 Y22.4804
 X121.5677
G0 Z5.0000
 X12.0000 Y91.3487
G1 Z-20.0137
 Y118.2972
 X12.0626 Y121.2914
 X155.9374
 X156.0000 Y118.2972
 Y91.3487
 X12.0000
G0 Z5.0000
 X12.0626 Y121.2914
G1 Z-22.0110
 X12.0000 Y118.2972
 Y91.3487
 X156.0000
 Y118.2972
 X155.9374 Y121.2914
 X12.0626
G0 Z5.0000
 X35.3465 Y70.3888
G1 Z-22.0110
 X28.3024 Y67.3945
 X24.1811 Y64.4002
 X21.1849 Y61.4060
 X18.6681 Y58.4117
 X16.9394 Y55.4174
 X15.4495 Y52.4232
 X14.4766 Y49.4289
 X13.6769 Y46.4346
 X13.3622 Y43.4403
 X13.1208 Y40.4461
 X13.4355 Y37.4518
 X13.7538 Y34.4575
 X14.7032 Y31.4632
 X15.6761 Y28.4690
 X17.3420 Y25.4747
 X19.1169 Y22.4804
 X21.8129 Y19.4862
 X25.1410 Y16.4919
 X29.7173 Y13.4976
 X38.6275 Y10.5033
 X49.3725
 X58.2827 Y13.4976
 X62.8590 Y16.4919
 X66.1871 Y19.4862
 X68.8831 Y22.4804
 X70.6580 Y25.4747
 X72.3239 Y28.4690
 X73.2968 Y31.4632
 X74.2462 Y34.4575
 X74.5645 Y37.4518
 X74.8792 Y40.4461
 X74.6378 Y43.4403
 X74.3231 Y46.4346
 X73.5234 Y49.4289
 X72.5505 Y52.4232
 X71.0606 Y55.4174
 X69.3319 Y58.4117
 X66.8151 Y61.4060
 X63.8189 Y64.4002
 X59.6976 Y67.3945
 X52.6535 Y70.3888
 X35.3465
G0 Z5.0000
 X121.8007 Y49.4289
G1 Z-22.0110
 X116.6753 Y46.4346
 X104.5896 Y43.4403
 X104.0174 Y40.4461
 X104.3321 Y37.4518
 X105.1249 Y34.4575
 X106.3980 Y31.4632
 X108.3072 Y28.4690
 X111.2141 Y25.4747
 X116.1851 Y22.4804
 X131.8149
 X136.7859 Y25.4747
 X139.6928 Y28.4690
 X141.6020 Y31.4632
 X142.8751 Y34.4575
 X143.6679 Y37.4518
 X143.9826 Y40.4461
 X143.4104 Y43.4403
 X131.3247 Y46.4346
 X126.1993 Y49.4289
 X121.8007
G0 Z5.0000
 X36.4761 Y10.5033
G1 Z-24.0082
 X28.6176 Y13.4976
 X24.3800 Y16.4919
 X21.2110 Y19.4862
 X18.5557 Y22.4804
 X16.8256 Y25.4747
 X15.2058 Y28.4690
 X14.2329 Y31.4632
 X13.3006 Y34.4575
 X12.9857 Y37.4518
 X12.6710 Y40.4461
 X12.9125 Y43.4403
 X13.2272 Y46.4346
 X14.0063 Y49.4289
 X14.9792 Y52.4232
 X16.4229 Y55.4174
 X18.1517 Y58.4117
 X20.5830 Y61.4060
 X23.4201 Y64.4002
 X27.5414 Y67.3945
 X33.7764 Y70.3888
 X54.2236
 X60.4586 Y67.3945
 X64.5799 Y64.4002
 X67.4170 Y61.4060
 X69.8483 Y58.4117
 X71.5771 Y55.4174
 X73.0208 Y52.4232
 X73.9937 Y49.4289
 X74.7728 Y46.4346
 X75.0875 Y43.4403
 X75.3290 Y40.4461
 X75.0142 Y37.4518
 X74.6994 Y34.4575
 X73.7671 Y31.4632
 X72.7942 Y28.4690
 X71.1744 Y25.4747
 X69.4443 Y22.4804
 X66.7890 Y19.4862
 X63.6200 Y16.4919
 X59.3824 Y13.4976
 X51.5239 Y10.5033
 X36.4761
G0 Z5.0000
 X121.3241 Y19.4862
G1 Z-24.0082
 X112.8008 Y22.4804
 X108.9986 Y25.4747
 X106.4065 Y28.4690
 X104.6778 Y31.4632
 X103.5585 Y34.4575
 X102.8342 Y37.4518
 X102.5195 Y40.4461
 X102.7609 Y43.4403
 X103.3422 Y46.4346
 X114.7331 Y49.4289
 X117.3956 Y52.4232
 X130.6044
 X133.2669 Y49.4289
 X144.6578 Y46.4346
 X145.2391 Y43.4403
 X145.4805 Y40.4461
 X145.1658 Y37.4518
 X144.4415 Y34.4575
 X143.3222 Y31.4632
 X141.5935 Y28.4690
 X139.0014 Y25.4747
 X135.1992 Y22.4804
 X126.6759 Y19.4862
 X121.3241
G0 Z5.0000
 X12.0000 Y91.3487
G1 Z-24.0082
 Y118.2972
 X12.0626 Y121.2914
 X155.9374
 X156.0000 Y118.2972
 Y91.3487
 X12.0000
G0 Z5.0000
 X12.0626 Y121.2914
G1 Z-26.0055
 X12.0000 Y118.2972
 Y91.3487
 X156.0000
 Y118.2972
 X155.9374 Y121.2914
 X12.0626
G0 Z5.0000
 X32.9219 Y70.3888
G1 Z-26.0055
 X26.9501 Y67.3945
 X22.8373 Y64.4002
 X20.1153 Y61.4060
 X17.7503 Y58.4117
 X16.0216 Y55.4174
 X14.6138 Y52.4232
 X13.6409 Y49.4289
 X12.8777 Y46.4346
 X12.5630 Y43.4403
 X12.3216 Y40.4461
 X12.9510 Y34.4575
 X13.8675 Y31.4632
 X14.8404 Y28.4690
 X16.4242 Y25.4747
 X18.1530 Y22.4804
 X20.7433 Y19.4862
 X23.7887 Y16.4919
 X27.9100 Y13.4976
 X34.8045 Y10.5033
 X53.1955
 X60.0900 Y13.4976
 X64.2113 Y16.4919
 X67.2567 Y19.4862
 X69.8470 Y22.4804
 X71.5758 Y25.4747
 X73.1596 Y28.4690
 X74.1325 Y31.4632
 X75.0490 Y34.4575
 X75.6784 Y40.4461
 X75.4370 Y43.4403
 X75.1223 Y46.4346
 X74.3591 Y49.4289
 X73.3862 Y52.4232
 X71.9784 Y55.4174
 X70.2497 Y58.4117
 X67.8847 Y61.4060
 X65.1627 Y64.4002
 X61.0499 Y67.3945
 X55.0781 Y70.3888
 X32.9219
G0 Z5.0000
 X118.2020 Y58.4117
G1 Z-26.0055
 X115.1181 Y55.4174
 X112.8179 Y52.4232
 X102.7384 Y49.4289
 X101.7655 Y46.4346
 X101.2629 Y43.4403
 X101.0215 Y40.4461
 X101.3362 Y37.4518
 X101.9921 Y34.4575
 X102.9737 Y31.4632
 X104.6863 Y28.4690
 X106.9940 Y25.4747
 X110.2663 Y22.4804
 X115.5851 Y19.4862
 X132.4149
 X137.7337 Y22.4804
 X141.0060 Y25.4747
 X143.3137 Y28.4690
 X145.0263 Y31.4632
 X146.0079 Y34.4575
 X146.6638 Y37.4518
 X146.9785 Y40.4461
 X146.7371 Y43.4403
 X146.2345 Y46.4346
 X145.2616 Y49.4289
 X135.1821 Y52.4232
 X132.8819 Y55.4174
 X129.7980 Y58.4117
 X118.2020
G0 Z5.0000
 X33.9758 Y10.5033
G1 Z-28.0027
 X27.5548 Y13.4976
 X23.4335 Y16.4919
 X20.4624 Y19.4862
 X17.9119 Y22.4804
 X16.1832 Y25.4747
 X14.6208 Y28.4690
 X13.6479 Y31.4632
 X12.7411 Y34.4575
 X12.1116 Y40.4461
 X12.3531 Y43.4403
 X12.6678 Y46.4346
 X13.4213 Y49.4289
 X14.3942 Y52.4232
 X15.7805 Y55.4174
 X17.5093 Y58.4117
 X19.8344 Y61.4060
 X22.5313 Y64.4002
 X26.5949 Y67.3945
 X32.4086 Y70.3888
 X55.5914
 X61.4051 Y67.3945
 X65.4687 Y64.4002
 X68.1656 Y61.4060
 X70.4907 Y58.4117
 X72.2195 Y55.4174
 X73.6058 Y52.4232
 X74.5787 Y49.4289
 X75.3322 Y46.4346
 X75.6469 Y43.4403
 X75.8884 Y40.4461
 X75.2589 Y34.4575
 X74.3521 Y31.4632
 X73.3792 Y28.4690
 X71.8168 Y25.4747
 X70.0881 Y22.4804
 X67.5376 Y19.4862
 X64.5665 Y16.4919
 X60.4452 Y13.4976
 X54.0242 Y10.5033
 X33.9758
G0 Z5.0000
 X121.0806 Y16.4919
G1 Z-28.0027
 X111.9225 Y19.4862
 X107.7327 Y22.4804
 X104.9894 Y25.4747
 X102.9661 Y28.4690
 X101.3986 Y31.4632
 X100.4257 Y34.4575
 X99.8383 Y37.4518
 X99.5236 Y40.4461
 X99.7650 Y43.4403
 X100.1991 Y46.4346
 X101.1720 Y49.4289
 X102.5635 Y52.4232
 X111.5918 Y55.4174
 X113.2029 Y58.4117
 X115.5031 Y61.4060
 X119.0083 Y64.4002
 X128.9917
 X132.4969 Y61.4060
 X134.7971 Y58.4117
 X136.4082 Y55.4174
 X145.4365 Y52.4232
 X146.8280 Y49.4289
 X147.8009 Y46.4346
 X148.2350 Y43.4403
 X148.4764 Y40.4461
 X148.1617 Y37.4518
 X147.5743 Y34.4575
 X146.6014 Y31.4632
 X145.0339 Y28.4690
 X143.0106 Y25.4747
 X140.2673 Y22.4804
 X136.0775 Y19.4862
 X126.9194 Y16.4919
 X121.0806
G0 Z5.0000
 X12.0000 Y91.3487
G1 Z-28.0027
 Y118.2972
 X12.0626 Y121.2914
 X155.9374
 X156.0000 Y118.2972
 Y91.3487
 X12.0000
G0 Z5.0000
 X12.0626 Y121.2914
G1 Z-30.0000
 X12.0000 Y118.2972
 Y91.3487
 X156.0000
 Y118.2972
 X155.9374 Y121.2914
 X12.0626
G0 Z5.0000
 X32.2989 Y70.3888
G1 Z-30.0000
 X26.5189 Y67.3945
 X22.4704 Y64.4002
 X19.7743 Y61.4060
 X17.4577 Y58.4117
 X15.7290 Y55.4174
 X14.3473 Y52.4232
 X13.3744 Y49.4289
 X12.6229 Y46.4346
 X12.3082 Y43.4403
 X12.0667 Y40.4461
 X12.6962 Y34.4575
 X13.6010 Y31.4632
 X14.5739 Y28.4690
 X16.1316 Y25.4747
 X17.8604 Y22.4804
 X20.4023 Y19.4862
 X23.3576 Y16.4919
 X27.4788 Y13.4976
 X33.8653 Y10.5033
 X54.1347
 X60.5212 Y13.4976
 X64.6424 Y16.4919
 X67.5977 Y19.4862
 X70.1396 Y22.4804
 X71.8684 Y25.4747
 X73.4261 Y28.4690
 X74.3990 Y31.4632
 X75.3038 Y34.4575
 X75.9333 Y40.4461
 X75.6918 Y43.4403
 X75.3771 Y46.4346
 X74.6256 Y49.4289
 X73.6527 Y52.4232
 X72.2710 Y55.4174
 X70.5423 Y58.4117
 X68.2257 Y61.4060
 X65.5296 Y64.4002
 X61.4811 Y67.3945
 X55.7011 Y70.3888
 X32.2989
G0 Z5.0000
 X119.8146
G1 Z-30.0000
 X115.8880 Y67.3945
 X113.5878 Y64.4002
 X111.8277 Y61.4060
 X110.4182 Y58.4117
 X102.5720 Y55.4174
 X100.8433 Y52.4232
 X99.6056 Y49.4289
 X98.6327 Y46.4346
 X98.2670 Y43.4403
 X98.0256 Y40.4461
 X98.3403 Y37.4518
 X98.8593 Y34.4575
 X99.8322 Y31.4632
 X101.2459 Y28.4690
 X102.9936 Y25.4747
 X105.6808 Y22.4804
 X109.3186 Y19.4862
 X114.9850 Y16.4919
 X133.0150
 X138.6814 Y19.4862
 X142.3192 Y22.4804
 X145.0064 Y25.4747
 X146.7541 Y28.4690
 X148.1678 Y31.4632
 X149.1407 Y34.4575
 X149.6597 Y37.4518
 X149.9744 Y40.4461
 X149.7330 Y43.4403
 X149.3673 Y46.4346
 X148.3944 Y49.4289
 X147.1567 Y52.4232
 X145.4280 Y55.4174
 X137.5818 Y58.4117
 X136.1723 Y61.4060
 X134.4122 Y64.4002
 X132.1120 Y67.3945
 X128.1854 Y70.3888
 X119.8146
G0 Z5.0000
M5 (stop spindle)
G04 P3 (wait for 3 seconds)
G0 Z5.0000
M2 (end program)
