;PYCAM-META-DATA: Filename: /home/surya/Desktop/SampleScene3.stl
;PYCAM-META-DATA: Timestamp: 2016-03-12 01:46:54.041149
;PYCAM-META-DATA: Version: 0.5.1
;Estimated machine time: 398 minutes
G40 (disable tool radius compensation)
G49 (disable tool length compensation)
G80 (cancel modal motion)
G54 (select coordinate system 1)
G90 (disable incremental moves)
G21 (metric)
G61 (exact path mode)
F200.00000
S1000.00000
;PYCAM_TOOLPATH_SETTINGS: START
;[Bounds]
;maxz = -0.041114
;maxx = 166.5
;maxy = 130.2742448
;minx = 1.5
;miny = 1.5205232
;minz = -30.0
;
;[Tool]
;torus_radius = 0.25
;speed = 1000.0
;shape = CylindricalCutter
;tool_radius = 1.5
;feedrate = 200.0
;
;[Process]
;engrave_offset = 0.0
;step_down = 4.0
;generator = PushCutter
;postprocessor = SimpleCutter
;milling_style = ignore
;material_allowance = 1.0
;pocketing_type = none
;path_direction = x
;
;PYCAM_TOOLPATH_SETTINGS: END
T1 M6
G0 Z5.0000
M3 (start spindle)
G04 P3 (wait for 3 seconds)
 X1.5000 Y1.5205
G1 Z-0.0411
 X166.5000
 Y4.5148
 X1.5000
 Y7.5091
 X166.5000
 Y10.5033
 X1.5000
 Y13.4976
 X166.5000
 Y16.4919
 X1.5000
 Y19.4862
 X166.5000
 Y22.4804
 X1.5000
 Y25.4747
 X166.5000
 Y28.4690
 X1.5000
 Y31.4632
 X166.5000
 Y34.4575
 X1.5000
 Y37.4518
 X42.0879
G0 Z5.0000
 X46.1670
G1 Z-0.0411
 X166.5000
 Y40.4461
 X48.0456
G0 Z5.0000
 X40.2298
G1 Z-0.0411
 X1.5000
 Y43.4403
 X40.9181
G0 Z5.0000
 X46.7381
G1 Z-0.0411
 X166.5000
 Y46.4346
 X1.5000
 Y49.4289
 X166.5000
 Y52.4232
 X1.5000
 Y55.4174
 X166.5000
 Y58.4117
 X1.5000
 Y61.4060
 X166.5000
 Y64.4002
 X1.5000
 Y67.3945
 X166.5000
 Y70.3888
 X1.5000
 Y73.3831
 X166.5000
 Y76.3773
 X1.5000
 Y79.3716
 X166.5000
 Y82.3659
 X1.5000
 Y85.3602
 X166.5000
 Y88.3544
 X1.5000
 Y91.3487
 X166.5000
 Y94.3430
 X1.5000
 Y97.3372
 X166.5000
 Y100.3315
 X1.5000
 Y103.3258
 X166.5000
 Y106.3201
 X1.5000
 Y109.3143
 X166.5000
 Y112.3086
 X1.5000
 Y115.3029
 X166.5000
 Y118.2972
 X1.5000
 Y121.2914
 X166.5000
 Y124.2857
 X1.5000
 Y127.2800
 X166.5000
 Y130.2742
 X1.5000
 Z-3.7860
 X166.5000
 Y127.2800
 X1.5000
 Y124.2857
 X166.5000
 Y121.2914
 X1.5000
 Y118.2972
 X166.5000
 Y115.3029
 X1.5000
 Y112.3086
 X166.5000
 Y109.3143
 X1.5000
 Y106.3201
 X166.5000
 Y103.3258
 X1.5000
 Y100.3315
 X166.5000
 Y97.3372
 X1.5000
 Y94.3430
 X166.5000
 Y91.3487
 X1.5000
 Y88.3544
 X166.5000
 Y85.3602
 X1.5000
 Y82.3659
 X166.5000
 Y79.3716
 X1.5000
 Y76.3773
 X166.5000
 Y73.3831
 X1.5000
 Y70.3888
 X166.5000
 Y67.3945
 X1.5000
 Y64.4002
 X166.5000
 Y61.4060
 X1.5000
 Y58.4117
 X166.5000
 Y55.4174
 X52.6829
G0 Z5.0000
 X35.3171
G1 Z-3.7860
 X1.5000
 Y52.4232
 X31.6830
G0 Z5.0000
 X56.3170
G1 Z-3.7860
 X166.5000
 Y49.4289
 X58.5691
G0 Z5.0000
 X29.4309
G1 Z-3.7860
 X1.5000
 Y46.4346
 X28.0268
G0 Z5.0000
 X59.9732
G1 Z-3.7860
 X166.5000
 Y43.4403
 X60.7495
G0 Z5.0000
 X27.2505
G1 Z-3.7860
 X1.5000
 Y40.4461
 X27.0091
G0 Z5.0000
 X60.9909
G1 Z-3.7860
 X166.5000
 Y37.4518
 X60.6753
G0 Z5.0000
 X27.3247
G1 Z-3.7860
 X1.5000
 Y34.4575
 X28.2534
G0 Z5.0000
 X59.7466
G1 Z-3.7860
 X166.5000
 Y31.4632
 X58.1664
G0 Z5.0000
 X29.8336
G1 Z-3.7860
 X1.5000
 Y28.4690
 X32.3109
G0 Z5.0000
 X55.6891
G1 Z-3.7860
 X166.5000
 Y25.4747
 X51.2250
G0 Z5.0000
 X36.7750
G1 Z-3.7860
 X1.5000
 Y22.4804
 X166.5000
 Y19.4862
 X1.5000
 Y16.4919
 X166.5000
 Y13.4976
 X1.5000
 Y10.5033
 X166.5000
 Y7.5091
 X1.5000
 Y4.5148
 X166.5000
 Y1.5205
 X1.5000
 Z-7.5308
 X166.5000
 Y4.5148
 X1.5000
 Y7.5091
 X166.5000
 Y10.5033
 X1.5000
 Y13.4976
 X166.5000
 Y16.4919
 X1.5000
 Y19.4862
 X37.4261
G0 Z5.0000
 X50.5739
G1 Z-7.5308
 X166.5000
 Y22.4804
 X56.5780
G0 Z5.0000
 X31.4220
G1 Z-7.5308
 X1.5000
 Y25.4747
 X27.9081
G0 Z5.0000
 X60.0919
G1 Z-7.5308
 X166.5000
 Y28.4690
 X62.5293
G0 Z5.0000
 X25.4707
G1 Z-7.5308
 X1.5000
 Y31.4632
 X23.7419
G0 Z5.0000
 X64.2581
G1 Z-7.5308
 X166.5000
 Y34.4575
 X65.2936
G0 Z5.0000
 X22.7064
G1 Z-7.5308
 X1.5000
 Y37.4518
 X22.0193
G0 Z5.0000
 X65.9807
G1 Z-7.5308
 X166.5000
 Y40.4461
 X66.2954
G0 Z5.0000
 X21.7046
G1 Z-7.5308
 X1.5000
 Y43.4403
 X21.9460
G0 Z5.0000
 X66.0540
G1 Z-7.5308
 X166.5000
 Y46.4346
 X65.5202
G0 Z5.0000
 X22.4798
G1 Z-7.5308
 X1.5000
 Y49.4289
 X23.4527
G0 Z5.0000
 X64.5473
G1 Z-7.5308
 X166.5000
 Y52.4232
 X62.9320
G0 Z5.0000
 X25.0680
G1 Z-7.5308
 X1.5000
 Y55.4174
 X27.2801
G0 Z5.0000
 X60.7199
G1 Z-7.5308
 X166.5000
 Y58.4117
 X57.5379
G0 Z5.0000
 X30.4621
G1 Z-7.5308
 X1.5000
 Y61.4060
 X35.6888
G0 Z5.0000
 X52.3112
G1 Z-7.5308
 X166.5000
 Y64.4002
 X1.5000
 Y67.3945
 X166.5000
 Y70.3888
 X1.5000
 Y73.3831
 X166.5000
 Y76.3773
 X1.5000
 Y79.3716
 X166.5000
 Y82.3659
 X1.5000
 Y85.3602
 X166.5000
 Y88.3544
 X1.5000
 Y91.3487
 X166.5000
 Y94.3430
 X1.5000
 Y97.3372
 X166.5000
 Y100.3315
 X1.5000
 Y103.3258
 X166.5000
 Y106.3201
 X1.5000
 Y109.3143
 X166.5000
 Y112.3086
 X1.5000
 Y115.3029
 X166.5000
 Y118.2972
 X1.5000
 Y121.2914
 X166.5000
 Y124.2857
 X1.5000
 Y127.2800
 X166.5000
 Y130.2742
 X1.5000
 Z-11.2757
 X166.5000
 Y127.2800
 X1.5000
 Y124.2857
 X166.5000
 Y121.2914
 X1.5000
 Y118.2972
 X166.5000
 Y115.3029
 X1.5000
 Y112.3086
 X52.1994
G0 Z5.0000
 X115.8006
G1 Z-11.2757
 X166.5000
 Y109.3143
 X116.5000
G0 Z5.0000
 X51.5000
G1 Z-11.2757
 X1.5000
 Y106.3201
 X51.5000
G0 Z5.0000
 X116.5000
G1 Z-11.2757
 X166.5000
 Y103.3258
 X116.5000
G0 Z5.0000
 X51.5000
G1 Z-11.2757
 X1.5000
 Y100.3315
 X51.5953
G0 Z5.0000
 X116.4047
G1 Z-11.2757
 X166.5000
 Y97.3372
 X1.5000
 Y94.3430
 X166.5000
 Y91.3487
 X1.5000
 Y88.3544
 X166.5000
 Y85.3602
 X1.5000
 Y82.3659
 X166.5000
 Y79.3716
 X1.5000
 Y76.3773
 X166.5000
 Y73.3831
 X1.5000
 Y70.3888
 X166.5000
 Y67.3945
 X1.5000
 Y64.4002
 X33.5898
G0 Z5.0000
 X54.4102
G1 Z-11.2757
 X166.5000
 Y61.4060
 X59.5228
G0 Z5.0000
 X28.4772
G1 Z-11.2757
 X1.5000
 Y58.4117
 X25.1465
G0 Z5.0000
 X62.8535
G1 Z-11.2757
 X166.5000
 Y55.4174
 X65.3476
G0 Z5.0000
 X22.6524
G1 Z-11.2757
 X1.5000
 Y52.4232
 X20.9237
G0 Z5.0000
 X67.0763
G1 Z-11.2757
 X166.5000
 Y49.4289
 X68.3212
G0 Z5.0000
 X19.6788
G1 Z-11.2757
 X1.5000
 Y46.4346
 X18.7060
G0 Z5.0000
 X69.2940
G1 Z-11.2757
 X166.5000
 Y43.4403
 X69.6629
G0 Z5.0000
 X18.3371
G1 Z-11.2757
 X1.5000
 Y40.4461
 X18.0957
G0 Z5.0000
 X69.9043
G1 Z-11.2757
 X166.5000
 Y37.4518
 X69.5896
G0 Z5.0000
 X18.4104
G1 Z-11.2757
 X1.5000
 Y34.4575
 X18.9325
G0 Z5.0000
 X69.0675
G1 Z-11.2757
 X166.5000
 Y31.4632
 X68.0946
G0 Z5.0000
 X19.9054
G1 Z-11.2757
 X1.5000
 Y28.4690
 X21.3263
G0 Z5.0000
 X66.6737
G1 Z-11.2757
 X166.5000
 Y25.4747
 X64.9146
G0 Z5.0000
 X23.0854
G1 Z-11.2757
 X1.5000
 Y22.4804
 X25.7745
G0 Z5.0000
 X62.2255
G1 Z-11.2757
 X166.5000
 Y19.4862
 X58.5629
G0 Z5.0000
 X29.4371
G1 Z-11.2757
 X1.5000
 Y16.4919
 X35.1562
G0 Z5.0000
 X52.8438
G1 Z-11.2757
 X166.5000
 Y13.4976
 X1.5000
 Y10.5033
 X166.5000
 Y7.5091
 X1.5000
 Y4.5148
 X166.5000
 Y1.5205
 X1.5000
 Z-15.0206
 X166.5000
 Y4.5148
 X1.5000
 Y7.5091
 X166.5000
 Y10.5033
 X1.5000
 Y13.4976
 X36.2930
G0 Z5.0000
 X51.7070
G1 Z-15.0206
 X166.5000
 Y16.4919
 X58.7019
G0 Z5.0000
 X29.2981
G1 Z-15.0206
 X1.5000
 Y19.4862
 X25.1768
G0 Z5.0000
 X62.8232
G1 Z-15.0206
 X166.5000
 Y22.4804
 X65.5952
G0 Z5.0000
 X22.4048
G1 Z-15.0206
 X1.5000
 Y25.4747
 X20.1635
G0 Z5.0000
 X67.8365
G1 Z-15.0206
 X166.5000
 Y28.4690
 X132.7548
G0 Z5.0000
 X115.2452
G1 Z-15.0206
 X69.5652
G0 Z5.0000
 X18.4348
G1 Z-15.0206
 X1.5000
 Y31.4632
 X17.2724
G0 Z5.0000
 X70.7276
G1 Z-15.0206
 X115.0970
G0 Z5.0000
 X132.9030
G1 Z-15.0206
 X166.5000
 Y34.4575
 X71.7005
G0 Z5.0000
 X16.2995
G1 Z-15.0206
 X1.5000
 Y37.4518
 X15.8924
G0 Z5.0000
 X72.1076
G1 Z-15.0206
 X166.5000
 Y40.4461
 X72.4223
G0 Z5.0000
 X15.5777
G1 Z-15.0206
 X1.5000
 Y43.4403
 X15.8191
G0 Z5.0000
 X72.1809
G1 Z-15.0206
 X166.5000
 Y46.4346
 X71.8662
G0 Z5.0000
 X16.1338
G1 Z-15.0206
 X1.5000
 Y49.4289
 X17.0458
G0 Z5.0000
 X70.9542
G1 Z-15.0206
 X166.5000
 Y52.4232
 X69.9589
G0 Z5.0000
 X18.0411
G1 Z-15.0206
 X1.5000
 Y55.4174
 X19.7609
G0 Z5.0000
 X68.2391
G1 Z-15.0206
 X166.5000
 Y58.4117
 X66.2231
G0 Z5.0000
 X21.7769
G1 Z-15.0206
 X1.5000
 Y61.4060
 X24.4729
G0 Z5.0000
 X63.5271
G1 Z-15.0206
 X166.5000
 Y64.4002
 X59.6618
G0 Z5.0000
 X28.3382
G1 Z-15.0206
 X1.5000
 Y67.3945
 X34.1584
G0 Z5.0000
 X53.8416
G1 Z-15.0206
 X166.5000
 Y70.3888
 X1.5000
 Y73.3831
 X166.5000
 Y76.3773
 X1.5000
 Y79.3716
 X166.5000
 Y82.3659
 X1.5000
 Y85.3602
 X166.5000
 Y88.3544
 X1.5000
 Y91.3487
 X166.5000
 Y94.3430
 X1.5000
 Y97.3372
 X51.5000
G0 Z5.0000
 X116.5000
G1 Z-15.0206
 X166.5000
 Y100.3315
 X116.5000
G0 Z5.0000
 X51.5000
G1 Z-15.0206
 X1.5000
 Y103.3258
 X51.5000
G0 Z5.0000
 X116.5000
G1 Z-15.0206
 X166.5000
 Y106.3201
 X116.5000
G0 Z5.0000
 X51.5000
G1 Z-15.0206
 X1.5000
 Y109.3143
 X51.5000
G0 Z5.0000
 X116.5000
G1 Z-15.0206
 X166.5000
 Y112.3086
 X116.5000
G0 Z5.0000
 X51.5000
G1 Z-15.0206
 X1.5000
 Y115.3029
 X51.6449
G0 Z5.0000
 X116.3551
G1 Z-15.0206
 X166.5000
 Y118.2972
 X1.5000
 Y121.2914
 X166.5000
 Y124.2857
 X1.5000
 Y127.2800
 X166.5000
 Y130.2742
 X1.5000
 Z-18.7654
 X166.5000
 Y127.2800
 X1.5000
 Y124.2857
 X166.5000
 Y121.2914
 X1.5000
 Y118.2972
 X166.5000
 Y115.3029
 X116.5000
G0 Z5.0000
 X51.5000
G1 Z-18.7654
 X1.5000
 Y112.3086
 X51.5000
G0 Z5.0000
 X116.5000
G1 Z-18.7654
 X166.5000
 Y109.3143
 X116.5000
G0 Z5.0000
 X51.5000
G1 Z-18.7654
 X1.5000
 Y106.3201
 X51.5000
G0 Z5.0000
 X116.5000
G1 Z-18.7654
 X166.5000
 Y103.3258
 X116.5000
G0 Z5.0000
 X51.5000
G1 Z-18.7654
 X1.5000
 Y100.3315
 X51.5000
G0 Z5.0000
 X116.5000
G1 Z-18.7654
 X166.5000
 Y97.3372
 X116.5000
G0 Z5.0000
 X51.5000
G1 Z-18.7654
 X1.5000
 Y94.3430
 X52.0360
G0 Z5.0000
 X115.9640
G1 Z-18.7654
 X166.5000
 Y91.3487
 X1.5000
 Y88.3544
 X166.5000
 Y85.3602
 X1.5000
 Y82.3659
 X166.5000
 Y79.3716
 X1.5000
 Y76.3773
 X166.5000
 Y73.3831
 X1.5000
 Y70.3888
 X38.2641
G0 Z5.0000
 X49.7359
G1 Z-18.7654
 X166.5000
 Y67.3945
 X58.3577
G0 Z5.0000
 X29.6423
G1 Z-18.7654
 X1.5000
 Y64.4002
 X25.2131
G0 Z5.0000
 X62.7869
G1 Z-18.7654
 X166.5000
 Y61.4060
 X65.9988
G0 Z5.0000
 X22.0012
G1 Z-18.7654
 X1.5000
 Y58.4117
 X19.3689
G0 Z5.0000
 X68.6311
G1 Z-18.7654
 X166.5000
 Y55.4174
 X70.3601
G0 Z5.0000
 X17.6399
G1 Z-18.7654
 X1.5000
 Y52.4232
 X16.0874
G0 Z5.0000
 X71.9126
G1 Z-18.7654
 X166.5000
 Y49.4289
 X72.8855
G0 Z5.0000
 X15.1145
G1 Z-18.7654
 X1.5000
 Y46.4346
 X14.2869
G0 Z5.0000
 X73.7131
G1 Z-18.7654
 X166.5000
 Y43.4403
 X74.0278
G0 Z5.0000
 X13.9722
G1 Z-18.7654
 X1.5000
 Y40.4461
 X13.7308
G0 Z5.0000
 X74.2692
G1 Z-18.7654
 X120.3542
G0 Z5.0000
 X127.6458
G1 Z-18.7654
 X166.5000
 Y37.4518
 X141.2392
G0 Z5.0000
 X106.7608
G1 Z-18.7654
 X73.9545
G0 Z5.0000
 X14.0455
G1 Z-18.7654
 X1.5000
 Y34.4575
 X14.3785
G0 Z5.0000
 X73.6215
G1 Z-18.7654
 X107.1446
G0 Z5.0000
 X140.8554
G1 Z-18.7654
 X166.5000
 Y31.4632
 X139.3841
G0 Z5.0000
 X108.6159
G1 Z-18.7654
 X72.6589
G0 Z5.0000
 X15.3411
G1 Z-18.7654
 X1.5000
 Y28.4690
 X16.3289
G0 Z5.0000
 X71.6711
G1 Z-18.7654
 X110.8919
G0 Z5.0000
 X137.1081
G1 Z-18.7654
 X166.5000
 Y25.4747
 X133.5180
G0 Z5.0000
 X114.4820
G1 Z-18.7654
 X69.9575
G0 Z5.0000
 X18.0425
G1 Z-18.7654
 X1.5000
 Y22.4804
 X19.9331
G0 Z5.0000
 X68.0669
G1 Z-18.7654
 X166.5000
 Y19.4862
 X65.3708
G0 Z5.0000
 X22.6292
G1 Z-18.7654
 X1.5000
 Y16.4919
 X26.1730
G0 Z5.0000
 X61.8270
G1 Z-18.7654
 X166.5000
 Y13.4976
 X56.7913
G0 Z5.0000
 X31.2087
G1 Z-18.7654
 X1.5000
 Y10.5033
 X166.5000
 Y7.5091
 X1.5000
 Y4.5148
 X166.5000
 Y1.5205
 X1.5000
 Z-22.5103
 X166.5000
 Y4.5148
 X1.5000
 Y7.5091
 X166.5000
 Y10.5033
 X52.4057
G0 Z5.0000
 X35.5943
G1 Z-22.5103
 X1.5000
 Y13.4976
 X28.2080
G0 Z5.0000
 X59.7920
G1 Z-22.5103
 X166.5000
 Y16.4919
 X63.9319
G0 Z5.0000
 X24.0681
G1 Z-22.5103
 X1.5000
 Y19.4862
 X20.9643
G0 Z5.0000
 X67.0357
G1 Z-22.5103
 X166.5000
 Y22.4804
 X133.9598
G0 Z5.0000
 X114.0402
G1 Z-22.5103
 X69.6574
G0 Z5.0000
 X18.3426
G1 Z-22.5103
 X1.5000
 Y25.4747
 X16.6139
G0 Z5.0000
 X71.3861
G1 Z-22.5103
 X109.8293
G0 Z5.0000
 X138.1707
G1 Z-22.5103
 X166.5000
 Y28.4690
 X140.8562
G0 Z5.0000
 X107.1438
G1 Z-22.5103
 X72.9870
G0 Z5.0000
 X15.0130
G1 Z-22.5103
 X1.5000
 Y31.4632
 X14.0401
G0 Z5.0000
 X73.9599
G1 Z-22.5103
 X105.3906
G0 Z5.0000
 X142.6094
G1 Z-22.5103
 X166.5000
 Y34.4575
 X143.7924
G0 Z5.0000
 X104.2076
G1 Z-22.5103
 X74.8836
G0 Z5.0000
 X13.1164
G1 Z-22.5103
 X1.5000
 Y37.4518
 X12.8014
G0 Z5.0000
 X75.1986
G1 Z-22.5103
 X103.4549
G0 Z5.0000
 X144.5451
G1 Z-22.5103
 X166.5000
 Y40.4461
 X144.8598
G0 Z5.0000
 X103.1402
G1 Z-22.5103
 X75.5133
G0 Z5.0000
 X12.4867
G1 Z-22.5103
 X1.5000
 Y43.4403
 X12.7281
G0 Z5.0000
 X75.2719
G1 Z-22.5103
 X103.3857
G0 Z5.0000
 X144.6143
G1 Z-22.5103
 X166.5000
 Y46.4346
 X133.0360
G0 Z5.0000
 X114.9640
G1 Z-22.5103
 X74.9572
G0 Z5.0000
 X13.0428
G1 Z-22.5103
 X1.5000
 Y49.4289
 X13.8135
G0 Z5.0000
 X74.1865
G1 Z-22.5103
 X118.2526
G0 Z5.0000
 X129.7474
G1 Z-22.5103
 X166.5000
 Y52.4232
 X73.2136
G0 Z5.0000
 X14.7864
G1 Z-22.5103
 X1.5000
 Y55.4174
 X16.2112
G0 Z5.0000
 X71.7888
G1 Z-22.5103
 X166.5000
 Y58.4117
 X70.0601
G0 Z5.0000
 X17.9399
G1 Z-22.5103
 X1.5000
 Y61.4060
 X20.3363
G0 Z5.0000
 X67.6637
G1 Z-22.5103
 X166.5000
 Y64.4002
 X64.8918
G0 Z5.0000
 X23.1082
G1 Z-22.5103
 X1.5000
 Y67.3945
 X27.2295
G0 Z5.0000
 X60.7705
G1 Z-22.5103
 X166.5000
 Y70.3888
 X54.6743
G0 Z5.0000
 X33.3257
G1 Z-22.5103
 X1.5000
 Y73.3831
 X166.5000
 Y76.3773
 X1.5000
 Y79.3716
 X166.5000
 Y82.3659
 X1.5000
 Y85.3602
 X166.5000
 Y88.3544
 X154.5429
G0 Z5.0000
 X13.4571
G1 Z-22.5103
 X1.5000
 Y91.3487
 X11.5000
G0 Z5.0000
 X156.5000
G1 Z-22.5103
 X166.5000
 Y94.3430
 X156.5000
G0 Z5.0000
 X11.5000
G1 Z-22.5103
 X1.5000
 Y97.3372
 X11.5000
G0 Z5.0000
 X156.5000
G1 Z-22.5103
 X166.5000
 Y100.3315
 X156.5000
G0 Z5.0000
 X11.5000
G1 Z-22.5103
 X1.5000
 Y103.3258
 X11.5000
G0 Z5.0000
 X156.5000
G1 Z-22.5103
 X166.5000
 Y106.3201
 X156.5000
G0 Z5.0000
 X11.5000
G1 Z-22.5103
 X1.5000
 Y109.3143
 X11.5000
G0 Z5.0000
 X156.5000
G1 Z-22.5103
 X166.5000
 Y112.3086
 X156.5000
G0 Z5.0000
 X11.5000
G1 Z-22.5103
 X1.5000
 Y115.3029
 X11.5000
G0 Z5.0000
 X156.5000
G1 Z-22.5103
 X166.5000
 Y118.2972
 X156.5000
G0 Z5.0000
 X11.5000
G1 Z-22.5103
 X1.5000
 Y121.2914
 X11.5498
G0 Z5.0000
 X156.4502
G1 Z-22.5103
 X166.5000
 Y124.2857
 X1.5000
 Y127.2800
 X166.5000
 Y130.2742
 X1.5000
 Z-26.2551
 X166.5000
 Y127.2800
 X1.5000
 Y124.2857
 X166.5000
 Y121.2914
 X156.4502
G0 Z5.0000
 X11.5498
G1 Z-26.2551
 X1.5000
 Y118.2972
 X11.5000
G0 Z5.0000
 X156.5000
G1 Z-26.2551
 X166.5000
 Y115.3029
 X156.5000
G0 Z5.0000
 X11.5000
G1 Z-26.2551
 X1.5000
 Y112.3086
 X11.5000
G0 Z5.0000
 X156.5000
G1 Z-26.2551
 X166.5000
 Y109.3143
 X156.5000
G0 Z5.0000
 X11.5000
G1 Z-26.2551
 X1.5000
 Y106.3201
 X11.5000
G0 Z5.0000
 X156.5000
G1 Z-26.2551
 X166.5000
 Y103.3258
 X156.5000
G0 Z5.0000
 X11.5000
G1 Z-26.2551
 X1.5000
 Y100.3315
 X11.5000
G0 Z5.0000
 X156.5000
G1 Z-26.2551
 X166.5000
 Y97.3372
 X156.5000
G0 Z5.0000
 X11.5000
G1 Z-26.2551
 X1.5000
 Y94.3430
 X11.5000
G0 Z5.0000
 X156.5000
G1 Z-26.2551
 X166.5000
 Y91.3487
 X156.5000
G0 Z5.0000
 X11.5000
G1 Z-26.2551
 X1.5000
 Y88.3544
 X13.4571
G0 Z5.0000
 X154.5429
G1 Z-26.2551
 X166.5000
 Y85.3602
 X1.5000
 Y82.3659
 X166.5000
 Y79.3716
 X1.5000
 Y76.3773
 X166.5000
 Y73.3831
 X1.5000
 Y70.3888
 X31.6285
G0 Z5.0000
 X56.3715
G1 Z-26.2551
 X166.5000
 Y67.3945
 X61.9450
G0 Z5.0000
 X26.0550
G1 Z-26.2551
 X1.5000
 Y64.4002
 X22.1035
G0 Z5.0000
 X65.8965
G1 Z-26.2551
 X166.5000
 Y61.4060
 X126.9700
G0 Z5.0000
 X121.0300
G1 Z-26.2551
 X68.5926
G0 Z5.0000
 X19.4074
G1 Z-26.2551
 X1.5000
 Y58.4117
 X17.1428
G0 Z5.0000
 X70.8572
G1 Z-26.2551
 X116.2843
G0 Z5.0000
 X131.7157
G1 Z-26.2551
 X166.5000
 Y55.4174
 X134.0393
G0 Z5.0000
 X113.9607
G1 Z-26.2551
 X72.5859
G0 Z5.0000
 X15.4141
G1 Z-26.2551
 X1.5000
 Y52.4232
 X14.0606
G0 Z5.0000
 X73.9394
G1 Z-26.2551
 X111.8899
G0 Z5.0000
 X136.1101
G1 Z-26.2551
 X166.5000
 Y49.4289
 X145.9831
G0 Z5.0000
 X102.0169
G1 Z-26.2551
 X74.9123
G0 Z5.0000
 X13.0877
G1 Z-26.2551
 X1.5000
 Y46.4346
 X12.3487
G0 Z5.0000
 X75.6513
G1 Z-26.2551
 X101.0440
G0 Z5.0000
 X146.9560
G1 Z-26.2551
 X166.5000
 Y43.4403
 X147.4271
G0 Z5.0000
 X100.5729
G1 Z-26.2551
 X75.9660
G0 Z5.0000
 X12.0340
G1 Z-26.2551
 X1.5000
 Y40.4461
 X11.7926
G0 Z5.0000
 X76.2074
G1 Z-26.2551
 X100.3315
G0 Z5.0000
 X147.6685
G1 Z-26.2551
 X166.5000
 Y37.4518
 X147.3538
G0 Z5.0000
 X100.6462
G1 Z-26.2551
 X75.8927
G0 Z5.0000
 X12.1073
G1 Z-26.2551
 X1.5000
 Y34.4575
 X12.4220
G0 Z5.0000
 X75.5780
G1 Z-26.2551
 X101.2706
G0 Z5.0000
 X146.7294
G1 Z-26.2551
 X166.5000
 Y31.4632
 X145.7565
G0 Z5.0000
 X102.2435
G1 Z-26.2551
 X74.6857
G0 Z5.0000
 X13.3143
G1 Z-26.2551
 X1.5000
 Y28.4690
 X14.2872
G0 Z5.0000
 X73.7128
G1 Z-26.2551
 X103.8939
G0 Z5.0000
 X144.1061
G1 Z-26.2551
 X166.5000
 Y25.4747
 X141.9294
G0 Z5.0000
 X106.0706
G1 Z-26.2551
 X72.1832
G0 Z5.0000
 X15.8168
G1 Z-26.2551
 X1.5000
 Y22.4804
 X17.5455
G0 Z5.0000
 X70.4545
G1 Z-26.2551
 X109.0989
G0 Z5.0000
 X138.9011
G1 Z-26.2551
 X166.5000
 Y19.4862
 X134.1021
G0 Z5.0000
 X113.8979
G1 Z-26.2551
 X67.9646
G0 Z5.0000
 X20.0354
G1 Z-26.2551
 X1.5000
 Y16.4919
 X22.8937
G0 Z5.0000
 X65.1063
G1 Z-26.2551
 X166.5000
 Y13.4976
 X60.9851
G0 Z5.0000
 X27.0149
G1 Z-26.2551
 X1.5000
 Y10.5033
 X33.1949
G0 Z5.0000
 X54.8051
G1 Z-26.2551
 X166.5000
 Y7.5091
 X1.5000
 Y4.5148
 X166.5000
 Y1.5205
 X1.5000
 Z-30.0000
 X166.5000
 Y4.5148
 X1.5000
 Y7.5091
 X166.5000
 Y10.5033
 X55.3640
G0 Z5.0000
 X32.6360
G1 Z-30.0000
 X1.5000
 Y13.4976
 X26.6282
G0 Z5.0000
 X61.3718
G1 Z-30.0000
 X166.5000
 Y16.4919
 X134.2443
G0 Z5.0000
 X113.7557
G1 Z-30.0000
 X65.4931
G0 Z5.0000
 X22.5069
G1 Z-30.0000
 X1.5000
 Y19.4862
 X19.7295
G0 Z5.0000
 X68.2705
G1 Z-30.0000
 X108.4680
G0 Z5.0000
 X139.5320
G1 Z-30.0000
 X166.5000
 Y22.4804
 X142.9920
G0 Z5.0000
 X105.0080
G1 Z-30.0000
 X70.7170
G0 Z5.0000
 X17.2830
G1 Z-30.0000
 X1.5000
 Y25.4747
 X15.5543
G0 Z5.0000
 X72.4457
G1 Z-30.0000
 X102.3973
G0 Z5.0000
 X145.6027
G1 Z-30.0000
 X166.5000
 Y28.4690
 X147.3315
G0 Z5.0000
 X100.6685
G1 Z-30.0000
 X73.9518
G0 Z5.0000
 X14.0482
G1 Z-30.0000
 X1.5000
 Y31.4632
 X13.0753
G0 Z5.0000
 X74.9247
G1 Z-30.0000
 X99.3065
G0 Z5.0000
 X148.6935
G1 Z-30.0000
 X166.5000
 Y34.4575
 X149.6664
G0 Z5.0000
 X98.3336
G1 Z-30.0000
 X75.8066
G0 Z5.0000
 X12.1934
G1 Z-30.0000
 X1.5000
 Y37.4518
 X11.8787
G0 Z5.0000
 X76.1213
G1 Z-30.0000
 X97.8376
G0 Z5.0000
 X150.1624
G1 Z-30.0000
 X166.5000
 Y40.4461
 X150.4771
G0 Z5.0000
 X97.5229
G1 Z-30.0000
 X76.4360
G0 Z5.0000
 X11.5640
G1 Z-30.0000
 X1.5000
 Y43.4403
 X11.8054
G0 Z5.0000
 X76.1946
G1 Z-30.0000
 X97.7643
G0 Z5.0000
 X150.2357
G1 Z-30.0000
 X166.5000
 Y46.4346
 X149.8896
G0 Z5.0000
 X98.1104
G1 Z-30.0000
 X75.8799
G0 Z5.0000
 X12.1201
G1 Z-30.0000
 X1.5000
 Y49.4289
 X12.8487
G0 Z5.0000
 X75.1513
G1 Z-30.0000
 X99.0799
G0 Z5.0000
 X148.9201
G1 Z-30.0000
 X166.5000
 Y52.4232
 X147.7341
G0 Z5.0000
 X100.2659
G1 Z-30.0000
 X74.1784
G0 Z5.0000
 X13.8216
G1 Z-30.0000
 X1.5000
 Y55.4174
 X15.1516
G0 Z5.0000
 X72.8484
G1 Z-30.0000
 X101.9946
G0 Z5.0000
 X146.0054
G1 Z-30.0000
 X166.5000
 Y58.4117
 X143.1130
G0 Z5.0000
 X104.8870
G1 Z-30.0000
 X71.1196
G0 Z5.0000
 X16.8804
G1 Z-30.0000
 X1.5000
 Y61.4060
 X19.1015
G0 Z5.0000
 X68.8985
G1 Z-30.0000
 X111.2751
G0 Z5.0000
 X136.7249
G1 Z-30.0000
 X166.5000
 Y64.4002
 X135.0427
G0 Z5.0000
 X112.9573
G1 Z-30.0000
 X66.2024
G0 Z5.0000
 X21.7976
G1 Z-30.0000
 X1.5000
 Y67.3945
 X25.6683
G0 Z5.0000
 X62.3317
G1 Z-30.0000
 X115.2575
G0 Z5.0000
 X132.7425
G1 Z-30.0000
 X166.5000
 Y70.3888
 X129.1326
G0 Z5.0000
 X118.8674
G1 Z-30.0000
 X56.9304
G0 Z5.0000
 X31.0696
G1 Z-30.0000
 X1.5000
 Y73.3831
 X166.5000
 Y76.3773
 X1.5000
 Y79.3716
 X166.5000
 Y82.3659
 X1.5000
 Y85.3602
 X166.5000
 Y88.3544
 X154.5429
G0 Z5.0000
 X13.4571
G1 Z-30.0000
 X1.5000
 Y91.3487
 X11.5000
G0 Z5.0000
 X156.5000
G1 Z-30.0000
 X166.5000
 Y94.3430
 X156.5000
G0 Z5.0000
 X11.5000
G1 Z-30.0000
 X1.5000
 Y97.3372
 X11.5000
G0 Z5.0000
 X156.5000
G1 Z-30.0000
 X166.5000
 Y100.3315
 X156.5000
G0 Z5.0000
 X11.5000
G1 Z-30.0000
 X1.5000
 Y103.3258
 X11.5000
G0 Z5.0000
 X156.5000
G1 Z-30.0000
 X166.5000
 Y106.3201
 X156.5000
G0 Z5.0000
 X11.5000
G1 Z-30.0000
 X1.5000
 Y109.3143
 X11.5000
G0 Z5.0000
 X156.5000
G1 Z-30.0000
 X166.5000
 Y112.3086
 X156.5000
G0 Z5.0000
 X11.5000
G1 Z-30.0000
 X1.5000
 Y115.3029
 X11.5000
G0 Z5.0000
 X156.5000
G1 Z-30.0000
 X166.5000
 Y118.2972
 X156.5000
G0 Z5.0000
 X11.5000
G1 Z-30.0000
 X1.5000
 Y121.2914
 X11.5498
G0 Z5.0000
 X156.4502
G1 Z-30.0000
 X166.5000
 Y124.2857
 X1.5000
 Y127.2800
 X166.5000
 Y130.2742
 X1.5000
G0 Z5.0000
M5 (stop spindle)
G04 P3 (wait for 3 seconds)
G0 Z5.0000
M2 (end program)
