%
(Header)
(Generated bYgcodetools from Inkscape.)
(Using default header. To add your own header create file "header" in the output dir.)
M3
(Header end.)
G21 (All units in mm)

(Start cutting path id: path41004)
(Change tool to Cylindrical cutter)

G00 Z5.0000
G00 X220.8794 Y83.6025

G01 Z-5.0000 F 100.0000(Penetrate)
G01 X220.8794 Y87.5314 Z-5.0000 F 400.0000
G01 X224.8408 Y87.5314 Z-5.0000
G01 X243.0892 Y132.0809 Z-5.0000
G01 X250.8496 Y132.0809 Z-5.0000
G01 X269.1305 Y87.5314 Z-5.0000
G01 X273.7413 Y87.5314 Z-5.0000
G01 X273.7413 Y83.6025 Z-5.0000
G01 X251.0445 Y83.6025 Z-5.0000
G01 X251.0445 Y87.5314 Z-5.0000
G01 X255.7852 Y87.5314 Z-5.0000
G01 X251.7913 Y97.4349 Z-5.0000
G01 X233.5753 Y97.4349 Z-5.0000
G01 X229.5165 Y87.5314 Z-5.0000
G01 X235.2963 Y87.5314 Z-5.0000
G01 X235.2963 Y83.6025 Z-5.0000
G01 X220.8794 Y83.6025 Z-5.0000
G01 X220.8794 Y83.6025 Z-5.0000
G00 Z5.0000

(End cutting path id: path41004)


(Start cutting path id: path41004)
(Change tool to Cylindrical cutter)

G00 Z5.0000
G00 X220.8794 Y83.6025

G01 Z-10.0000 F 100.0000(Penetrate)
G01 X220.8794 Y87.5314 Z-10.0000 F 400.0000
G01 X224.8408 Y87.5314 Z-10.0000
G01 X243.0892 Y132.0809 Z-10.0000
G01 X250.8496 Y132.0809 Z-10.0000
G01 X269.1305 Y87.5314 Z-10.0000
G01 X273.7413 Y87.5314 Z-10.0000
G01 X273.7413 Y83.6025 Z-10.0000
G01 X251.0445 Y83.6025 Z-10.0000
G01 X251.0445 Y87.5314 Z-10.0000
G01 X255.7852 Y87.5314 Z-10.0000
G01 X251.7913 Y97.4349 Z-10.0000
G01 X233.5753 Y97.4349 Z-10.0000
G01 X229.5165 Y87.5314 Z-10.0000
G01 X235.2963 Y87.5314 Z-10.0000
G01 X235.2963 Y83.6025 Z-10.0000
G01 X220.8794 Y83.6025 Z-10.0000
G01 X220.8794 Y83.6025 Z-10.0000
G00 Z5.0000

(End cutting path id: path41004)


(Start cutting path id: path41004)
(Change tool to Cylindrical cutter)

G00 Z5.0000
G00 X235.1664 Y101.3638

G01 Z-5.0000 F 100.0000(Penetrate)
G01 X250.2002 Y101.3638 Z-5.0000 F 400.0000
G01 X242.7320 Y119.9045 Z-5.0000
G01 X235.1664 Y101.3638 Z-5.0000
G01 X235.1664 Y101.3638 Z-5.0000
G00 Z5.0000

(End cutting path id: path41004)


(Start cutting path id: path41004)
(Change tool to Cylindrical cutter)

G00 Z5.0000
G00 X235.1664 Y101.3638

G01 Z-10.0000 F 100.0000(Penetrate)
G01 X250.2002 Y101.3638 Z-10.0000 F 400.0000
G01 X242.7320 Y119.9045 Z-10.0000
G01 X235.1664 Y101.3638 Z-10.0000
G01 X235.1664 Y101.3638 Z-10.0000
G00 Z5.0000

(End cutting path id: path41004)


(Start cutting path id: path41002)
(Change tool to Cylindrical cutter)

G00 Z5.0000
G00 X189.5779 Y83.6025

G01 Z-5.0000 F 100.0000(Penetrate)
G01 X189.5779 Y87.5314 Z-5.0000 F 400.0000
G01 X196.1044 Y87.5314 Z-5.0000
G01 X196.1044 Y103.6692 Z-5.0000
G01 X181.6875 Y128.1520 Z-5.0000
G01 X177.5638 Y128.1520 Z-5.0000
G01 X177.5638 Y132.0809 Z-5.0000
G01 X200.8126 Y132.0809 Z-5.0000
G01 X200.8126 Y128.1520 Z-5.0000
G01 X195.4225 Y128.1520 Z-5.0000
G01 X206.3326 Y109.6763 Z-5.0000
G01 X217.1778 Y128.1520 Z-5.0000
G01 X212.3397 Y128.1520 Z-5.0000
G01 X212.3397 Y132.0809 Z-5.0000
G01 X226.2370 Y132.0809 Z-5.0000
G01 X226.2370 Y128.1520 Z-5.0000
G01 X222.1133 Y128.1520 Z-5.0000
G01 X208.6705 Y105.3577 Z-5.0000
G01 X208.6705 Y87.5314 Z-5.0000
G01 X215.1971 Y87.5314 Z-5.0000
G01 X215.1971 Y83.6025 Z-5.0000
G01 X189.5779 Y83.6025 Z-5.0000
G01 X189.5779 Y83.6025 Z-5.0000
G00 Z5.0000

(End cutting path id: path41002)


(Start cutting path id: path41002)
(Change tool to Cylindrical cutter)

G00 Z5.0000
G00 X189.5779 Y83.6025

G01 Z-10.0000 F 100.0000(Penetrate)
G01 X189.5779 Y87.5314 Z-10.0000 F 400.0000
G01 X196.1044 Y87.5314 Z-10.0000
G01 X196.1044 Y103.6692 Z-10.0000
G01 X181.6875 Y128.1520 Z-10.0000
G01 X177.5638 Y128.1520 Z-10.0000
G01 X177.5638 Y132.0809 Z-10.0000
G01 X200.8126 Y132.0809 Z-10.0000
G01 X200.8126 Y128.1520 Z-10.0000
G01 X195.4225 Y128.1520 Z-10.0000
G01 X206.3326 Y109.6763 Z-10.0000
G01 X217.1778 Y128.1520 Z-10.0000
G01 X212.3397 Y128.1520 Z-10.0000
G01 X212.3397 Y132.0809 Z-10.0000
G01 X226.2370 Y132.0809 Z-10.0000
G01 X226.2370 Y128.1520 Z-10.0000
G01 X222.1133 Y128.1520 Z-10.0000
G01 X208.6705 Y105.3577 Z-10.0000
G01 X208.6705 Y87.5314 Z-10.0000
G01 X215.1971 Y87.5314 Z-10.0000
G01 X215.1971 Y83.6025 Z-10.0000
G01 X189.5779 Y83.6025 Z-10.0000
G01 X189.5779 Y83.6025 Z-10.0000
G00 Z5.0000

(End cutting path id: path41002)


(Start cutting path id: path41000)
(Change tool to Cylindrical cutter)

G00 Z5.0000
G00 X160.1921 Y107.2735

G01 Z-5.0000 F 100.0000(Penetrate)
G02 X162.9518 Y106.5396 Z-5.0000 I -1.8008 J -12.3282 F 400.0000
G02 X165.0626 Y105.3577 Z-5.0000 I -3.2732 J -8.3216
G02 X166.8042 Y103.6622 Z-5.0000 I -5.8278 J -7.7282
G02 X168.5045 Y101.0391 Z-5.0000 I -12.5202 J -9.9785
G01 X175.5831 Y87.5314 Z-5.0000
G01 X180.5511 Y87.5314 Z-5.0000
G01 X180.5511 Y83.6025 Z-5.0000
G01 X164.6081 Y83.6025 Z-5.0000
G01 X156.8801 Y98.2467 Z-5.0000
G03 X154.3862 Y102.5857 Z-5.0000 I -35.2353 J -17.3660
G03 X153.0486 Y104.0264 Z-5.0000 I -5.0523 J -3.3493
G03 X151.3554 Y104.9138 Z-5.0000 I -3.0405 J -3.7422
G03 X148.6975 Y105.2928 Z-5.0000 I -2.6579 J -9.1324
G01 X146.7168 Y105.2928 Z-5.0000
G01 X146.7168 Y87.5314 Z-5.0000
G01 X152.9512 Y87.5314 Z-5.0000
G01 X152.9512 Y83.6025 Z-5.0000
G01 X128.0138 Y83.6025 Z-5.0000
G01 X128.0138 Y87.5314 Z-5.0000
G01 X134.2157 Y87.5314 Z-5.0000
G01 X134.2157 Y128.1520 Z-5.0000
G01 X128.0138 Y128.1520 Z-5.0000
G01 X128.0138 Y132.0809 Z-5.0000
G01 X155.6787 Y132.0809 Z-5.0000
G02 X163.7755 Y131.0384 Z-5.0000 I -0.0000 J -31.9646
G02 X168.6993 Y128.6715 Z-5.0000 I -3.6261 J -13.8483
G02 X172.0388 Y124.6498 Z-5.0000 I -6.3498 J -8.6699
G02 X173.3101 Y119.0602 Z-5.0000 I -11.6515 J -5.5896
G02 X172.3946 Y114.4023 Z-5.0000 I -12.3068 J 0.0000
G02 X170.0306 Y111.0400 Z-5.0000 I -8.5395 J 3.4918
G02 X166.4487 Y108.8478 Z-5.0000 I -7.6942 J 8.5491
G02 X160.1921 Y107.2735 Z-5.0000 I -9.7051 J 25.3503
G01 X160.1921 Y107.2735 Z-5.0000
G00 Z5.0000

(End cutting path id: path41000)


(Start cutting path id: path41000)
(Change tool to Cylindrical cutter)

G00 Z5.0000
G00 X160.1921 Y107.2735

G01 Z-10.0000 F 100.0000(Penetrate)
G02 X162.9518 Y106.5396 Z-10.0000 I -1.8008 J -12.3282 F 400.0000
G02 X165.0626 Y105.3577 Z-10.0000 I -3.2732 J -8.3216
G02 X166.8042 Y103.6622 Z-10.0000 I -5.8278 J -7.7282
G02 X168.5045 Y101.0391 Z-10.0000 I -12.5202 J -9.9785
G01 X175.5831 Y87.5314 Z-10.0000
G01 X180.5511 Y87.5314 Z-10.0000
G01 X180.5511 Y83.6025 Z-10.0000
G01 X164.6081 Y83.6025 Z-10.0000
G01 X156.8801 Y98.2467 Z-10.0000
G03 X154.3862 Y102.5857 Z-10.0000 I -35.2353 J -17.3660
G03 X153.0486 Y104.0264 Z-10.0000 I -5.0523 J -3.3493
G03 X151.3554 Y104.9138 Z-10.0000 I -3.0405 J -3.7422
G03 X148.6975 Y105.2928 Z-10.0000 I -2.6579 J -9.1324
G01 X146.7168 Y105.2928 Z-10.0000
G01 X146.7168 Y87.5314 Z-10.0000
G01 X152.9512 Y87.5314 Z-10.0000
G01 X152.9512 Y83.6025 Z-10.0000
G01 X128.0138 Y83.6025 Z-10.0000
G01 X128.0138 Y87.5314 Z-10.0000
G01 X134.2157 Y87.5314 Z-10.0000
G01 X134.2157 Y128.1520 Z-10.0000
G01 X128.0138 Y128.1520 Z-10.0000
G01 X128.0138 Y132.0809 Z-10.0000
G01 X155.6787 Y132.0809 Z-10.0000
G02 X163.7755 Y131.0384 Z-10.0000 I -0.0000 J -31.9646
G02 X168.6993 Y128.6715 Z-10.0000 I -3.6261 J -13.8483
G02 X172.0388 Y124.6498 Z-10.0000 I -6.3498 J -8.6699
G02 X173.3101 Y119.0602 Z-10.0000 I -11.6515 J -5.5896
G02 X172.3946 Y114.4023 Z-10.0000 I -12.3068 J 0.0000
G02 X170.0306 Y111.0400 Z-10.0000 I -8.5395 J 3.4918
G02 X166.4487 Y108.8478 Z-10.0000 I -7.6942 J 8.5491
G02 X160.1921 Y107.2735 Z-10.0000 I -9.7051 J 25.3503
G01 X160.1921 Y107.2735 Z-10.0000
G00 Z5.0000

(End cutting path id: path41000)


(Start cutting path id: path41000)
(Change tool to Cylindrical cutter)

G00 Z5.0000
G00 X146.7168 Y109.1892

G01 Z-5.0000 F 100.0000(Penetrate)
G01 X150.9705 Y109.1892 Z-5.0000 F 400.0000
G03 X155.2121 Y109.9168 Z-5.0000 I -0.0000 J 12.7270
G03 X157.9516 Y111.6570 Z-5.0000 I -2.4122 J 6.8241
G03 X159.6920 Y114.4260 Z-5.0000 I -5.1996 J 5.1996
G03 X160.4194 Y118.7031 Z-5.0000 I -12.2122 J 4.2771
G03 X159.6895 Y122.9763 Z-5.0000 I -12.8747 J 0.0000
G03 X157.9516 Y125.7167 Z-5.0000 I -6.8052 J -2.3944
G03 X155.2182 Y127.4323 Z-5.0000 I -5.1168 J -5.1168
G03 X150.9705 Y128.1520 Z-5.0000 I -4.2478 J -12.1770
G01 X146.7168 Y128.1520 Z-5.0000
G01 X146.7168 Y109.1892 Z-5.0000
G01 X146.7168 Y109.1892 Z-5.0000
G00 Z5.0000

(End cutting path id: path41000)


(Start cutting path id: path41000)
(Change tool to Cylindrical cutter)

G00 Z5.0000
G00 X146.7168 Y109.1892

G01 Z-10.0000 F 100.0000(Penetrate)
G01 X150.9705 Y109.1892 Z-10.0000 F 400.0000
G03 X155.2121 Y109.9168 Z-10.0000 I -0.0000 J 12.7270
G03 X157.9516 Y111.6570 Z-10.0000 I -2.4122 J 6.8241
G03 X159.6920 Y114.4260 Z-10.0000 I -5.1996 J 5.1996
G03 X160.4194 Y118.7031 Z-10.0000 I -12.2122 J 4.2771
G03 X159.6895 Y122.9763 Z-10.0000 I -12.8747 J 0.0000
G03 X157.9516 Y125.7167 Z-10.0000 I -6.8052 J -2.3944
G03 X155.2182 Y127.4323 Z-10.0000 I -5.1168 J -5.1168
G03 X150.9705 Y128.1520 Z-10.0000 I -4.2478 J -12.1770
G01 X146.7168 Y128.1520 Z-10.0000
G01 X146.7168 Y109.1892 Z-10.0000
G01 X146.7168 Y109.1892 Z-10.0000
G00 Z5.0000

(End cutting path id: path41000)


(Start cutting path id: path40998)
(Change tool to Cylindrical cutter)

G00 Z5.0000
G00 X75.2818 Y128.1520

G01 Z-5.0000 F 100.0000(Penetrate)
G01 X69.1124 Y128.1520 Z-5.0000 F 400.0000
G01 X69.1124 Y132.0809 Z-5.0000
G01 X94.0497 Y132.0809 Z-5.0000
G01 X94.0497 Y128.1520 Z-5.0000
G01 X87.8478 Y128.1520 Z-5.0000
G01 X87.8478 Y103.8965 Z-5.0000
G03 X88.8074 Y95.1662 Z-5.0000 I 40.1960 J 0.0000
G03 X90.6728 Y91.2006 Z-5.0000 I 9.7687 J 2.1736
G03 X94.0502 Y88.7314 Z-5.0000 I 6.0690 J 4.7568
G03 X100.3490 Y87.5964 Z-5.0000 I 6.2988 J 16.9102
G03 X106.4783 Y88.7315 Z-5.0000 I -0.0000 J 17.1153
G03 X109.8304 Y91.2330 Z-5.0000 I -2.7594 J 7.1943
G03 X111.7001 Y95.2273 Z-5.0000 I -8.0671 J 6.2110
G03 X112.6553 Y103.8965 Z-5.0000 I -38.8620 J 8.6692
G01 X112.6553 Y128.1520 Z-5.0000
G01 X106.4859 Y128.1520 Z-5.0000
G01 X106.4859 Y132.0809 Z-5.0000
G01 X123.3705 Y132.0809 Z-5.0000
G01 X123.3705 Y128.1520 Z-5.0000
G01 X117.1687 Y128.1520 Z-5.0000
G01 X117.1687 Y103.2147 Z-5.0000
G02 X115.6180 Y92.7583 Z-5.0000 I -36.0285 J 0.0000
G02 X112.3631 Y87.3691 Z-5.0000 I -12.2304 J 3.7092
G02 X106.9328 Y84.1909 Z-5.0000 I -9.0535 J 9.2408
G02 X96.2252 Y82.6608 Z-5.0000 I -10.7076 J 36.7011
G02 X85.5909 Y84.2035 Z-5.0000 I -0.0000 J 37.4246
G02 X80.1199 Y87.4340 Z-5.0000 I 3.7178 J 12.5442
G02 X76.8374 Y92.8577 Z-5.0000 I 9.0726 J 9.1960
G02 X75.2818 Y103.2796 Z-5.0000 I 34.1335 J 10.4219
G01 X75.2818 Y128.1520 Z-5.0000
G01 X75.2818 Y128.1520 Z-5.0000
G00 Z5.0000

(End cutting path id: path40998)


(Start cutting path id: path40998)
(Change tool to Cylindrical cutter)

G00 Z5.0000
G00 X75.2818 Y128.1520

G01 Z-10.0000 F 100.0000(Penetrate)
G01 X69.1124 Y128.1520 Z-10.0000 F 400.0000
G01 X69.1124 Y132.0809 Z-10.0000
G01 X94.0497 Y132.0809 Z-10.0000
G01 X94.0497 Y128.1520 Z-10.0000
G01 X87.8478 Y128.1520 Z-10.0000
G01 X87.8478 Y103.8965 Z-10.0000
G03 X88.8074 Y95.1662 Z-10.0000 I 40.1960 J 0.0000
G03 X90.6728 Y91.2006 Z-10.0000 I 9.7687 J 2.1736
G03 X94.0502 Y88.7314 Z-10.0000 I 6.0690 J 4.7568
G03 X100.3490 Y87.5964 Z-10.0000 I 6.2988 J 16.9102
G03 X106.4783 Y88.7315 Z-10.0000 I -0.0000 J 17.1153
G03 X109.8304 Y91.2330 Z-10.0000 I -2.7594 J 7.1943
G03 X111.7001 Y95.2273 Z-10.0000 I -8.0671 J 6.2110
G03 X112.6553 Y103.8965 Z-10.0000 I -38.8620 J 8.6692
G01 X112.6553 Y128.1520 Z-10.0000
G01 X106.4859 Y128.1520 Z-10.0000
G01 X106.4859 Y132.0809 Z-10.0000
G01 X123.3705 Y132.0809 Z-10.0000
G01 X123.3705 Y128.1520 Z-10.0000
G01 X117.1687 Y128.1520 Z-10.0000
G01 X117.1687 Y103.2147 Z-10.0000
G02 X115.6180 Y92.7583 Z-10.0000 I -36.0285 J 0.0000
G02 X112.3631 Y87.3691 Z-10.0000 I -12.2304 J 3.7092
G02 X106.9328 Y84.1909 Z-10.0000 I -9.0535 J 9.2408
G02 X96.2252 Y82.6608 Z-10.0000 I -10.7076 J 36.7011
G02 X85.5909 Y84.2035 Z-10.0000 I -0.0000 J 37.4246
G02 X80.1199 Y87.4340 Z-10.0000 I 3.7178 J 12.5442
G02 X76.8374 Y92.8577 Z-10.0000 I 9.0726 J 9.1960
G02 X75.2818 Y103.2796 Z-10.0000 I 34.1335 J 10.4219
G01 X75.2818 Y128.1520 Z-10.0000
G01 X75.2818 Y128.1520 Z-10.0000
G00 Z5.0000

(End cutting path id: path40998)


(Start cutting path id: path40996)
(Change tool to Cylindrical cutter)

G00 Z5.0000
G00 X23.9135 Y85.9404

G01 Z-5.0000 F 100.0000(Penetrate)
G01 X23.9135 Y97.4349 Z-5.0000 F 400.0000
G01 X28.0372 Y97.4349 Z-5.0000
G03 X29.7712 Y92.4583 Z-5.0000 I 15.8710 J 2.7396
G03 X32.4857 Y89.2848 Z-5.0000 I 8.8770 J 4.8452
G03 X36.2669 Y87.3972 Z-5.0000 I 6.7396 J 8.7696
G03 X42.1944 Y86.5898 Z-5.0000 I 5.9274 J 21.3530
G03 X47.0333 Y87.1855 Z-5.0000 I -0.0000 J 19.9516
G03 X49.8574 Y88.5055 Z-5.0000 I -1.9783 J 7.9131
G03 X51.7476 Y90.7977 Z-5.0000 I -3.5120 J 4.8215
G03 X52.4875 Y94.1229 Z-5.0000 I -7.1020 J 3.3252
G03 X51.9768 Y96.8194 Z-5.0000 I -7.3743 J -0.0000
G03 X50.7016 Y98.6688 Z-5.0000 I -4.5990 J -1.8068
G03 X48.7175 Y99.9219 Z-5.0000 I -4.5464 J -5.0010
G03 X43.3308 Y101.6885 Z-5.0000 I -14.9527 J -36.4975
G01 X36.0574 Y103.4744 Z-5.0000
G02 X29.3632 Y105.9811 Z-5.0000 I 8.2183 J 32.1393
G02 X26.0565 Y108.5073 Z-5.0000 I 5.0536 J 10.0420
G02 X24.0306 Y112.0832 Z-5.0000 I 7.3024 J 6.4991
G02 X23.1667 Y117.7290 Z-5.0000 I 18.0158 J 5.6458
G02 X24.5102 Y124.3098 Z-5.0000 I 16.7883 J 0.0000
G02 X27.9398 Y128.9313 Z-5.0000 I 11.3393 J -4.8315
G02 X33.1823 Y131.7559 Z-5.0000 I 9.4761 J -11.3102
G02 X41.3826 Y132.9576 Z-5.0000 I 8.2003 J -27.3783
G02 X45.6229 Y132.7864 Z-5.0000 I -0.0000 J -52.5975
G02 X50.2146 Y132.2433 Z-5.0000 I -5.0333 J -62.2303
G02 X54.7915 Y131.3760 Z-5.0000 I -10.6279 J -68.5980
G02 X59.7609 Y130.1002 Z-5.0000 I -18.4427 J -82.1538
G01 X59.7609 Y119.3850 Z-5.0000
G01 X55.6371 Y119.3850 Z-5.0000
G03 X53.9779 Y123.9305 Z-5.0000 I -14.5749 J -2.7446
G03 X51.5134 Y126.6908 Z-5.0000 I -7.5530 J -4.2632
G03 X48.0964 Y128.3124 Z-5.0000 I -5.9121 J -8.0470
G03 X42.4541 Y129.0287 Z-5.0000 I -5.6423 J -21.8640
G03 X37.8130 Y128.4970 Z-5.0000 I -0.0000 J -20.5243
G03 X35.1807 Y127.3402 Z-5.0000 I 1.7581 J -7.5735
G03 X33.4296 Y125.3221 Z-5.0000 I 2.9340 J -4.3148
G03 X32.7454 Y122.3722 Z-5.0000 I 6.0178 J -2.9499
G03 X33.2429 Y119.5672 Z-5.0000 I 8.1573 J -0.0000
G03 X34.4339 Y117.7614 Z-5.0000 I 4.4167 J 1.6174
G03 X36.3256 Y116.5766 Z-5.0000 I 4.0968 J 4.4382
G03 X42.7139 Y114.5144 Z-5.0000 I 19.9439 J 50.8570
G01 X49.9873 Y112.7285 Z-5.0000
G02 X56.2764 Y110.2938 Z-5.0000 I -6.5921 J -26.3684
G02 X59.7609 Y107.4683 Z-5.0000 I -5.6998 J -10.5904
G02 X61.9137 Y103.5646 Z-5.0000 I -8.3988 J -7.1771
G02 X62.8131 Y97.6297 Z-5.0000 I -19.1304 J -5.9348
G02 X61.3809 Y91.0038 Z-5.0000 I -16.0431 J 0.0000
G02 X57.7477 Y86.4599 Z-5.0000 I -10.7619 J 4.8804
G02 X52.2874 Y83.8455 Z-5.0000 I -9.2810 J 12.3747
G02 X42.8438 Y82.6608 Z-5.0000 I -9.4437 J 37.0482
G02 X38.1206 Y82.8640 Z-5.0000 I 0.0000 J 54.9921
G02 X33.4273 Y83.4726 Z-5.0000 I 4.7332 J 54.9048
G02 X28.7998 Y84.4727 Z-5.0000 I 9.8914 J 56.9741
G02 X23.9135 Y85.9404 Z-5.0000 I 16.8616 J 65.0058
G01 X23.9135 Y85.9404 Z-5.0000
G00 Z5.0000

(End cutting path id: path40996)


(Start cutting path id: path40996)
(Change tool to Cylindrical cutter)

G00 Z5.0000
G00 X23.9135 Y85.9404

G01 Z-10.0000 F 100.0000(Penetrate)
G01 X23.9135 Y97.4349 Z-10.0000 F 400.0000
G01 X28.0372 Y97.4349 Z-10.0000
G03 X29.7712 Y92.4583 Z-10.0000 I 15.8710 J 2.7396
G03 X32.4857 Y89.2848 Z-10.0000 I 8.8770 J 4.8452
G03 X36.2669 Y87.3972 Z-10.0000 I 6.7396 J 8.7696
G03 X42.1944 Y86.5898 Z-10.0000 I 5.9274 J 21.3530
G03 X47.0333 Y87.1855 Z-10.0000 I -0.0000 J 19.9516
G03 X49.8574 Y88.5055 Z-10.0000 I -1.9783 J 7.9131
G03 X51.7476 Y90.7977 Z-10.0000 I -3.5120 J 4.8215
G03 X52.4875 Y94.1229 Z-10.0000 I -7.1020 J 3.3252
G03 X51.9768 Y96.8194 Z-10.0000 I -7.3743 J -0.0000
G03 X50.7016 Y98.6688 Z-10.0000 I -4.5990 J -1.8068
G03 X48.7175 Y99.9219 Z-10.0000 I -4.5464 J -5.0010
G03 X43.3308 Y101.6885 Z-10.0000 I -14.9527 J -36.4975
G01 X36.0574 Y103.4744 Z-10.0000
G02 X29.3632 Y105.9811 Z-10.0000 I 8.2183 J 32.1393
G02 X26.0565 Y108.5073 Z-10.0000 I 5.0536 J 10.0420
G02 X24.0306 Y112.0832 Z-10.0000 I 7.3024 J 6.4991
G02 X23.1667 Y117.7290 Z-10.0000 I 18.0158 J 5.6458
G02 X24.5102 Y124.3098 Z-10.0000 I 16.7883 J 0.0000
G02 X27.9398 Y128.9313 Z-10.0000 I 11.3393 J -4.8315
G02 X33.1823 Y131.7559 Z-10.0000 I 9.4761 J -11.3102
G02 X41.3826 Y132.9576 Z-10.0000 I 8.2003 J -27.3783
G02 X45.6229 Y132.7864 Z-10.0000 I -0.0000 J -52.5975
G02 X50.2146 Y132.2433 Z-10.0000 I -5.0333 J -62.2303
G02 X54.7915 Y131.3760 Z-10.0000 I -10.6279 J -68.5980
G02 X59.7609 Y130.1002 Z-10.0000 I -18.4427 J -82.1538
G01 X59.7609 Y119.3850 Z-10.0000
G01 X55.6371 Y119.3850 Z-10.0000
G03 X53.9779 Y123.9305 Z-10.0000 I -14.5749 J -2.7446
G03 X51.5134 Y126.6908 Z-10.0000 I -7.5530 J -4.2632
G03 X48.0964 Y128.3124 Z-10.0000 I -5.9121 J -8.0470
G03 X42.4541 Y129.0287 Z-10.0000 I -5.6423 J -21.8640
G03 X37.8130 Y128.4970 Z-10.0000 I -0.0000 J -20.5243
G03 X35.1807 Y127.3402 Z-10.0000 I 1.7581 J -7.5735
G03 X33.4296 Y125.3221 Z-10.0000 I 2.9340 J -4.3148
G03 X32.7454 Y122.3722 Z-10.0000 I 6.0178 J -2.9499
G03 X33.2429 Y119.5672 Z-10.0000 I 8.1573 J -0.0000
G03 X34.4339 Y117.7614 Z-10.0000 I 4.4167 J 1.6174
G03 X36.3256 Y116.5766 Z-10.0000 I 4.0968 J 4.4382
G03 X42.7139 Y114.5144 Z-10.0000 I 19.9439 J 50.8570
G01 X49.9873 Y112.7285 Z-10.0000
G02 X56.2764 Y110.2938 Z-10.0000 I -6.5921 J -26.3684
G02 X59.7609 Y107.4683 Z-10.0000 I -5.6998 J -10.5904
G02 X61.9137 Y103.5646 Z-10.0000 I -8.3988 J -7.1771
G02 X62.8131 Y97.6297 Z-10.0000 I -19.1304 J -5.9348
G02 X61.3809 Y91.0038 Z-10.0000 I -16.0431 J 0.0000
G02 X57.7477 Y86.4599 Z-10.0000 I -10.7619 J 4.8804
G02 X52.2874 Y83.8455 Z-10.0000 I -9.2810 J 12.3747
G02 X42.8438 Y82.6608 Z-10.0000 I -9.4437 J 37.0482
G02 X38.1206 Y82.8640 Z-10.0000 I 0.0000 J 54.9921
G02 X33.4273 Y83.4726 Z-10.0000 I 4.7332 J 54.9048
G02 X28.7998 Y84.4727 Z-10.0000 I 9.8914 J 56.9741
G02 X23.9135 Y85.9404 Z-10.0000 I 16.8616 J 65.0058
G01 X23.9135 Y85.9404 Z-10.0000
G00 Z5.0000

(End cutting path id: path40996)


(Start cutting path id: rect40988)
(Change tool to Cylindrical cutter)

G00 Z5.0000
G00 X7.4579 Y203.3271

G01 Z-5.0000 F 100.0000(Penetrate)
G01 X290.4673 Y203.3271 Z-5.0000 F 400.0000
G01 X290.4673 Y7.4580 Z-5.0000
G01 X7.4579 Y7.4580 Z-5.0000
G01 X7.4579 Y203.3271 Z-5.0000
G00 Z5.0000

(End cutting path id: rect40988)


(Start cutting path id: rect40988)
(Change tool to Cylindrical cutter)

G00 Z5.0000
G00 X7.4579 Y203.3271

G01 Z-10.0000 F 100.0000(Penetrate)
G01 X290.4673 Y203.3271 Z-10.0000 F 400.0000
G01 X290.4673 Y7.4580 Z-10.0000
G01 X7.4579 Y7.4580 Z-10.0000
G01 X7.4579 Y203.3271 Z-10.0000
G00 Z5.0000

(End cutting path id: rect40988)



(Footer)
M5
G00 X0.0000 Y0.0000
M2
(Using default footer. To add your own footer create file "footer" in the output dir.)
(end)
%
