%
(Header)
(Generated bYgcodetools from Inkscape.)
(Using default header. To add your own header create file "header" in the output dir.)
M3
(Header end.)
G21 (All units in mm)

(Start cutting path id: path41004)
(Change tool to Cylindrical cutter)

G00 Z5.0000
G00 X220.8794 Y83.6025

G01 Z-1.0000 F 100.0000(Penetrate)
G01 X220.8794 Y87.5314 Z-1.0000 F 400.0000
G01 X224.8408 Y87.5314 Z-1.0000
G01 X243.0892 Y132.0809 Z-1.0000
G01 X250.8496 Y132.0809 Z-1.0000
G01 X269.1305 Y87.5314 Z-1.0000
G01 X273.7413 Y87.5314 Z-1.0000
G01 X273.7413 Y83.6025 Z-1.0000
G01 X251.0445 Y83.6025 Z-1.0000
G01 X251.0445 Y87.5314 Z-1.0000
G01 X255.7852 Y87.5314 Z-1.0000
G01 X251.7913 Y97.4349 Z-1.0000
G01 X233.5753 Y97.4349 Z-1.0000
G01 X229.5165 Y87.5314 Z-1.0000
G01 X235.2963 Y87.5314 Z-1.0000
G01 X235.2963 Y83.6025 Z-1.0000
G01 X220.8794 Y83.6025 Z-1.0000
G01 X220.8794 Y83.6025 Z-1.0000
G00 Z5.0000

(End cutting path id: path41004)


(Start cutting path id: path41004)
(Change tool to Cylindrical cutter)

G00 Z5.0000
G00 X235.1664 Y101.3638

G01 Z-1.0000 F 100.0000(Penetrate)
G01 X250.2002 Y101.3638 Z-1.0000 F 400.0000
G01 X242.7320 Y119.9045 Z-1.0000
G01 X235.1664 Y101.3638 Z-1.0000
G01 X235.1664 Y101.3638 Z-1.0000
G00 Z5.0000

(End cutting path id: path41004)


(Start cutting path id: path41002)
(Change tool to Cylindrical cutter)

G00 Z5.0000
G00 X189.5779 Y83.6025

G01 Z-1.0000 F 100.0000(Penetrate)
G01 X189.5779 Y87.5314 Z-1.0000 F 400.0000
G01 X196.1044 Y87.5314 Z-1.0000
G01 X196.1044 Y103.6692 Z-1.0000
G01 X181.6875 Y128.1520 Z-1.0000
G01 X177.5638 Y128.1520 Z-1.0000
G01 X177.5638 Y132.0809 Z-1.0000
G01 X200.8126 Y132.0809 Z-1.0000
G01 X200.8126 Y128.1520 Z-1.0000
G01 X195.4225 Y128.1520 Z-1.0000
G01 X206.3326 Y109.6763 Z-1.0000
G01 X217.1778 Y128.1520 Z-1.0000
G01 X212.3397 Y128.1520 Z-1.0000
G01 X212.3397 Y132.0809 Z-1.0000
G01 X226.2370 Y132.0809 Z-1.0000
G01 X226.2370 Y128.1520 Z-1.0000
G01 X222.1133 Y128.1520 Z-1.0000
G01 X208.6705 Y105.3577 Z-1.0000
G01 X208.6705 Y87.5314 Z-1.0000
G01 X215.1971 Y87.5314 Z-1.0000
G01 X215.1971 Y83.6025 Z-1.0000
G01 X189.5779 Y83.6025 Z-1.0000
G01 X189.5779 Y83.6025 Z-1.0000
G00 Z5.0000

(End cutting path id: path41002)


(Start cutting path id: path41000)
(Change tool to Cylindrical cutter)

G00 Z5.0000
G00 X160.1921 Y107.2735

G01 Z-1.0000 F 100.0000(Penetrate)
G02 X162.9518 Y106.5396 Z-1.0000 I -1.8008 J -12.3283 F 400.0000
G02 X165.0626 Y105.3577 Z-1.0000 I -3.2732 J -8.3216
G02 X166.8042 Y103.6622 Z-1.0000 I -5.8279 J -7.7283
G02 X168.5045 Y101.0391 Z-1.0000 I -12.5202 J -9.9785
G01 X175.5831 Y87.5314 Z-1.0000
G01 X180.5511 Y87.5314 Z-1.0000
G01 X180.5511 Y83.6025 Z-1.0000
G01 X164.6081 Y83.6025 Z-1.0000
G01 X156.8801 Y98.2467 Z-1.0000
G03 X154.3862 Y102.5857 Z-1.0000 I -35.2352 J -17.3659
G03 X153.0486 Y104.0264 Z-1.0000 I -5.0523 J -3.3493
G03 X151.3554 Y104.9138 Z-1.0000 I -3.0405 J -3.7422
G03 X148.6975 Y105.2928 Z-1.0000 I -2.6579 J -9.1324
G01 X146.7168 Y105.2928 Z-1.0000
G01 X146.7168 Y87.5314 Z-1.0000
G01 X152.9512 Y87.5314 Z-1.0000
G01 X152.9512 Y83.6025 Z-1.0000
G01 X128.0138 Y83.6025 Z-1.0000
G01 X128.0138 Y87.5314 Z-1.0000
G01 X134.2157 Y87.5314 Z-1.0000
G01 X134.2157 Y128.1520 Z-1.0000
G01 X128.0138 Y128.1520 Z-1.0000
G01 X128.0138 Y132.0809 Z-1.0000
G01 X155.6787 Y132.0809 Z-1.0000
G02 X159.8692 Y131.8428 Z-1.0000 I -0.0000 J -36.9949
G02 X163.1550 Y131.2286 Z-1.0000 I -2.6579 J -23.3135
G02 X166.2813 Y130.1082 Z-1.0000 I -4.7850 J -18.2740
G02 X168.6993 Y128.6715 Z-1.0000 I -5.6745 J -12.3038
G02 X170.7428 Y126.7655 Z-1.0000 I -6.9849 J -9.5371
G02 X172.1574 Y124.5802 Z-1.0000 I -7.8356 J -6.6229
G02 X172.9955 Y122.1059 Z-1.0000 I -9.7797 J -4.6916
G02 X173.3101 Y119.0602 Z-1.0000 I -14.5846 J -3.0456
G02 X173.0871 Y116.5714 Z-1.0000 I -13.9980 J -0.0000
G02 X172.4903 Y114.5225 Z-1.0000 I -10.0467 J 1.8152
G02 X171.4686 Y112.6593 Z-1.0000 I -8.6916 J 3.5540
G02 X170.0306 Y111.0400 Z-1.0000 I -7.9667 J 5.6268
G02 X168.2923 Y109.7664 Z-1.0000 I -7.1871 J 7.9857
G02 X165.9475 Y108.6372 Z-1.0000 I -7.9476 J 13.5055
G02 X163.4451 Y107.8655 Z-1.0000 I -7.0468 J 18.4066
G02 X160.1921 Y107.2735 Z-1.0000 I -7.2448 J 30.5746
G01 X160.1921 Y107.2735 Z-1.0000
G00 Z5.0000

(End cutting path id: path41000)


(Start cutting path id: path41000)
(Change tool to Cylindrical cutter)

G00 Z5.0000
G00 X146.7168 Y109.1892

G01 Z-1.0000 F 100.0000(Penetrate)
G01 X150.9705 Y109.1892 Z-1.0000 F 400.0000
G03 X153.2140 Y109.3605 Z-1.0000 I 0.0000 J 14.7839
G03 X154.9887 Y109.8062 Z-1.0000 I -1.4837 J 9.6633
G03 X156.6250 Y110.5947 Z-1.0000 I -2.7751 J 7.8506
G03 X157.9516 Y111.6570 Z-1.0000 I -3.8621 J 6.1828
G03 X159.0135 Y112.9989 Z-1.0000 I -5.2291 J 5.2291
G03 X159.8024 Y114.6524 Z-1.0000 I -7.2097 J 4.4548
G03 X160.2482 Y116.4430 Z-1.0000 I -9.3900 J 3.2887
G03 X160.4194 Y118.7031 Z-1.0000 I -14.8391 J 2.2601
G03 X160.2479 Y120.9630 Z-1.0000 I -14.9796 J 0.0000
G03 X159.8024 Y122.7456 Z-1.0000 I -9.7341 J -1.4855
G03 X159.0129 Y124.3896 Z-1.0000 I -7.8782 J -2.7720
G03 X157.9516 Y125.7167 Z-1.0000 I -6.1543 J -3.8338
G03 X156.6269 Y126.7638 Z-1.0000 I -5.1365 J -5.1365
G03 X154.9887 Y127.5432 Z-1.0000 I -4.4001 J -7.1379
G03 X153.2147 Y127.9829 Z-1.0000 I -3.2538 J -9.3277
G03 X150.9705 Y128.1520 Z-1.0000 I -2.2443 J -14.8124
G01 X146.7168 Y128.1520 Z-1.0000
G01 X146.7168 Y109.1892 Z-1.0000
G00 Z5.0000

(End cutting path id: path41000)


(Start cutting path id: path40998)
(Change tool to Cylindrical cutter)

G00 Z5.0000
G00 X75.2818 Y128.1520

G01 Z-1.0000 F 100.0000(Penetrate)
G01 X69.1124 Y128.1520 Z-1.0000 F 400.0000
G01 X69.1124 Y132.0809 Z-1.0000
G01 X94.0497 Y132.0809 Z-1.0000
G01 X94.0497 Y128.1520 Z-1.0000
G01 X87.8478 Y128.1520 Z-1.0000
G01 X87.8478 Y103.8965 Z-1.0000
G03 X87.8955 Y101.6339 Z-1.0000 I 53.7532 J -0.0000
G03 X88.0244 Y99.7058 Z-1.0000 I 39.1537 J 1.6496
G03 X88.2566 Y97.7886 Z-1.0000 I 33.0304 J 3.0281
G03 X88.5541 Y96.1929 Z-1.0000 I 23.1699 J 3.4936
G03 X88.9714 Y94.6265 Z-1.0000 I 19.0868 J 4.2469
G03 X89.4369 Y93.3578 Z-1.0000 I 12.9742 J 4.0399
G03 X90.0362 Y92.1506 Z-1.0000 I 10.4403 J 4.4307
G03 X90.6728 Y91.2006 Z-1.0000 I 7.0853 J 4.0592
G03 X91.4373 Y90.3608 Z-1.0000 I 6.0636 J 4.7525
G03 X92.3369 Y89.6237 Z-1.0000 I 5.5573 J 5.8648
G03 X93.3318 Y89.0181 Z-1.0000 I 4.9717 J 7.0470
G03 X94.5043 Y88.4974 Z-1.0000 I 4.8247 J 9.2843
G03 X95.7315 Y88.1148 Z-1.0000 I 4.1290 J 11.0850
G03 X97.1750 Y87.8216 Z-1.0000 I 3.8099 J 15.0564
G03 X98.6408 Y87.6569 Z-1.0000 I 2.7379 J 17.7596
G03 X100.3490 Y87.5964 Z-1.0000 I 1.7082 J 24.0684
G03 X102.0164 Y87.6574 Z-1.0000 I -0.0000 J 22.8090
G03 X103.4499 Y87.8236 Z-1.0000 I -1.2474 J 17.0179
G03 X104.8603 Y88.1191 Z-1.0000 I -2.3251 J 14.6150
G03 X106.0638 Y88.5055 Z-1.0000 I -2.8739 J 11.0167
G03 X107.2113 Y89.0297 Z-1.0000 I -3.6313 J 9.4673
G03 X108.1906 Y89.6420 Z-1.0000 I -4.0058 J 7.4965
G03 X109.0740 Y90.3838 Z-1.0000 I -4.7161 J 6.5127
G03 X109.8304 Y91.2330 Z-1.0000 I -5.4425 J 5.6091
G03 X110.4676 Y92.1906 Z-1.0000 I -6.6150 J 5.0930
G03 X111.0663 Y93.4005 Z-1.0000 I -9.9880 J 5.6954
G03 X111.5321 Y94.6710 Z-1.0000 I -12.6295 J 5.3512
G03 X111.9491 Y96.2335 Z-1.0000 I -18.6999 J 5.8270
G03 X112.2467 Y97.8251 Z-1.0000 I -22.8323 J 5.0933
G03 X112.4787 Y99.7322 Z-1.0000 I -32.5581 J 4.9290
G03 X112.6077 Y101.6501 Z-1.0000 I -38.6503 J 3.5621
G03 X112.6553 Y103.8965 Z-1.0000 I -52.9843 J 2.2464
G01 X112.6553 Y128.1520 Z-1.0000
G01 X106.4859 Y128.1520 Z-1.0000
G01 X106.4859 Y132.0809 Z-1.0000
G01 X123.3705 Y132.0809 Z-1.0000
G01 X123.3705 Y128.1520 Z-1.0000
G01 X117.1687 Y128.1520 Z-1.0000
G01 X117.1687 Y103.2147 Z-1.0000
G02 X117.0880 Y100.4435 Z-1.0000 I -47.6394 J 0.0000
G02 X116.8683 Y98.0600 Z-1.0000 I -35.4540 J 2.0658
G02 X116.4762 Y95.7011 Z-1.0000 I -30.3383 J 3.8311
G02 X115.9673 Y93.7008 Z-1.0000 I -22.3102 J 4.6116
G02 X115.2672 Y91.7628 Z-1.0000 I -18.9020 J 5.7325
G02 X114.4655 Y90.1372 Z-1.0000 I -14.0851 J 5.9357
G02 X113.4689 Y88.6276 Z-1.0000 I -11.9102 J 6.7797
G02 X112.3631 Y87.3691 Z-1.0000 I -9.3621 J 7.1108
G02 X111.0900 Y86.2885 Z-1.0000 I -8.1946 J 8.3642
G02 X109.5523 Y85.3092 Z-1.0000 I -8.2506 J 11.2581
G02 X107.9021 Y84.5251 Z-1.0000 I -7.5589 J 13.7799
G02 X105.9258 Y83.8379 Z-1.0000 I -7.7498 J 19.1020
G02 X103.8900 Y83.3397 Z-1.0000 I -6.6949 J 22.9474
G02 X101.4834 Y82.9551 Z-1.0000 I -6.3001 J 31.7033
G02 X99.0535 Y82.7399 Z-1.0000 I -4.5324 J 37.3531
G02 X96.2252 Y82.6608 Z-1.0000 I -2.8283 J 50.5378
G02 X93.4133 Y82.7409 Z-1.0000 I 0.0000 J 49.3932
G02 X90.9934 Y82.9592 Z-1.0000 I 2.0978 J 36.7903
G02 X88.5974 Y83.3487 Z-1.0000 I 3.8904 J 31.4934
G02 X86.5653 Y83.8541 Z-1.0000 I 4.6784 J 23.1482
G02 X84.5937 Y84.5499 Z-1.0000 I 5.8107 J 19.6060
G02 X82.9407 Y85.3457 Z-1.0000 I 5.9922 J 14.5607
G02 X81.4015 Y86.3370 Z-1.0000 I 6.8290 J 12.2953
G02 X80.1199 Y87.4340 Z-1.0000 I 7.1055 J 9.5983
G02 X79.0057 Y88.7007 Z-1.0000 I 8.3827 J 8.4967
G02 X78.0032 Y90.2143 Z-1.0000 I 10.9998 J 8.3743
G02 X77.1955 Y91.8442 Z-1.0000 I 13.3410 J 7.6259
G02 X76.4913 Y93.7820 Z-1.0000 I 18.1742 J 7.7018
G02 X75.9787 Y95.7825 Z-1.0000 I 21.7171 J 6.6308
G02 X75.5841 Y98.1371 Z-1.0000 I 29.7104 J 6.1885
G02 X75.3629 Y100.5166 Z-1.0000 I 34.9019 J 4.4448
G02 X75.2818 Y103.2796 Z-1.0000 I 46.9891 J 2.7630
G01 X75.2818 Y128.1520 Z-1.0000
G00 Z5.0000

(End cutting path id: path40998)


(Start cutting path id: path40996)
(Change tool to Cylindrical cutter)

G00 Z5.0000
G00 X23.9135 Y85.9404

G01 Z-1.0000 F 100.0000(Penetrate)
G01 X23.9135 Y97.4349 Z-1.0000 F 400.0000
G01 X28.0372 Y97.4349 Z-1.0000
G03 X28.7044 Y94.7758 Z-1.0000 I 18.0523 J 3.1162
G03 X29.6202 Y92.6699 Z-1.0000 I 12.1982 J 4.0522
G03 X30.9119 Y90.7860 Z-1.0000 I 9.9012 J 5.4043
G03 X32.4857 Y89.2848 Z-1.0000 I 7.8054 J 6.6075
G03 X34.3405 Y88.1405 Z-1.0000 I 6.4931 J 8.4488
G03 X36.6663 Y87.2635 Z-1.0000 I 6.0328 J 12.4775
G03 X39.1189 Y86.7765 Z-1.0000 I 4.4781 J 16.1320
G03 X42.1944 Y86.5898 Z-1.0000 I 3.0755 J 25.2339
G03 X44.6942 Y86.7244 Z-1.0000 I -0.0000 J 23.2691
G03 X46.6266 Y87.0687 Z-1.0000 I -1.5366 J 14.2201
G03 X48.4695 Y87.7035 Z-1.0000 I -2.7285 J 10.9140
G03 X49.8574 Y88.5055 Z-1.0000 I -3.0917 J 6.9520
G03 X51.0175 Y89.5912 Z-1.0000 I -3.8198 J 5.2441
G03 X51.8300 Y90.8678 Z-1.0000 I -4.5168 J 3.7718
G03 X52.3065 Y92.3124 Z-1.0000 I -5.7882 J 2.7101
G03 X52.4875 Y94.1229 Z-1.0000 I -8.9632 J 1.8105
G03 X52.3648 Y95.5609 Z-1.0000 I -8.4888 J 0.0000
G03 X52.0410 Y96.7206 Z-1.0000 I -5.8236 J -1.0009
G03 X51.4795 Y97.7777 Z-1.0000 I -4.8981 J -1.9242
G03 X50.7016 Y98.6688 Z-1.0000 I -4.2346 J -2.9113
G03 X49.7385 Y99.3695 Z-1.0000 I -3.6872 J -4.0559
G03 X47.9660 Y100.2355 Z-1.0000 I -7.4741 J -13.0506
G03 X46.0969 Y100.9099 Z-1.0000 I -8.8597 J -21.6253
G03 X43.3308 Y101.6885 Z-1.0000 I -14.6199 J -46.6367
G01 X36.0574 Y103.4744 Z-1.0000
G02 X32.5621 Y104.5443 Z-1.0000 I 9.7033 J 37.9470
G02 X30.0017 Y105.6418 Z-1.0000 I 7.6654 J 21.4173
G02 X27.6397 Y107.0809 Z-1.0000 I 7.6862 J 15.2732
G02 X26.0565 Y108.5073 Z-1.0000 I 5.9643 J 8.2114
G02 X24.8232 Y110.2508 Z-1.0000 I 7.1636 J 6.3756
G02 X23.8891 Y112.4363 Z-1.0000 I 10.4008 J 5.7377
G02 X23.3675 Y114.7724 Z-1.0000 I 13.6103 J 4.2652
G02 X23.1667 Y117.7290 Z-1.0000 I 21.6592 J 2.9565
G02 X23.4934 Y121.2665 Z-1.0000 I 19.3138 J 0.0000
G02 X24.3599 Y124.1338 Z-1.0000 I 13.4981 J -2.5149
G02 X25.8458 Y126.7172 Z-1.0000 I 11.5343 J -4.9146
G02 X27.9398 Y128.9313 Z-1.0000 I 10.5065 J -7.8399
G02 X30.5027 Y130.6473 Z-1.0000 I 9.2407 J -11.0292
G02 X33.7033 Y131.9510 Z-1.0000 I 8.3837 J -16.0012
G02 X37.1049 Y132.6784 Z-1.0000 I 6.2183 J -20.7610
G02 X41.3826 Y132.9576 Z-1.0000 I 4.2777 J -32.6344
G02 X45.6229 Y132.7864 Z-1.0000 I 0.0000 J -52.5975
G02 X50.2146 Y132.2433 Z-1.0000 I -5.0333 J -62.2304
G02 X54.7915 Y131.3760 Z-1.0000 I -10.6280 J -68.5985
G02 X59.7609 Y130.1002 Z-1.0000 I -18.4427 J -82.1537
G01 X59.7609 Y119.3850 Z-1.0000
G01 X55.6371 Y119.3850 Z-1.0000
G03 X54.9890 Y121.8204 Z-1.0000 I -16.7557 J -3.1553
G03 X54.1354 Y123.7116 Z-1.0000 I -10.9178 J -3.7895
G03 X52.9411 Y125.3923 Z-1.0000 I -8.6538 J -4.8846
G03 X51.5134 Y126.6908 Z-1.0000 I -6.5361 J -5.7525
G03 X49.8346 Y127.6749 Z-1.0000 I -5.5800 J -7.5950
G03 X47.6575 Y128.4442 Z-1.0000 I -5.4928 J -12.0791
G03 X45.3720 Y128.8653 Z-1.0000 I -4.1308 J -16.0071
G03 X42.4541 Y129.0287 Z-1.0000 I -2.9178 J -25.9768
G03 X40.0649 Y128.9095 Z-1.0000 I 0.0000 J -24.0108
G03 X38.2330 Y128.6066 Z-1.0000 I 1.4396 J -14.3959
G03 X36.4769 Y128.0427 Z-1.0000 I 2.5278 J -10.8890
G03 X35.1807 Y127.3402 Z-1.0000 I 2.7373 J -6.5975
G03 X34.1033 Y126.3905 Z-1.0000 I 3.2306 J -4.7508
G03 X33.3543 Y125.2702 Z-1.0000 I 3.7931 J -3.3468
G03 X32.9135 Y123.9893 Z-1.0000 I 4.9036 J -2.4037
G03 X32.7454 Y122.3722 Z-1.0000 I 7.6971 J -1.6170
G03 X32.8627 Y120.8832 Z-1.0000 I 9.5099 J -0.0000
G03 X33.1676 Y119.7097 Z-1.0000 I 6.1885 J 0.9811
G03 X33.7057 Y118.6335 Z-1.0000 I 5.0245 J 1.8399
G03 X34.4339 Y117.7614 Z-1.0000 I 3.9998 J 2.5999
G03 X35.3530 Y117.1017 Z-1.0000 I 3.1314 J 3.3923
G03 X37.3481 Y116.1704 Z-1.0000 I 8.3786 J 15.3465
G03 X39.4435 Y115.4373 Z-1.0000 I 10.8992 J 27.7929
G03 X42.7139 Y114.5144 Z-1.0000 I 20.6280 J 66.8387
G01 X49.9873 Y112.7285 Z-1.0000
G02 X51.6624 Y112.2632 Z-1.0000 I -8.1129 J -32.4519
G02 X53.1308 Y111.7666 Z-1.0000 I -7.7822 J -25.4317
G02 X54.5650 Y111.1805 Z-1.0000 I -8.2462 J -22.2275
G02 X55.8076 Y110.5692 Z-1.0000 I -7.7339 J -17.2899
G02 X56.9983 Y109.8644 Z-1.0000 I -8.0550 J -14.9664
G02 X58.0176 Y109.1365 Z-1.0000 I -7.5753 J -11.6848
G02 X58.9631 Y108.3168 Z-1.0000 I -7.8644 J -10.0261
G02 X59.7609 Y107.4683 Z-1.0000 I -7.6319 J -7.9754
G02 X60.4717 Y106.5396 Z-1.0000 I -8.2585 J -7.0573
G02 X61.0962 Y105.5140 Z-1.0000 I -9.4550 J -6.4604
G02 X61.6129 Y104.4292 Z-1.0000 I -10.5764 J -5.7028
G02 X62.0500 Y103.2228 Z-1.0000 I -12.6532 J -5.2675
G02 X62.3772 Y101.9809 Z-1.0000 I -14.2002 J -4.4053
G02 X62.6223 Y100.5947 Z-1.0000 I -17.4552 J -3.8010
G02 X62.7629 Y99.1930 Z-1.0000 I -19.5681 J -2.6697
G02 X62.8131 Y97.6297 Z-1.0000 I -24.2975 J -1.5633
G02 X62.7295 Y95.8033 Z-1.0000 I -19.9874 J -0.0000
G02 X62.4965 Y94.1797 Z-1.0000 I -16.0164 J 1.4697
G02 X62.0920 Y92.5925 Z-1.0000 I -14.3641 J 2.8151
G02 X61.5468 Y91.1681 Z-1.0000 I -12.1022 J 3.8166
G02 X60.8314 Y89.8225 Z-1.0000 I -11.0461 J 5.0093
G02 X59.9638 Y88.5948 Z-1.0000 I -10.0532 J 6.1841
G02 X58.9481 Y87.4858 Z-1.0000 I -9.3599 J 7.5525
G02 X57.7477 Y86.4599 Z-1.0000 I -9.2001 J 9.5499
G02 X56.4359 Y85.5869 Z-1.0000 I -8.3995 J 11.1993
G02 X54.9167 Y84.7978 Z-1.0000 I -8.3644 J 14.2471
G02 X53.3252 Y84.1616 Z-1.0000 I -7.5747 J 16.6385
G02 X51.4890 Y83.6106 Z-1.0000 I -7.4857 J 21.6126
G02 X49.6133 Y83.2061 Z-1.0000 I -6.3722 J 24.9986
G02 X47.4647 Y82.8983 Z-1.0000 I -5.7532 J 32.5029
G02 X45.2999 Y82.7239 Z-1.0000 I -4.0838 J 37.1733
G02 X42.8438 Y82.6608 Z-1.0000 I -2.4562 J 47.8014
G02 X38.1206 Y82.8640 Z-1.0000 I -0.0000 J 54.9922
G02 X33.4273 Y83.4726 Z-1.0000 I 4.7331 J 54.9045
G02 X28.7998 Y84.4727 Z-1.0000 I 9.8913 J 56.9737
G02 X23.9135 Y85.9404 Z-1.0000 I 16.8617 J 65.0063
G01 X23.9135 Y85.9404 Z-1.0000
G00 Z5.0000

(End cutting path id: path40996)



(Footer)
M5
G00 X0.0000 Y0.0000
M2
(Using default footer. To add your own footer create file "footer" in the output dir.)
(end)
%
