%
(Header)
(Generated bYgcodetools from Inkscape.)
(Using default header. To add your own header create file "header" in the output dir.)
M3
(Header end.)
G21 (All units in mm)

(Start cutting path id: path109419)
(Change tool to Cylindrical cutter)

G00 Z5.0000
G00 X73.8425 Y53.2989

G01 Z-2.0000 F 100.0000(Penetrate)
G02 X69.2773 Y51.6576 Z-2.0000 I -21.5485 J 52.7655 F 400.0000
G02 X64.9315 Y50.4954 Z-2.0000 I -16.2475 J 52.0494
G01 X82.9347 Y50.4954 Z-2.0000
G02 X78.4853 Y51.6529 Z-2.0000 I 13.4888 J 60.9850
G02 X73.8425 Y53.2989 Z-2.0000 I 14.3237 J 47.7722
G01 X73.8425 Y53.2989 Z-2.0000
G00 Z5.0000

(End cutting path id: path109419)


(Start cutting path id: path109419)
(Change tool to Cylindrical cutter)

G00 Z5.0000
G00 X73.8425 Y53.2989

G01 Z-4.0000 F 100.0000(Penetrate)
G02 X69.2773 Y51.6576 Z-4.0000 I -21.5485 J 52.7655 F 400.0000
G02 X64.9315 Y50.4954 Z-4.0000 I -16.2475 J 52.0494
G01 X82.9347 Y50.4954 Z-4.0000
G02 X78.4853 Y51.6529 Z-4.0000 I 13.4888 J 60.9850
G02 X73.8425 Y53.2989 Z-4.0000 I 14.3237 J 47.7722
G01 X73.8425 Y53.2989 Z-4.0000
G00 Z5.0000

(End cutting path id: path109419)


(Start cutting path id: path109419)
(Change tool to Cylindrical cutter)

G00 Z5.0000
G00 X73.8425 Y53.2989

G01 Z-5.0000 F 100.0000(Penetrate)
G02 X69.2773 Y51.6576 Z-5.0000 I -21.5485 J 52.7655 F 400.0000
G02 X64.9315 Y50.4954 Z-5.0000 I -16.2475 J 52.0494
G01 X82.9347 Y50.4954 Z-5.0000
G02 X78.4853 Y51.6529 Z-5.0000 I 13.4888 J 60.9850
G02 X73.8425 Y53.2989 Z-5.0000 I 14.3237 J 47.7722
G01 X73.8425 Y53.2989 Z-5.0000
G00 Z5.0000

(End cutting path id: path109419)


(Start cutting path id: path109419)
(Change tool to Cylindrical cutter)

G00 Z5.0000
G00 X119.0096 Y51.2280

G01 Z-2.0000 F 100.0000(Penetrate)
G02 X117.5062 Y50.8375 Z-2.0000 I -12.1713 J 43.7733 F 400.0000
G02 X116.0270 Y50.4954 Z-2.0000 I -18.3047 J 75.7789
G01 X121.8776 Y50.4954 Z-2.0000
G02 X120.4365 Y50.8341 Z-2.0000 I 8.0877 J 37.6431
G02 X119.0096 Y51.2280 Z-2.0000 I 9.5294 J 37.3070
G01 X119.0096 Y51.2280 Z-2.0000
G00 Z5.0000

(End cutting path id: path109419)


(Start cutting path id: path109419)
(Change tool to Cylindrical cutter)

G00 Z5.0000
G00 X119.0096 Y51.2280

G01 Z-4.0000 F 100.0000(Penetrate)
G02 X117.5062 Y50.8375 Z-4.0000 I -12.1713 J 43.7733 F 400.0000
G02 X116.0270 Y50.4954 Z-4.0000 I -18.3047 J 75.7789
G01 X121.8776 Y50.4954 Z-4.0000
G02 X120.4365 Y50.8341 Z-4.0000 I 8.0877 J 37.6431
G02 X119.0096 Y51.2280 Z-4.0000 I 9.5294 J 37.3070
G01 X119.0096 Y51.2280 Z-4.0000
G00 Z5.0000

(End cutting path id: path109419)


(Start cutting path id: path109419)
(Change tool to Cylindrical cutter)

G00 Z5.0000
G00 X119.0096 Y51.2280

G01 Z-5.0000 F 100.0000(Penetrate)
G02 X117.5062 Y50.8375 Z-5.0000 I -12.1713 J 43.7733 F 400.0000
G02 X116.0270 Y50.4954 Z-5.0000 I -18.3047 J 75.7789
G01 X121.8776 Y50.4954 Z-5.0000
G02 X120.4365 Y50.8341 Z-5.0000 I 8.0877 J 37.6431
G02 X119.0096 Y51.2280 Z-5.0000 I 9.5294 J 37.3070
G01 X119.0096 Y51.2280 Z-5.0000
G00 Z5.0000

(End cutting path id: path109419)


(Start cutting path id: path109417)
(Change tool to Cylindrical cutter)

G00 Z5.0000
G00 X73.8970 Y57.6513

G01 Z-2.0000 F 100.0000(Penetrate)
G02 X70.5887 Y56.3070 Z-2.0000 I -20.6271 J 46.0215 F 400.0000
G02 X67.3856 Y55.2518 Z-2.0000 I -17.9267 J 49.0282
G02 X64.1196 Y54.4020 Z-2.0000 I -15.1752 J 51.6198
G02 X60.9636 Y53.7766 Z-2.0000 I -12.9290 J 56.9624
G02 X57.7766 Y53.3210 Z-2.0000 I -10.3076 J 60.7379
G02 X54.7164 Y53.0327 Z-2.0000 I -8.1076 J 69.6766
G02 X51.6451 Y52.8736 Z-2.0000 I -5.4652 J 75.7547
G02 X48.7291 Y52.8276 Z-2.0000 I -2.9160 J 92.4727
G02 X48.7081 Y52.8282 Z-2.0000 I 0.0000 J 0.3892
G03 X48.6872 Y52.8287 Z-2.0000 I -0.0209 J -0.3881
G01 X48.6872 Y46.4953 Z-2.0000
G01 X250.3013 Y46.4953 Z-2.0000
G01 X250.3013 Y53.7212 Z-2.0000
G01 X246.2984 Y53.7212 Z-2.0000
G02 X244.4052 Y53.7802 Z-2.0000 I 0.1287 J 34.5057
G02 X242.5209 Y53.9427 Z-2.0000 I 2.0219 J 34.4462
G02 X240.6483 Y54.2083 Z-2.0000 I 3.9063 J 34.2829
G02 X238.7903 Y54.5767 Z-2.0000 I 5.7784 J 34.0151
G02 X236.9502 Y54.2112 Z-2.0000 I -7.6382 J 33.6470
G02 X235.0956 Y53.9467 Z-2.0000 I -5.7982 J 34.0136
G02 X233.2295 Y53.7832 Z-2.0000 I -3.9436 J 34.2782
G02 X231.3544 Y53.7212 Z-2.0000 I -2.0774 J 34.4411
G01 X217.6738 Y53.7212 Z-2.0000
G02 X216.3747 Y53.7618 Z-2.0000 I 0.4282 J 34.5064
G02 X215.0781 Y53.8513 Z-2.0000 I 1.7268 J 34.4565
G02 X213.6813 Y53.7578 Z-2.0000 I -3.0002 J 34.3718
G02 X212.2818 Y53.7212 Z-2.0000 I -1.6034 J 34.4667
G01 X187.9705 Y53.7212 Z-2.0000
G02 X185.8038 Y53.8059 Z-2.0000 I 0.2639 J 34.4972
G02 X183.6467 Y54.0265 Z-2.0000 I 2.4310 J 34.4191
G02 X181.5304 Y53.8084 Z-2.0000 I -4.5937 J 34.1957
G02 X179.4046 Y53.7212 Z-2.0000 I -2.4773 J 34.4145
G01 X164.2759 Y53.7212 Z-2.0000
G02 X161.5485 Y53.8503 Z-2.0000 I 0.2667 J 34.5054
G02 X158.8398 Y54.1947 Z-2.0000 I 2.9938 J 34.3721
G02 X156.0367 Y53.8427 Z-2.0000 I -5.6970 J 34.0302
G02 X153.2141 Y53.7212 Z-2.0000 I -2.8938 J 34.3816
G01 X129.5505 Y53.7212 Z-2.0000
G02 X126.8756 Y53.8294 Z-2.0000 I 0.0562 J 34.5046
G02 X124.2252 Y54.1434 Z-2.0000 I 2.7310 J 34.3962
G02 X121.6069 Y54.6613 Z-2.0000 I 5.3814 J 34.0815
G02 X119.0289 Y55.3825 Z-2.0000 I 7.9997 J 33.5636
G02 X116.4415 Y54.6710 Z-2.0000 I -15.0942 J 49.8327
G02 X113.9175 Y54.1078 Z-2.0000 I -13.4989 J 54.5534
G02 X111.3698 Y53.6585 Z-2.0000 I -11.4870 J 57.6884
G02 X108.9002 Y53.3268 Z-2.0000 I -9.9298 J 64.5795
G02 X106.4191 Y53.0867 Z-2.0000 I -7.9277 J 68.9799
G02 X104.0361 Y52.9350 Z-2.0000 I -6.2718 J 79.7073
G02 X101.6491 Y52.8516 Z-2.0000 I -4.2278 J 86.8195
G02 X99.3847 Y52.8276 Z-2.0000 I -2.2644 J 106.9050
G02 X96.4752 Y52.8712 Z-2.0000 I -0.0000 J 97.0432
G02 X93.3666 Y53.0257 Z-2.0000 I 2.3719 J 79.0764
G02 X90.2689 Y53.3075 Z-2.0000 I 5.0436 J 72.6299
G02 X87.0244 Y53.7579 Z-2.0000 I 7.0720 J 62.8465
G02 X83.8110 Y54.3804 Z-2.0000 I 9.7093 J 58.7239
G02 X80.4905 Y55.2309 Z-2.0000 I 11.6784 J 52.5066
G02 X77.2349 Y56.2945 Z-2.0000 I 14.3863 J 49.5463
G02 X73.8970 Y57.6513 Z-2.0000 I 16.6129 J 45.6547
G01 X73.8970 Y57.6513 Z-2.0000
G00 Z5.0000

(End cutting path id: path109417)


(Start cutting path id: path109417)
(Change tool to Cylindrical cutter)

G00 Z5.0000
G00 X73.8970 Y57.6513

G01 Z-4.0000 F 100.0000(Penetrate)
G02 X70.5887 Y56.3070 Z-4.0000 I -20.6271 J 46.0215 F 400.0000
G02 X67.3856 Y55.2518 Z-4.0000 I -17.9267 J 49.0282
G02 X64.1196 Y54.4020 Z-4.0000 I -15.1752 J 51.6198
G02 X60.9636 Y53.7766 Z-4.0000 I -12.9290 J 56.9624
G02 X57.7766 Y53.3210 Z-4.0000 I -10.3076 J 60.7379
G02 X54.7164 Y53.0327 Z-4.0000 I -8.1076 J 69.6766
G02 X51.6451 Y52.8736 Z-4.0000 I -5.4652 J 75.7547
G02 X48.7291 Y52.8276 Z-4.0000 I -2.9160 J 92.4727
G02 X48.7081 Y52.8282 Z-4.0000 I 0.0000 J 0.3892
G03 X48.6872 Y52.8287 Z-4.0000 I -0.0209 J -0.3881
G01 X48.6872 Y46.4953 Z-4.0000
G01 X250.3013 Y46.4953 Z-4.0000
G01 X250.3013 Y53.7212 Z-4.0000
G01 X246.2984 Y53.7212 Z-4.0000
G02 X244.4052 Y53.7802 Z-4.0000 I 0.1287 J 34.5057
G02 X242.5209 Y53.9427 Z-4.0000 I 2.0219 J 34.4462
G02 X240.6483 Y54.2083 Z-4.0000 I 3.9063 J 34.2829
G02 X238.7903 Y54.5767 Z-4.0000 I 5.7784 J 34.0151
G02 X236.9502 Y54.2112 Z-4.0000 I -7.6382 J 33.6470
G02 X235.0956 Y53.9467 Z-4.0000 I -5.7982 J 34.0136
G02 X233.2295 Y53.7832 Z-4.0000 I -3.9436 J 34.2782
G02 X231.3544 Y53.7212 Z-4.0000 I -2.0774 J 34.4411
G01 X217.6738 Y53.7212 Z-4.0000
G02 X216.3747 Y53.7618 Z-4.0000 I 0.4282 J 34.5064
G02 X215.0781 Y53.8513 Z-4.0000 I 1.7268 J 34.4565
G02 X213.6813 Y53.7578 Z-4.0000 I -3.0002 J 34.3718
G02 X212.2818 Y53.7212 Z-4.0000 I -1.6034 J 34.4667
G01 X187.9705 Y53.7212 Z-4.0000
G02 X185.8038 Y53.8059 Z-4.0000 I 0.2639 J 34.4972
G02 X183.6467 Y54.0265 Z-4.0000 I 2.4310 J 34.4191
G02 X181.5304 Y53.8084 Z-4.0000 I -4.5937 J 34.1957
G02 X179.4046 Y53.7212 Z-4.0000 I -2.4773 J 34.4145
G01 X164.2759 Y53.7212 Z-4.0000
G02 X161.5485 Y53.8503 Z-4.0000 I 0.2667 J 34.5054
G02 X158.8398 Y54.1947 Z-4.0000 I 2.9938 J 34.3721
G02 X156.0367 Y53.8427 Z-4.0000 I -5.6970 J 34.0302
G02 X153.2141 Y53.7212 Z-4.0000 I -2.8938 J 34.3816
G01 X129.5505 Y53.7212 Z-4.0000
G02 X126.8756 Y53.8294 Z-4.0000 I 0.0562 J 34.5046
G02 X124.2252 Y54.1434 Z-4.0000 I 2.7310 J 34.3962
G02 X121.6069 Y54.6613 Z-4.0000 I 5.3814 J 34.0815
G02 X119.0289 Y55.3825 Z-4.0000 I 7.9997 J 33.5636
G02 X116.4415 Y54.6710 Z-4.0000 I -15.0942 J 49.8327
G02 X113.9175 Y54.1078 Z-4.0000 I -13.4989 J 54.5534
G02 X111.3698 Y53.6585 Z-4.0000 I -11.4870 J 57.6884
G02 X108.9002 Y53.3268 Z-4.0000 I -9.9298 J 64.5795
G02 X106.4191 Y53.0867 Z-4.0000 I -7.9277 J 68.9799
G02 X104.0361 Y52.9350 Z-4.0000 I -6.2718 J 79.7073
G02 X101.6491 Y52.8516 Z-4.0000 I -4.2278 J 86.8195
G02 X99.3847 Y52.8276 Z-4.0000 I -2.2644 J 106.9050
G02 X96.4752 Y52.8712 Z-4.0000 I -0.0000 J 97.0432
G02 X93.3666 Y53.0257 Z-4.0000 I 2.3719 J 79.0764
G02 X90.2689 Y53.3075 Z-4.0000 I 5.0436 J 72.6299
G02 X87.0244 Y53.7579 Z-4.0000 I 7.0720 J 62.8465
G02 X83.8110 Y54.3804 Z-4.0000 I 9.7093 J 58.7239
G02 X80.4905 Y55.2309 Z-4.0000 I 11.6784 J 52.5066
G02 X77.2349 Y56.2945 Z-4.0000 I 14.3863 J 49.5463
G02 X73.8970 Y57.6513 Z-4.0000 I 16.6129 J 45.6547
G01 X73.8970 Y57.6513 Z-4.0000
G00 Z5.0000

(End cutting path id: path109417)


(Start cutting path id: path109417)
(Change tool to Cylindrical cutter)

G00 Z5.0000
G00 X73.8970 Y57.6513

G01 Z-5.0000 F 100.0000(Penetrate)
G02 X70.5887 Y56.3070 Z-5.0000 I -20.6271 J 46.0215 F 400.0000
G02 X67.3856 Y55.2518 Z-5.0000 I -17.9267 J 49.0282
G02 X64.1196 Y54.4020 Z-5.0000 I -15.1752 J 51.6198
G02 X60.9636 Y53.7766 Z-5.0000 I -12.9290 J 56.9624
G02 X57.7766 Y53.3210 Z-5.0000 I -10.3076 J 60.7379
G02 X54.7164 Y53.0327 Z-5.0000 I -8.1076 J 69.6766
G02 X51.6451 Y52.8736 Z-5.0000 I -5.4652 J 75.7547
G02 X48.7291 Y52.8276 Z-5.0000 I -2.9160 J 92.4727
G02 X48.7081 Y52.8282 Z-5.0000 I 0.0000 J 0.3892
G03 X48.6872 Y52.8287 Z-5.0000 I -0.0209 J -0.3881
G01 X48.6872 Y46.4953 Z-5.0000
G01 X250.3013 Y46.4953 Z-5.0000
G01 X250.3013 Y53.7212 Z-5.0000
G01 X246.2984 Y53.7212 Z-5.0000
G02 X244.4052 Y53.7802 Z-5.0000 I 0.1287 J 34.5057
G02 X242.5209 Y53.9427 Z-5.0000 I 2.0219 J 34.4462
G02 X240.6483 Y54.2083 Z-5.0000 I 3.9063 J 34.2829
G02 X238.7903 Y54.5767 Z-5.0000 I 5.7784 J 34.0151
G02 X236.9502 Y54.2112 Z-5.0000 I -7.6382 J 33.6470
G02 X235.0956 Y53.9467 Z-5.0000 I -5.7982 J 34.0136
G02 X233.2295 Y53.7832 Z-5.0000 I -3.9436 J 34.2782
G02 X231.3544 Y53.7212 Z-5.0000 I -2.0774 J 34.4411
G01 X217.6738 Y53.7212 Z-5.0000
G02 X216.3747 Y53.7618 Z-5.0000 I 0.4282 J 34.5064
G02 X215.0781 Y53.8513 Z-5.0000 I 1.7268 J 34.4565
G02 X213.6813 Y53.7578 Z-5.0000 I -3.0002 J 34.3718
G02 X212.2818 Y53.7212 Z-5.0000 I -1.6034 J 34.4667
G01 X187.9705 Y53.7212 Z-5.0000
G02 X185.8038 Y53.8059 Z-5.0000 I 0.2639 J 34.4972
G02 X183.6467 Y54.0265 Z-5.0000 I 2.4310 J 34.4191
G02 X181.5304 Y53.8084 Z-5.0000 I -4.5937 J 34.1957
G02 X179.4046 Y53.7212 Z-5.0000 I -2.4773 J 34.4145
G01 X164.2759 Y53.7212 Z-5.0000
G02 X161.5485 Y53.8503 Z-5.0000 I 0.2667 J 34.5054
G02 X158.8398 Y54.1947 Z-5.0000 I 2.9938 J 34.3721
G02 X156.0367 Y53.8427 Z-5.0000 I -5.6970 J 34.0302
G02 X153.2141 Y53.7212 Z-5.0000 I -2.8938 J 34.3816
G01 X129.5505 Y53.7212 Z-5.0000
G02 X126.8756 Y53.8294 Z-5.0000 I 0.0562 J 34.5046
G02 X124.2252 Y54.1434 Z-5.0000 I 2.7310 J 34.3962
G02 X121.6069 Y54.6613 Z-5.0000 I 5.3814 J 34.0815
G02 X119.0289 Y55.3825 Z-5.0000 I 7.9997 J 33.5636
G02 X116.4415 Y54.6710 Z-5.0000 I -15.0942 J 49.8327
G02 X113.9175 Y54.1078 Z-5.0000 I -13.4989 J 54.5534
G02 X111.3698 Y53.6585 Z-5.0000 I -11.4870 J 57.6884
G02 X108.9002 Y53.3268 Z-5.0000 I -9.9298 J 64.5795
G02 X106.4191 Y53.0867 Z-5.0000 I -7.9277 J 68.9799
G02 X104.0361 Y52.9350 Z-5.0000 I -6.2718 J 79.7073
G02 X101.6491 Y52.8516 Z-5.0000 I -4.2278 J 86.8195
G02 X99.3847 Y52.8276 Z-5.0000 I -2.2644 J 106.9050
G02 X96.4752 Y52.8712 Z-5.0000 I -0.0000 J 97.0432
G02 X93.3666 Y53.0257 Z-5.0000 I 2.3719 J 79.0764
G02 X90.2689 Y53.3075 Z-5.0000 I 5.0436 J 72.6299
G02 X87.0244 Y53.7579 Z-5.0000 I 7.0720 J 62.8465
G02 X83.8110 Y54.3804 Z-5.0000 I 9.7093 J 58.7239
G02 X80.4905 Y55.2309 Z-5.0000 I 11.6784 J 52.5066
G02 X77.2349 Y56.2945 Z-5.0000 I 14.3863 J 49.5463
G02 X73.8970 Y57.6513 Z-5.0000 I 16.6129 J 45.6547
G01 X73.8970 Y57.6513 Z-5.0000
G00 Z5.0000

(End cutting path id: path109417)


(Start cutting path id: path109415)
(Change tool to Cylindrical cutter)

G00 Z5.0000
G00 X44.6870 Y167.1221

G01 Z-2.0000 F 100.0000(Penetrate)
G01 X44.6870 Y165.4690 Z-2.0000 F 400.0000
G02 X46.0350 Y165.5280 Z-2.0000 I 45.0848 J -1015.5455
G02 X47.3428 Y165.5561 Z-2.0000 I 1.3078 J -30.3671
G02 X50.6361 Y165.4878 Z-2.0000 I -0.0000 J -79.4413
G02 X53.9072 Y165.2878 Z-2.0000 I -3.4640 J -83.4858
G02 X57.1684 Y164.9614 Z-2.0000 I -6.9285 J -85.6797
G02 X60.4099 Y164.5154 Z-2.0000 I -10.8372 J -90.7764
G02 X62.8975 Y164.0761 Z-2.0000 I -9.2613 J -59.7065
G02 X65.3774 Y163.5712 Z-2.0000 I -47.6669 J -240.4544
G02 X67.1758 Y164.0215 Z-2.0000 I 8.3057 J -29.3500
G02 X68.9939 Y164.3612 Z-2.0000 I 6.5075 J -29.8008
G02 X71.3156 Y164.6318 Z-2.0000 I 4.6894 J -30.1401
G02 X73.6567 Y164.7238 Z-2.0000 I 2.3677 J -30.4109
G01 X97.3204 Y164.7238 Z-2.0000
G02 X98.8194 Y164.6856 Z-2.0000 I -0.0258 J -30.4761
G02 X100.3129 Y164.5740 Z-2.0000 I -1.5256 J -30.4534
G02 X101.7991 Y164.3891 Z-2.0000 I -3.0201 J -30.3509
G02 X103.2762 Y164.1312 Z-2.0000 I -4.5083 J -30.1795
G02 X104.7261 Y164.3851 Z-2.0000 I 5.9847 J -29.9096
G02 X106.1848 Y164.5686 Z-2.0000 I 4.5349 J -30.1637
G02 X107.6506 Y164.6815 Z-2.0000 I 3.0763 J -30.3485
G02 X109.1219 Y164.7238 Z-2.0000 I 1.6104 J -30.4594
G01 X125.1441 Y164.7238 Z-2.0000
G02 X126.1644 Y164.6898 Z-2.0000 I -0.5034 J -30.4992
G02 X127.1830 Y164.6218 Z-2.0000 I -1.5237 J -30.4648
G02 X128.3657 Y164.6958 Z-2.0000 I 2.4955 J -30.4025
G02 X129.5505 Y164.7238 Z-2.0000 I 1.3126 J -30.4731
G01 X155.8027 Y164.7238 Z-2.0000
G02 X158.7257 Y164.6603 Z-2.0000 I 0.0000 J -67.3692
G02 X161.8263 Y164.4483 Z-2.0000 I -2.7097 J -62.3925
G02 X164.9103 Y164.0795 Z-2.0000 I -5.5922 J -59.8479
G02 X168.1212 Y163.5150 Z-2.0000 I -8.0606 J -55.2587
G02 X170.1990 Y164.0396 Z-2.0000 I 8.5021 J -29.2940
G02 X172.3032 Y164.4163 Z-2.0000 I 6.4244 J -29.8188
G02 X174.4287 Y164.6448 Z-2.0000 I 4.3202 J -30.1960
G02 X176.5702 Y164.7238 Z-2.0000 I 2.1946 J -30.4235
G01 X198.6315 Y164.7238 Z-2.0000
G02 X201.3633 Y164.5884 Z-2.0000 I -0.1420 J -30.5043
G02 X204.0720 Y164.2089 Z-2.0000 I -2.8735 J -30.3666
G02 X206.8095 Y164.5910 Z-2.0000 I 5.5812 J -29.9879
G02 X209.5704 Y164.7238 Z-2.0000 I 2.8437 J -30.3705
G01 X222.7577 Y164.7238 Z-2.0000
G02 X224.7745 Y164.6480 Z-2.0000 I -0.1362 J -30.5011
G02 X226.7776 Y164.4396 Z-2.0000 I -2.1531 J -30.4258
G02 X228.7625 Y164.0995 Z-2.0000 I -4.1563 J -30.2184
G02 X230.7249 Y163.6280 Z-2.0000 I -6.1414 J -29.8790
G02 X232.7014 Y164.1023 Z-2.0000 I 8.1027 J -29.4065
G02 X234.7007 Y164.4434 Z-2.0000 I 6.1265 J -29.8825
G02 X236.7182 Y164.6508 Z-2.0000 I 4.1271 J -30.2230
G02 X238.7495 Y164.7238 Z-2.0000 I 2.1096 J -30.4301
G01 X246.1138 Y164.7238 Z-2.0000
G02 X248.1877 Y164.6453 Z-2.0000 I -0.1150 J -30.5042
G02 X250.2468 Y164.4267 Z-2.0000 I -2.1890 J -30.4253
G02 X252.2864 Y164.0689 Z-2.0000 I -4.2481 J -30.2062
G02 X254.3015 Y163.5723 Z-2.0000 I -6.2874 J -29.8477
G01 X254.3015 Y167.1221 Z-2.0000
G01 X44.6870 Y167.1221 Z-2.0000
G00 Z5.0000

(End cutting path id: path109415)


(Start cutting path id: path109415)
(Change tool to Cylindrical cutter)

G00 Z5.0000
G00 X44.6870 Y167.1221

G01 Z-4.0000 F 100.0000(Penetrate)
G01 X44.6870 Y165.4690 Z-4.0000 F 400.0000
G02 X46.0350 Y165.5280 Z-4.0000 I 45.0848 J -1015.5455
G02 X47.3428 Y165.5561 Z-4.0000 I 1.3078 J -30.3671
G02 X50.6361 Y165.4878 Z-4.0000 I -0.0000 J -79.4413
G02 X53.9072 Y165.2878 Z-4.0000 I -3.4640 J -83.4858
G02 X57.1684 Y164.9614 Z-4.0000 I -6.9285 J -85.6797
G02 X60.4099 Y164.5154 Z-4.0000 I -10.8372 J -90.7764
G02 X62.8975 Y164.0761 Z-4.0000 I -9.2613 J -59.7065
G02 X65.3774 Y163.5712 Z-4.0000 I -47.6669 J -240.4544
G02 X67.1758 Y164.0215 Z-4.0000 I 8.3057 J -29.3500
G02 X68.9939 Y164.3612 Z-4.0000 I 6.5075 J -29.8008
G02 X71.3156 Y164.6318 Z-4.0000 I 4.6894 J -30.1401
G02 X73.6567 Y164.7238 Z-4.0000 I 2.3677 J -30.4109
G01 X97.3204 Y164.7238 Z-4.0000
G02 X98.8194 Y164.6856 Z-4.0000 I -0.0258 J -30.4761
G02 X100.3129 Y164.5740 Z-4.0000 I -1.5256 J -30.4534
G02 X101.7991 Y164.3891 Z-4.0000 I -3.0201 J -30.3509
G02 X103.2762 Y164.1312 Z-4.0000 I -4.5083 J -30.1795
G02 X104.7261 Y164.3851 Z-4.0000 I 5.9847 J -29.9096
G02 X106.1848 Y164.5686 Z-4.0000 I 4.5349 J -30.1637
G02 X107.6506 Y164.6815 Z-4.0000 I 3.0763 J -30.3485
G02 X109.1219 Y164.7238 Z-4.0000 I 1.6104 J -30.4594
G01 X125.1441 Y164.7238 Z-4.0000
G02 X126.1644 Y164.6898 Z-4.0000 I -0.5034 J -30.4992
G02 X127.1830 Y164.6218 Z-4.0000 I -1.5237 J -30.4648
G02 X128.3657 Y164.6958 Z-4.0000 I 2.4955 J -30.4025
G02 X129.5505 Y164.7238 Z-4.0000 I 1.3126 J -30.4731
G01 X155.8027 Y164.7238 Z-4.0000
G02 X158.7257 Y164.6603 Z-4.0000 I 0.0000 J -67.3692
G02 X161.8263 Y164.4483 Z-4.0000 I -2.7097 J -62.3925
G02 X164.9103 Y164.0795 Z-4.0000 I -5.5922 J -59.8479
G02 X168.1212 Y163.5150 Z-4.0000 I -8.0606 J -55.2587
G02 X170.1990 Y164.0396 Z-4.0000 I 8.5021 J -29.2940
G02 X172.3032 Y164.4163 Z-4.0000 I 6.4244 J -29.8188
G02 X174.4287 Y164.6448 Z-4.0000 I 4.3202 J -30.1960
G02 X176.5702 Y164.7238 Z-4.0000 I 2.1946 J -30.4235
G01 X198.6315 Y164.7238 Z-4.0000
G02 X201.3633 Y164.5884 Z-4.0000 I -0.1420 J -30.5043
G02 X204.0720 Y164.2089 Z-4.0000 I -2.8735 J -30.3666
G02 X206.8095 Y164.5910 Z-4.0000 I 5.5812 J -29.9879
G02 X209.5704 Y164.7238 Z-4.0000 I 2.8437 J -30.3705
G01 X222.7577 Y164.7238 Z-4.0000
G02 X224.7745 Y164.6480 Z-4.0000 I -0.1362 J -30.5011
G02 X226.7776 Y164.4396 Z-4.0000 I -2.1531 J -30.4258
G02 X228.7625 Y164.0995 Z-4.0000 I -4.1563 J -30.2184
G02 X230.7249 Y163.6280 Z-4.0000 I -6.1414 J -29.8790
G02 X232.7014 Y164.1023 Z-4.0000 I 8.1027 J -29.4065
G02 X234.7007 Y164.4434 Z-4.0000 I 6.1265 J -29.8825
G02 X236.7182 Y164.6508 Z-4.0000 I 4.1271 J -30.2230
G02 X238.7495 Y164.7238 Z-4.0000 I 2.1096 J -30.4301
G01 X246.1138 Y164.7238 Z-4.0000
G02 X248.1877 Y164.6453 Z-4.0000 I -0.1150 J -30.5042
G02 X250.2468 Y164.4267 Z-4.0000 I -2.1890 J -30.4253
G02 X252.2864 Y164.0689 Z-4.0000 I -4.2481 J -30.2062
G02 X254.3015 Y163.5723 Z-4.0000 I -6.2874 J -29.8477
G01 X254.3015 Y167.1221 Z-4.0000
G01 X44.6870 Y167.1221 Z-4.0000
G00 Z5.0000

(End cutting path id: path109415)


(Start cutting path id: path109415)
(Change tool to Cylindrical cutter)

G00 Z5.0000
G00 X44.6870 Y167.1221

G01 Z-5.0000 F 100.0000(Penetrate)
G01 X44.6870 Y165.4690 Z-5.0000 F 400.0000
G02 X46.0350 Y165.5280 Z-5.0000 I 45.0848 J -1015.5455
G02 X47.3428 Y165.5561 Z-5.0000 I 1.3078 J -30.3671
G02 X50.6361 Y165.4878 Z-5.0000 I -0.0000 J -79.4413
G02 X53.9072 Y165.2878 Z-5.0000 I -3.4640 J -83.4858
G02 X57.1684 Y164.9614 Z-5.0000 I -6.9285 J -85.6797
G02 X60.4099 Y164.5154 Z-5.0000 I -10.8372 J -90.7764
G02 X62.8975 Y164.0761 Z-5.0000 I -9.2613 J -59.7065
G02 X65.3774 Y163.5712 Z-5.0000 I -47.6669 J -240.4544
G02 X67.1758 Y164.0215 Z-5.0000 I 8.3057 J -29.3500
G02 X68.9939 Y164.3612 Z-5.0000 I 6.5075 J -29.8008
G02 X71.3156 Y164.6318 Z-5.0000 I 4.6894 J -30.1401
G02 X73.6567 Y164.7238 Z-5.0000 I 2.3677 J -30.4109
G01 X97.3204 Y164.7238 Z-5.0000
G02 X98.8194 Y164.6856 Z-5.0000 I -0.0258 J -30.4761
G02 X100.3129 Y164.5740 Z-5.0000 I -1.5256 J -30.4534
G02 X101.7991 Y164.3891 Z-5.0000 I -3.0201 J -30.3509
G02 X103.2762 Y164.1312 Z-5.0000 I -4.5083 J -30.1795
G02 X104.7261 Y164.3851 Z-5.0000 I 5.9847 J -29.9096
G02 X106.1848 Y164.5686 Z-5.0000 I 4.5349 J -30.1637
G02 X107.6506 Y164.6815 Z-5.0000 I 3.0763 J -30.3485
G02 X109.1219 Y164.7238 Z-5.0000 I 1.6104 J -30.4594
G01 X125.1441 Y164.7238 Z-5.0000
G02 X126.1644 Y164.6898 Z-5.0000 I -0.5034 J -30.4992
G02 X127.1830 Y164.6218 Z-5.0000 I -1.5237 J -30.4648
G02 X128.3657 Y164.6958 Z-5.0000 I 2.4955 J -30.4025
G02 X129.5505 Y164.7238 Z-5.0000 I 1.3126 J -30.4731
G01 X155.8027 Y164.7238 Z-5.0000
G02 X158.7257 Y164.6603 Z-5.0000 I 0.0000 J -67.3692
G02 X161.8263 Y164.4483 Z-5.0000 I -2.7097 J -62.3925
G02 X164.9103 Y164.0795 Z-5.0000 I -5.5922 J -59.8479
G02 X168.1212 Y163.5150 Z-5.0000 I -8.0606 J -55.2587
G02 X170.1990 Y164.0396 Z-5.0000 I 8.5021 J -29.2940
G02 X172.3032 Y164.4163 Z-5.0000 I 6.4244 J -29.8188
G02 X174.4287 Y164.6448 Z-5.0000 I 4.3202 J -30.1960
G02 X176.5702 Y164.7238 Z-5.0000 I 2.1946 J -30.4235
G01 X198.6315 Y164.7238 Z-5.0000
G02 X201.3633 Y164.5884 Z-5.0000 I -0.1420 J -30.5043
G02 X204.0720 Y164.2089 Z-5.0000 I -2.8735 J -30.3666
G02 X206.8095 Y164.5910 Z-5.0000 I 5.5812 J -29.9879
G02 X209.5704 Y164.7238 Z-5.0000 I 2.8437 J -30.3705
G01 X222.7577 Y164.7238 Z-5.0000
G02 X224.7745 Y164.6480 Z-5.0000 I -0.1362 J -30.5011
G02 X226.7776 Y164.4396 Z-5.0000 I -2.1531 J -30.4258
G02 X228.7625 Y164.0995 Z-5.0000 I -4.1563 J -30.2184
G02 X230.7249 Y163.6280 Z-5.0000 I -6.1414 J -29.8790
G02 X232.7014 Y164.1023 Z-5.0000 I 8.1027 J -29.4065
G02 X234.7007 Y164.4434 Z-5.0000 I 6.1265 J -29.8825
G02 X236.7182 Y164.6508 Z-5.0000 I 4.1271 J -30.2230
G02 X238.7495 Y164.7238 Z-5.0000 I 2.1096 J -30.4301
G01 X246.1138 Y164.7238 Z-5.0000
G02 X248.1877 Y164.6453 Z-5.0000 I -0.1150 J -30.5042
G02 X250.2468 Y164.4267 Z-5.0000 I -2.1890 J -30.4253
G02 X252.2864 Y164.0689 Z-5.0000 I -4.2481 J -30.2062
G02 X254.3015 Y163.5723 Z-5.0000 I -6.2874 J -29.8477
G01 X254.3015 Y167.1221 Z-5.0000
G01 X44.6870 Y167.1221 Z-5.0000
G00 Z5.0000

(End cutting path id: path109415)


(Start cutting path id: path109415)
(Change tool to Cylindrical cutter)

G00 Z5.0000
G00 X73.8860 Y62.0853

G01 Z-2.0000 F 100.0000(Penetrate)
G02 X70.6251 Y60.6240 Z-2.0000 I -20.5774 J 41.5516 F 400.0000
G02 X67.4552 Y59.4762 Z-2.0000 I -17.8371 J 44.3060
G02 X64.2108 Y58.5508 Z-2.0000 I -15.1115 J 46.8310
G02 X61.0582 Y57.8675 Z-2.0000 I -12.9086 J 51.9479
G02 X57.8686 Y57.3699 Z-2.0000 I -10.3138 J 55.6399
G02 X54.7858 Y57.0534 Z-2.0000 I -8.1590 J 64.2912
G02 X51.6898 Y56.8786 Z-2.0000 I -5.5138 J 70.1773
G02 X48.7291 Y56.8278 Z-2.0000 I -2.9607 J 86.1509
G02 X46.7079 Y56.8568 Z-2.0000 I -0.0000 J 70.4585
G02 X44.6870 Y56.9353 Z-2.0000 I 2.8633 J 99.7766
G01 X44.6870 Y42.4951 Z-2.0000
G01 X254.3015 Y42.4951 Z-2.0000
G01 X254.3015 Y57.7213 Z-2.0000
G01 X246.2984 Y57.7213 Z-2.0000
G02 X244.4159 Y57.7892 Z-2.0000 I 0.1576 J 30.5036
G02 X242.5447 Y57.9727 Z-2.0000 I 2.0401 J 30.4352
G02 X240.6883 Y58.2711 Z-2.0000 I 3.9111 J 30.2506
G02 X238.8504 Y58.6843 Z-2.0000 I 5.7675 J 29.9523
G02 X237.0007 Y58.2689 Z-2.0000 I -7.6045 J 29.5391
G02 X235.1323 Y57.9697 Z-2.0000 I -5.7549 J 29.9549
G02 X233.2491 Y57.7870 Z-2.0000 I -3.8866 J 30.2534
G02 X231.3544 Y57.7213 Z-2.0000 I -2.0034 J 30.4376
G01 X217.6738 Y57.7213 Z-2.0000
G02 X216.3039 Y57.7592 Z-2.0000 I 0.1583 J 30.5138
G02 X214.9370 Y57.8586 Z-2.0000 I 1.5275 J 30.4620
G02 X213.6109 Y57.7610 Z-2.0000 I -2.9009 J 30.3662
G02 X212.2818 Y57.7213 Z-2.0000 I -1.5746 J 30.4611
G01 X187.9705 Y57.7213 Z-2.0000
G02 X185.8327 Y57.8149 Z-2.0000 I 0.2641 J 30.4993
G02 X183.7068 Y58.0581 Z-2.0000 I 2.4022 J 30.4097
G02 X181.5617 Y57.8135 Z-2.0000 I -4.5258 J 30.1657
G02 X179.4046 Y57.7213 Z-2.0000 I -2.3806 J 30.4094
G01 X164.2759 Y57.7213 Z-2.0000
G02 X161.5062 Y57.8588 Z-2.0000 I 0.1256 J 30.5056
G02 X158.7605 Y58.2472 Z-2.0000 I 2.8950 J 30.3645
G02 X155.9993 Y57.8573 Z-2.0000 I -5.6402 J 29.9768
G02 X153.2141 Y57.7213 Z-2.0000 I -2.8791 J 30.3670
G01 X129.5505 Y57.7213 Z-2.0000
G02 X126.8709 Y57.8492 Z-2.0000 I 0.1135 J 30.5030
G02 X124.2231 Y58.2103 Z-2.0000 I 2.7930 J 30.3749
G02 X121.6170 Y58.8017 Z-2.0000 I 5.4409 J 30.0139
G02 X119.0631 Y59.6225 Z-2.0000 I 8.0469 J 29.4223
G02 X116.5042 Y58.8495 Z-2.0000 I -15.0312 J 45.1391
G02 X113.9950 Y58.2351 Z-2.0000 I -13.4800 J 49.6217
G02 X111.4576 Y57.7444 Z-2.0000 I -11.4976 J 52.6477
G02 X108.9838 Y57.3801 Z-2.0000 I -9.9833 J 59.2054
G02 X106.4963 Y57.1159 Z-2.0000 I -7.9917 J 63.3960
G02 X104.0926 Y56.9476 Z-2.0000 I -6.3492 J 73.4332
G02 X101.6840 Y56.8548 Z-2.0000 I -4.2881 J 79.9955
G02 X99.3847 Y56.8278 Z-2.0000 I -2.2994 J 97.9784
G02 X96.4220 Y56.8754 Z-2.0000 I 0.0000 J 92.2476
G02 X93.2811 Y57.0432 Z-2.0000 I 2.3754 J 73.9265
G02 X90.1531 Y57.3505 Z-2.0000 I 5.0391 J 67.3782
G02 X86.9016 Y57.8404 Z-2.0000 I 7.0038 J 57.5174
G02 X83.6873 Y58.5195 Z-2.0000 I 9.5994 J 53.3799
G02 X80.3890 Y59.4456 Z-2.0000 I 11.4926 J 47.2673
G02 X77.1689 Y60.6054 Z-2.0000 I 14.1578 J 44.3575
G02 X73.8860 Y62.0853 Z-2.0000 I 16.3853 J 40.7305
G01 X73.8860 Y62.0853 Z-2.0000
G00 Z5.0000

(End cutting path id: path109415)


(Start cutting path id: path109415)
(Change tool to Cylindrical cutter)

G00 Z5.0000
G00 X73.8860 Y62.0853

G01 Z-4.0000 F 100.0000(Penetrate)
G02 X70.6251 Y60.6240 Z-4.0000 I -20.5774 J 41.5516 F 400.0000
G02 X67.4552 Y59.4762 Z-4.0000 I -17.8371 J 44.3060
G02 X64.2108 Y58.5508 Z-4.0000 I -15.1115 J 46.8310
G02 X61.0582 Y57.8675 Z-4.0000 I -12.9086 J 51.9479
G02 X57.8686 Y57.3699 Z-4.0000 I -10.3138 J 55.6399
G02 X54.7858 Y57.0534 Z-4.0000 I -8.1590 J 64.2912
G02 X51.6898 Y56.8786 Z-4.0000 I -5.5138 J 70.1773
G02 X48.7291 Y56.8278 Z-4.0000 I -2.9607 J 86.1509
G02 X46.7079 Y56.8568 Z-4.0000 I -0.0000 J 70.4585
G02 X44.6870 Y56.9353 Z-4.0000 I 2.8633 J 99.7766
G01 X44.6870 Y42.4951 Z-4.0000
G01 X254.3015 Y42.4951 Z-4.0000
G01 X254.3015 Y57.7213 Z-4.0000
G01 X246.2984 Y57.7213 Z-4.0000
G02 X244.4159 Y57.7892 Z-4.0000 I 0.1576 J 30.5036
G02 X242.5447 Y57.9727 Z-4.0000 I 2.0401 J 30.4352
G02 X240.6883 Y58.2711 Z-4.0000 I 3.9111 J 30.2506
G02 X238.8504 Y58.6843 Z-4.0000 I 5.7675 J 29.9523
G02 X237.0007 Y58.2689 Z-4.0000 I -7.6045 J 29.5391
G02 X235.1323 Y57.9697 Z-4.0000 I -5.7549 J 29.9549
G02 X233.2491 Y57.7870 Z-4.0000 I -3.8866 J 30.2534
G02 X231.3544 Y57.7213 Z-4.0000 I -2.0034 J 30.4376
G01 X217.6738 Y57.7213 Z-4.0000
G02 X216.3039 Y57.7592 Z-4.0000 I 0.1583 J 30.5138
G02 X214.9370 Y57.8586 Z-4.0000 I 1.5275 J 30.4620
G02 X213.6109 Y57.7610 Z-4.0000 I -2.9009 J 30.3662
G02 X212.2818 Y57.7213 Z-4.0000 I -1.5746 J 30.4611
G01 X187.9705 Y57.7213 Z-4.0000
G02 X185.8327 Y57.8149 Z-4.0000 I 0.2641 J 30.4993
G02 X183.7068 Y58.0581 Z-4.0000 I 2.4022 J 30.4097
G02 X181.5617 Y57.8135 Z-4.0000 I -4.5258 J 30.1657
G02 X179.4046 Y57.7213 Z-4.0000 I -2.3806 J 30.4094
G01 X164.2759 Y57.7213 Z-4.0000
G02 X161.5062 Y57.8588 Z-4.0000 I 0.1256 J 30.5056
G02 X158.7605 Y58.2472 Z-4.0000 I 2.8950 J 30.3645
G02 X155.9993 Y57.8573 Z-4.0000 I -5.6402 J 29.9768
G02 X153.2141 Y57.7213 Z-4.0000 I -2.8791 J 30.3670
G01 X129.5505 Y57.7213 Z-4.0000
G02 X126.8709 Y57.8492 Z-4.0000 I 0.1135 J 30.5030
G02 X124.2231 Y58.2103 Z-4.0000 I 2.7930 J 30.3749
G02 X121.6170 Y58.8017 Z-4.0000 I 5.4409 J 30.0139
G02 X119.0631 Y59.6225 Z-4.0000 I 8.0469 J 29.4223
G02 X116.5042 Y58.8495 Z-4.0000 I -15.0312 J 45.1391
G02 X113.9950 Y58.2351 Z-4.0000 I -13.4800 J 49.6217
G02 X111.4576 Y57.7444 Z-4.0000 I -11.4976 J 52.6477
G02 X108.9838 Y57.3801 Z-4.0000 I -9.9833 J 59.2054
G02 X106.4963 Y57.1159 Z-4.0000 I -7.9917 J 63.3960
G02 X104.0926 Y56.9476 Z-4.0000 I -6.3492 J 73.4332
G02 X101.6840 Y56.8548 Z-4.0000 I -4.2881 J 79.9955
G02 X99.3847 Y56.8278 Z-4.0000 I -2.2994 J 97.9784
G02 X96.4220 Y56.8754 Z-4.0000 I 0.0000 J 92.2476
G02 X93.2811 Y57.0432 Z-4.0000 I 2.3754 J 73.9265
G02 X90.1531 Y57.3505 Z-4.0000 I 5.0391 J 67.3782
G02 X86.9016 Y57.8404 Z-4.0000 I 7.0038 J 57.5174
G02 X83.6873 Y58.5195 Z-4.0000 I 9.5994 J 53.3799
G02 X80.3890 Y59.4456 Z-4.0000 I 11.4926 J 47.2673
G02 X77.1689 Y60.6054 Z-4.0000 I 14.1578 J 44.3575
G02 X73.8860 Y62.0853 Z-4.0000 I 16.3853 J 40.7305
G01 X73.8860 Y62.0853 Z-4.0000
G00 Z5.0000

(End cutting path id: path109415)


(Start cutting path id: path109415)
(Change tool to Cylindrical cutter)

G00 Z5.0000
G00 X73.8860 Y62.0853

G01 Z-5.0000 F 100.0000(Penetrate)
G02 X70.6251 Y60.6240 Z-5.0000 I -20.5774 J 41.5516 F 400.0000
G02 X67.4552 Y59.4762 Z-5.0000 I -17.8371 J 44.3060
G02 X64.2108 Y58.5508 Z-5.0000 I -15.1115 J 46.8310
G02 X61.0582 Y57.8675 Z-5.0000 I -12.9086 J 51.9479
G02 X57.8686 Y57.3699 Z-5.0000 I -10.3138 J 55.6399
G02 X54.7858 Y57.0534 Z-5.0000 I -8.1590 J 64.2912
G02 X51.6898 Y56.8786 Z-5.0000 I -5.5138 J 70.1773
G02 X48.7291 Y56.8278 Z-5.0000 I -2.9607 J 86.1509
G02 X46.7079 Y56.8568 Z-5.0000 I -0.0000 J 70.4585
G02 X44.6870 Y56.9353 Z-5.0000 I 2.8633 J 99.7766
G01 X44.6870 Y42.4951 Z-5.0000
G01 X254.3015 Y42.4951 Z-5.0000
G01 X254.3015 Y57.7213 Z-5.0000
G01 X246.2984 Y57.7213 Z-5.0000
G02 X244.4159 Y57.7892 Z-5.0000 I 0.1576 J 30.5036
G02 X242.5447 Y57.9727 Z-5.0000 I 2.0401 J 30.4352
G02 X240.6883 Y58.2711 Z-5.0000 I 3.9111 J 30.2506
G02 X238.8504 Y58.6843 Z-5.0000 I 5.7675 J 29.9523
G02 X237.0007 Y58.2689 Z-5.0000 I -7.6045 J 29.5391
G02 X235.1323 Y57.9697 Z-5.0000 I -5.7549 J 29.9549
G02 X233.2491 Y57.7870 Z-5.0000 I -3.8866 J 30.2534
G02 X231.3544 Y57.7213 Z-5.0000 I -2.0034 J 30.4376
G01 X217.6738 Y57.7213 Z-5.0000
G02 X216.3039 Y57.7592 Z-5.0000 I 0.1583 J 30.5138
G02 X214.9370 Y57.8586 Z-5.0000 I 1.5275 J 30.4620
G02 X213.6109 Y57.7610 Z-5.0000 I -2.9009 J 30.3662
G02 X212.2818 Y57.7213 Z-5.0000 I -1.5746 J 30.4611
G01 X187.9705 Y57.7213 Z-5.0000
G02 X185.8327 Y57.8149 Z-5.0000 I 0.2641 J 30.4993
G02 X183.7068 Y58.0581 Z-5.0000 I 2.4022 J 30.4097
G02 X181.5617 Y57.8135 Z-5.0000 I -4.5258 J 30.1657
G02 X179.4046 Y57.7213 Z-5.0000 I -2.3806 J 30.4094
G01 X164.2759 Y57.7213 Z-5.0000
G02 X161.5062 Y57.8588 Z-5.0000 I 0.1256 J 30.5056
G02 X158.7605 Y58.2472 Z-5.0000 I 2.8950 J 30.3645
G02 X155.9993 Y57.8573 Z-5.0000 I -5.6402 J 29.9768
G02 X153.2141 Y57.7213 Z-5.0000 I -2.8791 J 30.3670
G01 X129.5505 Y57.7213 Z-5.0000
G02 X126.8709 Y57.8492 Z-5.0000 I 0.1135 J 30.5030
G02 X124.2231 Y58.2103 Z-5.0000 I 2.7930 J 30.3749
G02 X121.6170 Y58.8017 Z-5.0000 I 5.4409 J 30.0139
G02 X119.0631 Y59.6225 Z-5.0000 I 8.0469 J 29.4223
G02 X116.5042 Y58.8495 Z-5.0000 I -15.0312 J 45.1391
G02 X113.9950 Y58.2351 Z-5.0000 I -13.4800 J 49.6217
G02 X111.4576 Y57.7444 Z-5.0000 I -11.4976 J 52.6477
G02 X108.9838 Y57.3801 Z-5.0000 I -9.9833 J 59.2054
G02 X106.4963 Y57.1159 Z-5.0000 I -7.9917 J 63.3960
G02 X104.0926 Y56.9476 Z-5.0000 I -6.3492 J 73.4332
G02 X101.6840 Y56.8548 Z-5.0000 I -4.2881 J 79.9955
G02 X99.3847 Y56.8278 Z-5.0000 I -2.2994 J 97.9784
G02 X96.4220 Y56.8754 Z-5.0000 I 0.0000 J 92.2476
G02 X93.2811 Y57.0432 Z-5.0000 I 2.3754 J 73.9265
G02 X90.1531 Y57.3505 Z-5.0000 I 5.0391 J 67.3782
G02 X86.9016 Y57.8404 Z-5.0000 I 7.0038 J 57.5174
G02 X83.6873 Y58.5195 Z-5.0000 I 9.5994 J 53.3799
G02 X80.3890 Y59.4456 Z-5.0000 I 11.4926 J 47.2673
G02 X77.1689 Y60.6054 Z-5.0000 I 14.1578 J 44.3575
G02 X73.8860 Y62.0853 Z-5.0000 I 16.3853 J 40.7305
G01 X73.8860 Y62.0853 Z-5.0000
G00 Z5.0000

(End cutting path id: path109415)


(Start cutting path id: path109413)
(Change tool to Cylindrical cutter)

G00 Z5.0000
G00 X40.6874 Y171.1217

G01 Z-2.0000 F 100.0000(Penetrate)
G01 X40.6874 Y161.1343 Z-2.0000 F 400.0000
G02 X44.1095 Y161.4526 Z-2.0000 I 7.2918 J -59.8340
G02 X47.3428 Y161.5565 Z-2.0000 I 3.2333 J -50.2592
G02 X50.4688 Y161.4917 Z-2.0000 I -0.0000 J -75.4222
G02 X53.5860 Y161.3010 Z-2.0000 I -3.2982 J -79.5078
G02 X56.6939 Y160.9900 Z-2.0000 I -6.6094 J -81.7138
G02 X59.7958 Y160.5632 Z-2.0000 I -10.3618 J -86.8021
G02 X62.7202 Y160.0555 Z-2.0000 I -12.6349 J -81.4617
G02 X65.6459 Y159.4514 Z-2.0000 I -20.4979 J -106.6497
G02 X67.6089 Y160.0004 Z-2.0000 I 8.1150 J -25.2299
G02 X69.6023 Y160.3961 Z-2.0000 I 6.1521 J -25.7792
G02 X71.6202 Y160.6378 Z-2.0000 I 4.1586 J -26.1745
G02 X73.6567 Y160.7241 Z-2.0000 I 2.1407 J -26.4158
G01 X97.3204 Y160.7241 Z-2.0000
G02 X100.2989 Y160.5432 Z-2.0000 I -0.1156 J -26.5039
G02 X103.2382 Y160.0285 Z-2.0000 I -3.0940 J -26.3211
G02 X106.1605 Y160.5413 Z-2.0000 I 6.0341 J -25.8066
G02 X109.1219 Y160.7241 Z-2.0000 I 3.1118 J -26.3192
G01 X125.1441 Y160.7241 Z-2.0000
G02 X126.2366 Y160.6918 Z-2.0000 I -0.2369 J -26.4819
G02 X127.3269 Y160.6145 Z-2.0000 I -1.3307 J -26.4759
G02 X128.4375 Y160.6927 Z-2.0000 I 2.4164 J -26.3914
G02 X129.5505 Y160.7241 Z-2.0000 I 1.3058 J -26.4701
G01 X155.8027 Y160.7241 Z-2.0000
G02 X158.7988 Y160.6528 Z-2.0000 I 0.0000 J -62.9828
G02 X161.9505 Y160.4157 Z-2.0000 I -2.7332 J -57.3902
G02 X165.0817 Y160.0020 Z-2.0000 I -5.6243 J -54.6209
G02 X168.3169 Y159.3704 Z-2.0000 I -8.0448 J -49.8073
G02 X172.3898 Y160.3749 Z-2.0000 I 8.3628 J -25.1486
G02 X176.5702 Y160.7241 Z-2.0000 I 4.2899 J -26.1531
G01 X198.6315 Y160.7241 Z-2.0000
G02 X201.4042 Y160.5725 Z-2.0000 I -0.0589 J -26.5032
G02 X204.1459 Y160.1316 Z-2.0000 I -2.8315 J -26.3505
G02 X206.8428 Y160.5679 Z-2.0000 I 5.5749 J -25.9097
G02 X209.5704 Y160.7241 Z-2.0000 I 2.8779 J -26.3458
G01 X222.7577 Y160.7241 Z-2.0000
G02 X226.8163 Y160.4063 Z-2.0000 I -0.0335 J -26.5033
G02 X230.7784 Y159.4707 Z-2.0000 I -4.0920 J -26.1845
G02 X234.7160 Y160.4026 Z-2.0000 I 8.0545 J -25.2489
G02 X238.7495 Y160.7241 Z-2.0000 I 4.1170 J -26.1809
G01 X246.1138 Y160.7241 Z-2.0000
G02 X249.2846 Y160.5277 Z-2.0000 I -0.0508 J -26.5027
G02 X252.3873 Y159.9586 Z-2.0000 I -3.2216 J -26.3061
G02 X255.4003 Y159.0249 Z-2.0000 I -6.3243 J -25.7372
G02 X258.3011 Y157.7294 Z-2.0000 I -9.3373 J -24.8033
G01 X258.3011 Y171.1217 Z-2.0000
G01 X40.6874 Y171.1217 Z-2.0000
G00 Z5.0000

(End cutting path id: path109413)


(Start cutting path id: path109413)
(Change tool to Cylindrical cutter)

G00 Z5.0000
G00 X40.6874 Y171.1217

G01 Z-4.0000 F 100.0000(Penetrate)
G01 X40.6874 Y161.1343 Z-4.0000 F 400.0000
G02 X44.1095 Y161.4526 Z-4.0000 I 7.2918 J -59.8340
G02 X47.3428 Y161.5565 Z-4.0000 I 3.2333 J -50.2592
G02 X50.4688 Y161.4917 Z-4.0000 I -0.0000 J -75.4222
G02 X53.5860 Y161.3010 Z-4.0000 I -3.2982 J -79.5078
G02 X56.6939 Y160.9900 Z-4.0000 I -6.6094 J -81.7138
G02 X59.7958 Y160.5632 Z-4.0000 I -10.3618 J -86.8021
G02 X62.7202 Y160.0555 Z-4.0000 I -12.6349 J -81.4617
G02 X65.6459 Y159.4514 Z-4.0000 I -20.4979 J -106.6497
G02 X67.6089 Y160.0004 Z-4.0000 I 8.1150 J -25.2299
G02 X69.6023 Y160.3961 Z-4.0000 I 6.1521 J -25.7792
G02 X71.6202 Y160.6378 Z-4.0000 I 4.1586 J -26.1745
G02 X73.6567 Y160.7241 Z-4.0000 I 2.1407 J -26.4158
G01 X97.3204 Y160.7241 Z-4.0000
G02 X100.2989 Y160.5432 Z-4.0000 I -0.1156 J -26.5039
G02 X103.2382 Y160.0285 Z-4.0000 I -3.0940 J -26.3211
G02 X106.1605 Y160.5413 Z-4.0000 I 6.0341 J -25.8066
G02 X109.1219 Y160.7241 Z-4.0000 I 3.1118 J -26.3192
G01 X125.1441 Y160.7241 Z-4.0000
G02 X126.2366 Y160.6918 Z-4.0000 I -0.2369 J -26.4819
G02 X127.3269 Y160.6145 Z-4.0000 I -1.3307 J -26.4759
G02 X128.4375 Y160.6927 Z-4.0000 I 2.4164 J -26.3914
G02 X129.5505 Y160.7241 Z-4.0000 I 1.3058 J -26.4701
G01 X155.8027 Y160.7241 Z-4.0000
G02 X158.7988 Y160.6528 Z-4.0000 I 0.0000 J -62.9828
G02 X161.9505 Y160.4157 Z-4.0000 I -2.7332 J -57.3902
G02 X165.0817 Y160.0020 Z-4.0000 I -5.6243 J -54.6209
G02 X168.3169 Y159.3704 Z-4.0000 I -8.0448 J -49.8073
G02 X172.3898 Y160.3749 Z-4.0000 I 8.3628 J -25.1486
G02 X176.5702 Y160.7241 Z-4.0000 I 4.2899 J -26.1531
G01 X198.6315 Y160.7241 Z-4.0000
G02 X201.4042 Y160.5725 Z-4.0000 I -0.0589 J -26.5032
G02 X204.1459 Y160.1316 Z-4.0000 I -2.8315 J -26.3505
G02 X206.8428 Y160.5679 Z-4.0000 I 5.5749 J -25.9097
G02 X209.5704 Y160.7241 Z-4.0000 I 2.8779 J -26.3458
G01 X222.7577 Y160.7241 Z-4.0000
G02 X226.8163 Y160.4063 Z-4.0000 I -0.0335 J -26.5033
G02 X230.7784 Y159.4707 Z-4.0000 I -4.0920 J -26.1845
G02 X234.7160 Y160.4026 Z-4.0000 I 8.0545 J -25.2489
G02 X238.7495 Y160.7241 Z-4.0000 I 4.1170 J -26.1809
G01 X246.1138 Y160.7241 Z-4.0000
G02 X249.2846 Y160.5277 Z-4.0000 I -0.0508 J -26.5027
G02 X252.3873 Y159.9586 Z-4.0000 I -3.2216 J -26.3061
G02 X255.4003 Y159.0249 Z-4.0000 I -6.3243 J -25.7372
G02 X258.3011 Y157.7294 Z-4.0000 I -9.3373 J -24.8033
G01 X258.3011 Y171.1217 Z-4.0000
G01 X40.6874 Y171.1217 Z-4.0000
G00 Z5.0000

(End cutting path id: path109413)


(Start cutting path id: path109413)
(Change tool to Cylindrical cutter)

G00 Z5.0000
G00 X40.6874 Y171.1217

G01 Z-5.0000 F 100.0000(Penetrate)
G01 X40.6874 Y161.1343 Z-5.0000 F 400.0000
G02 X44.1095 Y161.4526 Z-5.0000 I 7.2918 J -59.8340
G02 X47.3428 Y161.5565 Z-5.0000 I 3.2333 J -50.2592
G02 X50.4688 Y161.4917 Z-5.0000 I -0.0000 J -75.4222
G02 X53.5860 Y161.3010 Z-5.0000 I -3.2982 J -79.5078
G02 X56.6939 Y160.9900 Z-5.0000 I -6.6094 J -81.7138
G02 X59.7958 Y160.5632 Z-5.0000 I -10.3618 J -86.8021
G02 X62.7202 Y160.0555 Z-5.0000 I -12.6349 J -81.4617
G02 X65.6459 Y159.4514 Z-5.0000 I -20.4979 J -106.6497
G02 X67.6089 Y160.0004 Z-5.0000 I 8.1150 J -25.2299
G02 X69.6023 Y160.3961 Z-5.0000 I 6.1521 J -25.7792
G02 X71.6202 Y160.6378 Z-5.0000 I 4.1586 J -26.1745
G02 X73.6567 Y160.7241 Z-5.0000 I 2.1407 J -26.4158
G01 X97.3204 Y160.7241 Z-5.0000
G02 X100.2989 Y160.5432 Z-5.0000 I -0.1156 J -26.5039
G02 X103.2382 Y160.0285 Z-5.0000 I -3.0940 J -26.3211
G02 X106.1605 Y160.5413 Z-5.0000 I 6.0341 J -25.8066
G02 X109.1219 Y160.7241 Z-5.0000 I 3.1118 J -26.3192
G01 X125.1441 Y160.7241 Z-5.0000
G02 X126.2366 Y160.6918 Z-5.0000 I -0.2369 J -26.4819
G02 X127.3269 Y160.6145 Z-5.0000 I -1.3307 J -26.4759
G02 X128.4375 Y160.6927 Z-5.0000 I 2.4164 J -26.3914
G02 X129.5505 Y160.7241 Z-5.0000 I 1.3058 J -26.4701
G01 X155.8027 Y160.7241 Z-5.0000
G02 X158.7988 Y160.6528 Z-5.0000 I 0.0000 J -62.9828
G02 X161.9505 Y160.4157 Z-5.0000 I -2.7332 J -57.3902
G02 X165.0817 Y160.0020 Z-5.0000 I -5.6243 J -54.6209
G02 X168.3169 Y159.3704 Z-5.0000 I -8.0448 J -49.8073
G02 X172.3898 Y160.3749 Z-5.0000 I 8.3628 J -25.1486
G02 X176.5702 Y160.7241 Z-5.0000 I 4.2899 J -26.1531
G01 X198.6315 Y160.7241 Z-5.0000
G02 X201.4042 Y160.5725 Z-5.0000 I -0.0589 J -26.5032
G02 X204.1459 Y160.1316 Z-5.0000 I -2.8315 J -26.3505
G02 X206.8428 Y160.5679 Z-5.0000 I 5.5749 J -25.9097
G02 X209.5704 Y160.7241 Z-5.0000 I 2.8779 J -26.3458
G01 X222.7577 Y160.7241 Z-5.0000
G02 X226.8163 Y160.4063 Z-5.0000 I -0.0335 J -26.5033
G02 X230.7784 Y159.4707 Z-5.0000 I -4.0920 J -26.1845
G02 X234.7160 Y160.4026 Z-5.0000 I 8.0545 J -25.2489
G02 X238.7495 Y160.7241 Z-5.0000 I 4.1170 J -26.1809
G01 X246.1138 Y160.7241 Z-5.0000
G02 X249.2846 Y160.5277 Z-5.0000 I -0.0508 J -26.5027
G02 X252.3873 Y159.9586 Z-5.0000 I -3.2216 J -26.3061
G02 X255.4003 Y159.0249 Z-5.0000 I -6.3243 J -25.7372
G02 X258.3011 Y157.7294 Z-5.0000 I -9.3373 J -24.8033
G01 X258.3011 Y171.1217 Z-5.0000
G01 X40.6874 Y171.1217 Z-5.0000
G00 Z5.0000

(End cutting path id: path109413)


(Start cutting path id: path109413)
(Change tool to Cylindrical cutter)

G00 Z5.0000
G00 X73.9075 Y66.6262

G01 Z-2.0000 F 100.0000(Penetrate)
G02 X70.7031 Y65.0187 Z-2.0000 I -20.5489 J 36.9636 F 400.0000
G02 X67.5727 Y63.7554 Z-2.0000 I -17.7365 J 39.4427
G02 X64.3514 Y62.7358 Z-2.0000 I -15.0366 J 41.9061
G02 X61.1993 Y61.9804 Z-2.0000 I -12.8850 J 46.8118
G02 X58.0020 Y61.4305 Z-2.0000 I -10.3226 J 50.4484
G02 X54.8855 Y61.0786 Z-2.0000 I -8.2287 J 58.8963
G02 X51.7528 Y60.8844 Z-2.0000 I -5.5800 J 64.6694
G02 X48.7291 Y60.8274 Z-2.0000 I -3.0237 J 80.1427
G02 X44.7038 Y60.9392 Z-2.0000 I 0.0000 J 72.5520
G02 X40.6874 Y61.2568 Z-2.0000 I 4.7742 J 85.9163
G01 X40.6874 Y38.4955 Z-2.0000
G01 X258.3011 Y38.4955 Z-2.0000
G01 X258.3011 Y61.7209 Z-2.0000
G01 X246.2984 Y61.7209 Z-2.0000
G02 X244.4028 Y61.7930 Z-2.0000 I 0.0591 J 26.5145
G02 X242.5220 Y61.9998 Z-2.0000 I 1.9536 J 26.4268
G02 X240.6608 Y62.3402 Z-2.0000 I 3.8350 J 26.2242
G02 X238.8239 Y62.8140 Z-2.0000 I 5.6961 J 25.8831
G02 X236.9883 Y62.3405 Z-2.0000 I -7.5330 J 25.4094
G02 X235.1283 Y62.0001 Z-2.0000 I -5.6974 J 25.8829
G02 X233.2488 Y61.7933 Z-2.0000 I -3.8374 J 26.2233
G02 X231.3544 Y61.7209 Z-2.0000 I -1.9579 J 26.4308
G01 X217.6738 Y61.7209 Z-2.0000
G02 X216.2761 Y61.7616 Z-2.0000 I 0.0723 J 26.5461
G02 X214.8825 Y61.8758 Z-2.0000 I 1.4668 J 26.4481
G02 X213.5840 Y61.7664 Z-2.0000 I -2.8740 J 26.3452
G02 X212.2818 Y61.7209 Z-2.0000 I -1.5757 J 26.4562
G01 X187.9705 Y61.7209 Z-2.0000
G02 X185.8611 Y61.8215 Z-2.0000 I 0.2065 J 26.5042
G02 X183.7664 Y62.0897 Z-2.0000 I 2.3157 J 26.4008
G02 X181.5931 Y61.8151 Z-2.0000 I -4.4060 J 26.1340
G02 X179.4046 Y61.7209 Z-2.0000 I -2.2327 J 26.4081
G01 X164.2759 Y61.7209 Z-2.0000
G02 X161.4734 Y61.8769 Z-2.0000 I 0.0695 J 26.5046
G02 X158.7031 Y62.3284 Z-2.0000 I 2.8717 J 26.3459
G02 X155.9745 Y61.8813 Z-2.0000 I -5.6438 J 25.8950
G02 X153.2141 Y61.7209 Z-2.0000 I -2.9151 J 26.3417
G01 X129.5505 Y61.7209 Z-2.0000
G02 X126.8405 Y61.8630 Z-2.0000 I 0.0289 J 26.4756
G02 X124.1730 Y62.2786 Z-2.0000 I 2.7426 J 26.3695
G02 X121.5617 Y62.9634 Z-2.0000 I 5.4082 J 25.9451
G02 X119.0206 Y63.9159 Z-2.0000 I 8.0195 J 25.2601
G02 X116.5086 Y63.0767 Z-2.0000 I -15.1590 J 41.1981
G02 X114.0292 Y62.4036 Z-2.0000 I -13.6303 J 45.3057
G02 X111.5164 Y61.8628 Z-2.0000 I -11.6709 J 48.1227
G02 X109.0488 Y61.4564 Z-2.0000 I -10.1639 J 54.0086
G02 X106.5647 Y61.1592 Z-2.0000 I -8.1666 J 57.7399
G02 X104.1453 Y60.9667 Z-2.0000 I -6.4906 J 66.2906
G02 X101.7199 Y60.8593 Z-2.0000 I -4.3889 J 71.6691
G02 X99.3847 Y60.8274 Z-2.0000 I -2.3352 J 85.3683
G02 X96.3562 Y60.8810 Z-2.0000 I 0.0000 J 85.5439
G02 X93.1780 Y61.0681 Z-2.0000 I 2.4107 J 68.0528
G02 X90.0156 Y61.4105 Z-2.0000 I 5.0802 J 61.6891
G02 X86.7602 Y61.9524 Z-2.0000 I 7.0006 J 52.1026
G02 X83.5504 Y62.7040 Z-2.0000 I 9.5582 J 48.0523
G02 X80.2853 Y63.7240 Z-2.0000 I 11.3917 J 42.2020
G02 X77.1159 Y65.0001 Z-2.0000 I 14.0192 J 39.3907
G02 X73.9075 Y66.6262 Z-2.0000 I 16.2850 J 36.1110
G01 X73.9075 Y66.6262 Z-2.0000
G00 Z5.0000

(End cutting path id: path109413)


(Start cutting path id: path109413)
(Change tool to Cylindrical cutter)

G00 Z5.0000
G00 X73.9075 Y66.6262

G01 Z-4.0000 F 100.0000(Penetrate)
G02 X70.7031 Y65.0187 Z-4.0000 I -20.5489 J 36.9636 F 400.0000
G02 X67.5727 Y63.7554 Z-4.0000 I -17.7365 J 39.4427
G02 X64.3514 Y62.7358 Z-4.0000 I -15.0366 J 41.9061
G02 X61.1993 Y61.9804 Z-4.0000 I -12.8850 J 46.8118
G02 X58.0020 Y61.4305 Z-4.0000 I -10.3226 J 50.4484
G02 X54.8855 Y61.0786 Z-4.0000 I -8.2287 J 58.8963
G02 X51.7528 Y60.8844 Z-4.0000 I -5.5800 J 64.6694
G02 X48.7291 Y60.8274 Z-4.0000 I -3.0237 J 80.1427
G02 X44.7038 Y60.9392 Z-4.0000 I 0.0000 J 72.5520
G02 X40.6874 Y61.2568 Z-4.0000 I 4.7742 J 85.9163
G01 X40.6874 Y38.4955 Z-4.0000
G01 X258.3011 Y38.4955 Z-4.0000
G01 X258.3011 Y61.7209 Z-4.0000
G01 X246.2984 Y61.7209 Z-4.0000
G02 X244.4028 Y61.7930 Z-4.0000 I 0.0591 J 26.5145
G02 X242.5220 Y61.9998 Z-4.0000 I 1.9536 J 26.4268
G02 X240.6608 Y62.3402 Z-4.0000 I 3.8350 J 26.2242
G02 X238.8239 Y62.8140 Z-4.0000 I 5.6961 J 25.8831
G02 X236.9883 Y62.3405 Z-4.0000 I -7.5330 J 25.4094
G02 X235.1283 Y62.0001 Z-4.0000 I -5.6974 J 25.8829
G02 X233.2488 Y61.7933 Z-4.0000 I -3.8374 J 26.2233
G02 X231.3544 Y61.7209 Z-4.0000 I -1.9579 J 26.4308
G01 X217.6738 Y61.7209 Z-4.0000
G02 X216.2761 Y61.7616 Z-4.0000 I 0.0723 J 26.5461
G02 X214.8825 Y61.8758 Z-4.0000 I 1.4668 J 26.4481
G02 X213.5840 Y61.7664 Z-4.0000 I -2.8740 J 26.3452
G02 X212.2818 Y61.7209 Z-4.0000 I -1.5757 J 26.4562
G01 X187.9705 Y61.7209 Z-4.0000
G02 X185.8611 Y61.8215 Z-4.0000 I 0.2065 J 26.5042
G02 X183.7664 Y62.0897 Z-4.0000 I 2.3157 J 26.4008
G02 X181.5931 Y61.8151 Z-4.0000 I -4.4060 J 26.1340
G02 X179.4046 Y61.7209 Z-4.0000 I -2.2327 J 26.4081
G01 X164.2759 Y61.7209 Z-4.0000
G02 X161.4734 Y61.8769 Z-4.0000 I 0.0695 J 26.5046
G02 X158.7031 Y62.3284 Z-4.0000 I 2.8717 J 26.3459
G02 X155.9745 Y61.8813 Z-4.0000 I -5.6438 J 25.8950
G02 X153.2141 Y61.7209 Z-4.0000 I -2.9151 J 26.3417
G01 X129.5505 Y61.7209 Z-4.0000
G02 X126.8405 Y61.8630 Z-4.0000 I 0.0289 J 26.4756
G02 X124.1730 Y62.2786 Z-4.0000 I 2.7426 J 26.3695
G02 X121.5617 Y62.9634 Z-4.0000 I 5.4082 J 25.9451
G02 X119.0206 Y63.9159 Z-4.0000 I 8.0195 J 25.2601
G02 X116.5086 Y63.0767 Z-4.0000 I -15.1590 J 41.1981
G02 X114.0292 Y62.4036 Z-4.0000 I -13.6303 J 45.3057
G02 X111.5164 Y61.8628 Z-4.0000 I -11.6709 J 48.1227
G02 X109.0488 Y61.4564 Z-4.0000 I -10.1639 J 54.0086
G02 X106.5647 Y61.1592 Z-4.0000 I -8.1666 J 57.7399
G02 X104.1453 Y60.9667 Z-4.0000 I -6.4906 J 66.2906
G02 X101.7199 Y60.8593 Z-4.0000 I -4.3889 J 71.6691
G02 X99.3847 Y60.8274 Z-4.0000 I -2.3352 J 85.3683
G02 X96.3562 Y60.8810 Z-4.0000 I 0.0000 J 85.5439
G02 X93.1780 Y61.0681 Z-4.0000 I 2.4107 J 68.0528
G02 X90.0156 Y61.4105 Z-4.0000 I 5.0802 J 61.6891
G02 X86.7602 Y61.9524 Z-4.0000 I 7.0006 J 52.1026
G02 X83.5504 Y62.7040 Z-4.0000 I 9.5582 J 48.0523
G02 X80.2853 Y63.7240 Z-4.0000 I 11.3917 J 42.2020
G02 X77.1159 Y65.0001 Z-4.0000 I 14.0192 J 39.3907
G02 X73.9075 Y66.6262 Z-4.0000 I 16.2850 J 36.1110
G01 X73.9075 Y66.6262 Z-4.0000
G00 Z5.0000

(End cutting path id: path109413)


(Start cutting path id: path109413)
(Change tool to Cylindrical cutter)

G00 Z5.0000
G00 X73.9075 Y66.6262

G01 Z-5.0000 F 100.0000(Penetrate)
G02 X70.7031 Y65.0187 Z-5.0000 I -20.5489 J 36.9636 F 400.0000
G02 X67.5727 Y63.7554 Z-5.0000 I -17.7365 J 39.4427
G02 X64.3514 Y62.7358 Z-5.0000 I -15.0366 J 41.9061
G02 X61.1993 Y61.9804 Z-5.0000 I -12.8850 J 46.8118
G02 X58.0020 Y61.4305 Z-5.0000 I -10.3226 J 50.4484
G02 X54.8855 Y61.0786 Z-5.0000 I -8.2287 J 58.8963
G02 X51.7528 Y60.8844 Z-5.0000 I -5.5800 J 64.6694
G02 X48.7291 Y60.8274 Z-5.0000 I -3.0237 J 80.1427
G02 X44.7038 Y60.9392 Z-5.0000 I 0.0000 J 72.5520
G02 X40.6874 Y61.2568 Z-5.0000 I 4.7742 J 85.9163
G01 X40.6874 Y38.4955 Z-5.0000
G01 X258.3011 Y38.4955 Z-5.0000
G01 X258.3011 Y61.7209 Z-5.0000
G01 X246.2984 Y61.7209 Z-5.0000
G02 X244.4028 Y61.7930 Z-5.0000 I 0.0591 J 26.5145
G02 X242.5220 Y61.9998 Z-5.0000 I 1.9536 J 26.4268
G02 X240.6608 Y62.3402 Z-5.0000 I 3.8350 J 26.2242
G02 X238.8239 Y62.8140 Z-5.0000 I 5.6961 J 25.8831
G02 X236.9883 Y62.3405 Z-5.0000 I -7.5330 J 25.4094
G02 X235.1283 Y62.0001 Z-5.0000 I -5.6974 J 25.8829
G02 X233.2488 Y61.7933 Z-5.0000 I -3.8374 J 26.2233
G02 X231.3544 Y61.7209 Z-5.0000 I -1.9579 J 26.4308
G01 X217.6738 Y61.7209 Z-5.0000
G02 X216.2761 Y61.7616 Z-5.0000 I 0.0723 J 26.5461
G02 X214.8825 Y61.8758 Z-5.0000 I 1.4668 J 26.4481
G02 X213.5840 Y61.7664 Z-5.0000 I -2.8740 J 26.3452
G02 X212.2818 Y61.7209 Z-5.0000 I -1.5757 J 26.4562
G01 X187.9705 Y61.7209 Z-5.0000
G02 X185.8611 Y61.8215 Z-5.0000 I 0.2065 J 26.5042
G02 X183.7664 Y62.0897 Z-5.0000 I 2.3157 J 26.4008
G02 X181.5931 Y61.8151 Z-5.0000 I -4.4060 J 26.1340
G02 X179.4046 Y61.7209 Z-5.0000 I -2.2327 J 26.4081
G01 X164.2759 Y61.7209 Z-5.0000
G02 X161.4734 Y61.8769 Z-5.0000 I 0.0695 J 26.5046
G02 X158.7031 Y62.3284 Z-5.0000 I 2.8717 J 26.3459
G02 X155.9745 Y61.8813 Z-5.0000 I -5.6438 J 25.8950
G02 X153.2141 Y61.7209 Z-5.0000 I -2.9151 J 26.3417
G01 X129.5505 Y61.7209 Z-5.0000
G02 X126.8405 Y61.8630 Z-5.0000 I 0.0289 J 26.4756
G02 X124.1730 Y62.2786 Z-5.0000 I 2.7426 J 26.3695
G02 X121.5617 Y62.9634 Z-5.0000 I 5.4082 J 25.9451
G02 X119.0206 Y63.9159 Z-5.0000 I 8.0195 J 25.2601
G02 X116.5086 Y63.0767 Z-5.0000 I -15.1590 J 41.1981
G02 X114.0292 Y62.4036 Z-5.0000 I -13.6303 J 45.3057
G02 X111.5164 Y61.8628 Z-5.0000 I -11.6709 J 48.1227
G02 X109.0488 Y61.4564 Z-5.0000 I -10.1639 J 54.0086
G02 X106.5647 Y61.1592 Z-5.0000 I -8.1666 J 57.7399
G02 X104.1453 Y60.9667 Z-5.0000 I -6.4906 J 66.2906
G02 X101.7199 Y60.8593 Z-5.0000 I -4.3889 J 71.6691
G02 X99.3847 Y60.8274 Z-5.0000 I -2.3352 J 85.3683
G02 X96.3562 Y60.8810 Z-5.0000 I 0.0000 J 85.5439
G02 X93.1780 Y61.0681 Z-5.0000 I 2.4107 J 68.0528
G02 X90.0156 Y61.4105 Z-5.0000 I 5.0802 J 61.6891
G02 X86.7602 Y61.9524 Z-5.0000 I 7.0006 J 52.1026
G02 X83.5504 Y62.7040 Z-5.0000 I 9.5582 J 48.0523
G02 X80.2853 Y63.7240 Z-5.0000 I 11.3917 J 42.2020
G02 X77.1159 Y65.0001 Z-5.0000 I 14.0192 J 39.3907
G02 X73.9075 Y66.6262 Z-5.0000 I 16.2850 J 36.1110
G01 X73.9075 Y66.6262 Z-5.0000
G00 Z5.0000

(End cutting path id: path109413)


(Start cutting path id: path109411)
(Change tool to Cylindrical cutter)

G00 Z5.0000
G00 X36.6872 Y175.1219

G01 Z-2.0000 F 100.0000(Penetrate)
G01 X36.6872 Y156.4153 Z-2.0000 F 400.0000
G02 X39.4081 Y156.9330 Z-2.0000 I 10.0937 J -45.6393
G02 X42.0762 Y157.2847 Z-2.0000 I 7.7642 J -48.6077
G02 X44.7603 Y157.4916 Z-2.0000 I 5.2017 J -49.9733
G02 X47.3428 Y157.5563 Z-2.0000 I 2.5824 J -51.4732
G02 X50.3018 Y157.4950 Z-2.0000 I 0.0000 J -71.4467
G02 X53.2654 Y157.3138 Z-2.0000 I -3.1305 J -75.5220
G02 X56.2202 Y157.0181 Z-2.0000 I -6.2864 J -77.7194
G02 X59.1829 Y156.6104 Z-2.0000 I -9.8806 J -82.7813
G02 X62.4924 Y156.0214 Z-2.0000 I -11.5730 J -74.6147
G02 X65.8217 Y155.2996 Z-2.0000 I -22.2599 J -110.7209
G02 X67.7289 Y155.9172 Z-2.0000 I 7.8788 J -21.0778
G02 X69.6757 Y156.3612 Z-2.0000 I 5.9715 J -21.6953
G02 X71.6542 Y156.6308 Z-2.0000 I 4.0248 J -22.1393
G02 X73.6567 Y156.7240 Z-2.0000 I 2.0463 J -22.4090
G01 X97.3204 Y156.7240 Z-2.0000
G02 X100.2758 Y156.5154 Z-2.0000 I -0.1033 J -22.5031
G02 X103.1781 Y155.9203 Z-2.0000 I -3.0585 J -22.2931
G02 X106.1231 Y156.5211 Z-2.0000 I 5.9601 J -21.6986
G02 X109.1219 Y156.7240 Z-2.0000 I 3.0152 J -22.2994
G01 X125.1441 Y156.7240 Z-2.0000
G02 X126.2918 Y156.6931 Z-2.0000 I -0.0333 J -22.5933
G02 X127.4366 Y156.6038 Z-2.0000 I -1.1748 J -22.4417
G02 X128.4921 Y156.6888 Z-2.0000 I 2.3325 J -22.3801
G02 X129.5505 Y156.7240 Z-2.0000 I 1.2771 J -22.4666
G01 X155.8027 Y156.7240 Z-2.0000
G02 X158.8842 Y156.6476 Z-2.0000 I -0.0000 J -62.1881
G02 X162.0874 Y156.3908 Z-2.0000 I -2.6180 J -52.7686
G02 X165.2646 Y155.9330 Z-2.0000 I -5.4104 J -48.8063
G02 X168.5137 Y155.2263 Z-2.0000 I -7.5744 J -42.6444
G02 X172.4732 Y156.3450 Z-2.0000 I 8.0721 J -21.0046
G02 X176.5702 Y156.7240 Z-2.0000 I 4.1125 J -22.1233
G01 X198.6315 Y156.7240 Z-2.0000
G02 X201.3801 Y156.5409 Z-2.0000 I -0.1180 J -22.4998
G02 X204.0858 Y156.0234 Z-2.0000 I -2.8670 J -22.3197
G02 X206.8065 Y156.5428 Z-2.0000 I 5.5720 J -21.8016
G02 X209.5704 Y156.7240 Z-2.0000 I 2.8512 J -22.3207
G01 X222.7577 Y156.7240 Z-2.0000
G02 X226.8163 Y156.3409 Z-2.0000 I -0.0763 J -22.5013
G02 X230.7393 Y155.2318 Z-2.0000 I -4.1352 J -22.1193
G02 X234.6763 Y156.3435 Z-2.0000 I 8.0578 J -21.0101
G02 X238.7495 Y156.7240 Z-2.0000 I 4.1208 J -22.1217
G01 X246.1138 Y156.7240 Z-2.0000
G02 X248.3970 Y156.6074 Z-2.0000 I -0.0042 J -22.4967
G02 X250.6226 Y156.2666 Z-2.0000 I -2.2868 J -22.3741
G02 X252.8034 Y155.7050 Z-2.0000 I -4.5134 J -22.0381
G02 X254.9073 Y154.9323 Z-2.0000 I -6.6986 J -21.4909
G02 X256.9239 Y153.9543 Z-2.0000 I -8.8027 J -20.7186
G02 X258.8421 Y152.7744 Z-2.0000 I -10.8128 J -19.7285
G02 X260.6323 Y151.4090 Z-2.0000 I -12.7255 J -18.5407
G02 X262.3013 Y149.8465 Z-2.0000 I -14.5333 J -17.1960
G01 X262.3013 Y175.1219 Z-2.0000
G01 X36.6872 Y175.1219 Z-2.0000
G00 Z5.0000

(End cutting path id: path109411)


(Start cutting path id: path109411)
(Change tool to Cylindrical cutter)

G00 Z5.0000
G00 X36.6872 Y175.1219

G01 Z-4.0000 F 100.0000(Penetrate)
G01 X36.6872 Y156.4153 Z-4.0000 F 400.0000
G02 X39.4081 Y156.9330 Z-4.0000 I 10.0937 J -45.6393
G02 X42.0762 Y157.2847 Z-4.0000 I 7.7642 J -48.6077
G02 X44.7603 Y157.4916 Z-4.0000 I 5.2017 J -49.9733
G02 X47.3428 Y157.5563 Z-4.0000 I 2.5824 J -51.4732
G02 X50.3018 Y157.4950 Z-4.0000 I 0.0000 J -71.4467
G02 X53.2654 Y157.3138 Z-4.0000 I -3.1305 J -75.5220
G02 X56.2202 Y157.0181 Z-4.0000 I -6.2864 J -77.7194
G02 X59.1829 Y156.6104 Z-4.0000 I -9.8806 J -82.7813
G02 X62.4924 Y156.0214 Z-4.0000 I -11.5730 J -74.6147
G02 X65.8217 Y155.2996 Z-4.0000 I -22.2599 J -110.7209
G02 X67.7289 Y155.9172 Z-4.0000 I 7.8788 J -21.0778
G02 X69.6757 Y156.3612 Z-4.0000 I 5.9715 J -21.6953
G02 X71.6542 Y156.6308 Z-4.0000 I 4.0248 J -22.1393
G02 X73.6567 Y156.7240 Z-4.0000 I 2.0463 J -22.4090
G01 X97.3204 Y156.7240 Z-4.0000
G02 X100.2758 Y156.5154 Z-4.0000 I -0.1033 J -22.5031
G02 X103.1781 Y155.9203 Z-4.0000 I -3.0585 J -22.2931
G02 X106.1231 Y156.5211 Z-4.0000 I 5.9601 J -21.6986
G02 X109.1219 Y156.7240 Z-4.0000 I 3.0152 J -22.2994
G01 X125.1441 Y156.7240 Z-4.0000
G02 X126.2918 Y156.6931 Z-4.0000 I -0.0333 J -22.5933
G02 X127.4366 Y156.6038 Z-4.0000 I -1.1748 J -22.4417
G02 X128.4921 Y156.6888 Z-4.0000 I 2.3325 J -22.3801
G02 X129.5505 Y156.7240 Z-4.0000 I 1.2771 J -22.4666
G01 X155.8027 Y156.7240 Z-4.0000
G02 X158.8842 Y156.6476 Z-4.0000 I -0.0000 J -62.1881
G02 X162.0874 Y156.3908 Z-4.0000 I -2.6180 J -52.7686
G02 X165.2646 Y155.9330 Z-4.0000 I -5.4104 J -48.8063
G02 X168.5137 Y155.2263 Z-4.0000 I -7.5744 J -42.6444
G02 X172.4732 Y156.3450 Z-4.0000 I 8.0721 J -21.0046
G02 X176.5702 Y156.7240 Z-4.0000 I 4.1125 J -22.1233
G01 X198.6315 Y156.7240 Z-4.0000
G02 X201.3801 Y156.5409 Z-4.0000 I -0.1180 J -22.4998
G02 X204.0858 Y156.0234 Z-4.0000 I -2.8670 J -22.3197
G02 X206.8065 Y156.5428 Z-4.0000 I 5.5720 J -21.8016
G02 X209.5704 Y156.7240 Z-4.0000 I 2.8512 J -22.3207
G01 X222.7577 Y156.7240 Z-4.0000
G02 X226.8163 Y156.3409 Z-4.0000 I -0.0763 J -22.5013
G02 X230.7393 Y155.2318 Z-4.0000 I -4.1352 J -22.1193
G02 X234.6763 Y156.3435 Z-4.0000 I 8.0578 J -21.0101
G02 X238.7495 Y156.7240 Z-4.0000 I 4.1208 J -22.1217
G01 X246.1138 Y156.7240 Z-4.0000
G02 X248.3970 Y156.6074 Z-4.0000 I -0.0042 J -22.4967
G02 X250.6226 Y156.2666 Z-4.0000 I -2.2868 J -22.3741
G02 X252.8034 Y155.7050 Z-4.0000 I -4.5134 J -22.0381
G02 X254.9073 Y154.9323 Z-4.0000 I -6.6986 J -21.4909
G02 X256.9239 Y153.9543 Z-4.0000 I -8.8027 J -20.7186
G02 X258.8421 Y152.7744 Z-4.0000 I -10.8128 J -19.7285
G02 X260.6323 Y151.4090 Z-4.0000 I -12.7255 J -18.5407
G02 X262.3013 Y149.8465 Z-4.0000 I -14.5333 J -17.1960
G01 X262.3013 Y175.1219 Z-4.0000
G01 X36.6872 Y175.1219 Z-4.0000
G00 Z5.0000

(End cutting path id: path109411)


(Start cutting path id: path109411)
(Change tool to Cylindrical cutter)

G00 Z5.0000
G00 X36.6872 Y175.1219

G01 Z-5.0000 F 100.0000(Penetrate)
G01 X36.6872 Y156.4153 Z-5.0000 F 400.0000
G02 X39.4081 Y156.9330 Z-5.0000 I 10.0937 J -45.6393
G02 X42.0762 Y157.2847 Z-5.0000 I 7.7642 J -48.6077
G02 X44.7603 Y157.4916 Z-5.0000 I 5.2017 J -49.9733
G02 X47.3428 Y157.5563 Z-5.0000 I 2.5824 J -51.4732
G02 X50.3018 Y157.4950 Z-5.0000 I 0.0000 J -71.4467
G02 X53.2654 Y157.3138 Z-5.0000 I -3.1305 J -75.5220
G02 X56.2202 Y157.0181 Z-5.0000 I -6.2864 J -77.7194
G02 X59.1829 Y156.6104 Z-5.0000 I -9.8806 J -82.7813
G02 X62.4924 Y156.0214 Z-5.0000 I -11.5730 J -74.6147
G02 X65.8217 Y155.2996 Z-5.0000 I -22.2599 J -110.7209
G02 X67.7289 Y155.9172 Z-5.0000 I 7.8788 J -21.0778
G02 X69.6757 Y156.3612 Z-5.0000 I 5.9715 J -21.6953
G02 X71.6542 Y156.6308 Z-5.0000 I 4.0248 J -22.1393
G02 X73.6567 Y156.7240 Z-5.0000 I 2.0463 J -22.4090
G01 X97.3204 Y156.7240 Z-5.0000
G02 X100.2758 Y156.5154 Z-5.0000 I -0.1033 J -22.5031
G02 X103.1781 Y155.9203 Z-5.0000 I -3.0585 J -22.2931
G02 X106.1231 Y156.5211 Z-5.0000 I 5.9601 J -21.6986
G02 X109.1219 Y156.7240 Z-5.0000 I 3.0152 J -22.2994
G01 X125.1441 Y156.7240 Z-5.0000
G02 X126.2918 Y156.6931 Z-5.0000 I -0.0333 J -22.5933
G02 X127.4366 Y156.6038 Z-5.0000 I -1.1748 J -22.4417
G02 X128.4921 Y156.6888 Z-5.0000 I 2.3325 J -22.3801
G02 X129.5505 Y156.7240 Z-5.0000 I 1.2771 J -22.4666
G01 X155.8027 Y156.7240 Z-5.0000
G02 X158.8842 Y156.6476 Z-5.0000 I -0.0000 J -62.1881
G02 X162.0874 Y156.3908 Z-5.0000 I -2.6180 J -52.7686
G02 X165.2646 Y155.9330 Z-5.0000 I -5.4104 J -48.8063
G02 X168.5137 Y155.2263 Z-5.0000 I -7.5744 J -42.6444
G02 X172.4732 Y156.3450 Z-5.0000 I 8.0721 J -21.0046
G02 X176.5702 Y156.7240 Z-5.0000 I 4.1125 J -22.1233
G01 X198.6315 Y156.7240 Z-5.0000
G02 X201.3801 Y156.5409 Z-5.0000 I -0.1180 J -22.4998
G02 X204.0858 Y156.0234 Z-5.0000 I -2.8670 J -22.3197
G02 X206.8065 Y156.5428 Z-5.0000 I 5.5720 J -21.8016
G02 X209.5704 Y156.7240 Z-5.0000 I 2.8512 J -22.3207
G01 X222.7577 Y156.7240 Z-5.0000
G02 X226.8163 Y156.3409 Z-5.0000 I -0.0763 J -22.5013
G02 X230.7393 Y155.2318 Z-5.0000 I -4.1352 J -22.1193
G02 X234.6763 Y156.3435 Z-5.0000 I 8.0578 J -21.0101
G02 X238.7495 Y156.7240 Z-5.0000 I 4.1208 J -22.1217
G01 X246.1138 Y156.7240 Z-5.0000
G02 X248.3970 Y156.6074 Z-5.0000 I -0.0042 J -22.4967
G02 X250.6226 Y156.2666 Z-5.0000 I -2.2868 J -22.3741
G02 X252.8034 Y155.7050 Z-5.0000 I -4.5134 J -22.0381
G02 X254.9073 Y154.9323 Z-5.0000 I -6.6986 J -21.4909
G02 X256.9239 Y153.9543 Z-5.0000 I -8.8027 J -20.7186
G02 X258.8421 Y152.7744 Z-5.0000 I -10.8128 J -19.7285
G02 X260.6323 Y151.4090 Z-5.0000 I -12.7255 J -18.5407
G02 X262.3013 Y149.8465 Z-5.0000 I -14.5333 J -17.1960
G01 X262.3013 Y175.1219 Z-5.0000
G01 X36.6872 Y175.1219 Z-5.0000
G00 Z5.0000

(End cutting path id: path109411)


(Start cutting path id: path109411)
(Change tool to Cylindrical cutter)

G00 Z5.0000
G00 X73.9367 Y71.2972

G01 Z-2.0000 F 100.0000(Penetrate)
G02 X70.8070 Y69.5067 Z-2.0000 I -20.5099 J 32.2190 F 400.0000
G02 X67.7301 Y68.1006 Z-2.0000 I -17.5755 J 34.3917
G02 X64.5398 Y66.9643 Z-2.0000 I -14.9058 J 36.8030
G02 X61.3891 Y66.1195 Z-2.0000 I -12.8211 J 41.5198
G02 X58.1817 Y65.5055 Z-2.0000 I -10.3061 J 45.1493
G02 X55.0200 Y65.1099 Z-2.0000 I -8.3045 J 53.5373
G02 X51.8381 Y64.8922 Z-2.0000 I -5.6581 J 59.3361
G02 X48.7291 Y64.8276 Z-2.0000 I -3.1091 J 74.7746
G02 X45.7061 Y64.8933 Z-2.0000 I -0.0000 J 69.5312
G02 X42.6892 Y65.0867 Z-2.0000 I 3.2023 J 73.5858
G02 X39.6821 Y65.4020 Z-2.0000 I 6.4091 J 75.6339
G02 X36.6872 Y65.8335 Z-2.0000 I 10.0096 J 80.0663
G01 X36.6872 Y34.4953 Z-2.0000
G01 X262.3013 Y34.4953 Z-2.0000
G01 X262.3013 Y65.7211 Z-2.0000
G01 X246.2984 Y65.7211 Z-2.0000
G02 X242.5089 Y66.0567 Z-2.0000 I 0.0828 J 22.5012
G02 X238.8300 Y67.0258 Z-2.0000 I 3.8726 J 22.1669
G02 X235.1476 Y66.0561 Z-2.0000 I -7.5513 J 21.1974
G02 X231.3544 Y65.7211 Z-2.0000 I -3.8689 J 22.1672
G01 X217.6738 Y65.7211 Z-2.0000
G02 X216.3045 Y65.7726 Z-2.0000 I 0.1612 J 22.5020
G02 X214.9409 Y65.9074 Z-2.0000 I 1.5305 J 22.4502
G02 X213.6141 Y65.7748 Z-2.0000 I -2.8996 J 22.3147
G02 X212.2818 Y65.7211 Z-2.0000 I -1.5728 J 22.4472
G01 X187.9705 Y65.7211 Z-2.0000
G02 X185.8055 Y65.8297 Z-2.0000 I 0.0439 J 22.5087
G02 X183.6611 Y66.1461 Z-2.0000 I 2.2080 J 22.3913
G02 X181.5430 Y65.8322 Z-2.0000 I -4.3538 J 22.0775
G02 X179.4046 Y65.7211 Z-2.0000 I -2.2356 J 22.3905
G01 X164.2759 Y65.7211 Z-2.0000
G02 X161.4971 Y65.9076 Z-2.0000 I 0.1151 J 22.5031
G02 X158.7627 Y66.4360 Z-2.0000 I 2.8937 J 22.3152
G02 X156.0107 Y65.9055 Z-2.0000 I -5.6276 J 21.7873
G02 X153.2141 Y65.7211 Z-2.0000 I -2.8756 J 22.3177
G01 X129.5505 Y65.7211 Z-2.0000
G02 X126.8650 Y65.8873 Z-2.0000 I 0.0452 J 22.5050
G02 X124.2370 Y66.3684 Z-2.0000 I 2.7303 J 22.3357
G02 X121.6846 Y67.1575 Z-2.0000 I 5.3584 J 21.8551
G02 X119.2268 Y68.2523 Z-2.0000 I 7.9107 J 21.0656
G02 X116.7440 Y67.3104 Z-2.0000 I -14.5535 J 34.6195
G02 X114.2732 Y66.5579 Z-2.0000 I -13.1345 J 38.6954
G02 X111.7591 Y65.9585 Z-2.0000 I -11.2552 J 41.6352
G02 X109.2662 Y65.5095 Z-2.0000 I -9.9215 J 47.9381
G02 X106.7524 Y65.1853 Z-2.0000 I -7.9953 J 52.0796
G02 X104.2789 Y64.9763 Z-2.0000 I -6.4780 J 61.9298
G02 X101.7980 Y64.8615 Z-2.0000 I -4.4070 J 68.3873
G02 X99.3847 Y64.8276 Z-2.0000 I -2.4134 J 85.8308
G02 X96.2677 Y64.8887 Z-2.0000 I -0.0000 J 79.4457
G02 X93.0403 Y65.0994 Z-2.0000 I 2.4471 J 62.3233
G02 X89.8325 Y65.4856 Z-2.0000 I 5.1174 J 56.0153
G02 X86.5725 Y66.0915 Z-2.0000 I 6.9706 J 46.5775
G02 X83.3697 Y66.9330 Z-2.0000 I 9.4764 J 42.5819
G02 X80.1487 Y68.0691 Z-2.0000 I 11.2382 J 36.9970
G02 X77.0479 Y69.4890 Z-2.0000 I 13.8260 J 34.2904
G02 X73.9367 Y71.2972 Z-2.0000 I 16.1777 J 31.4158
G01 X73.9367 Y71.2972 Z-2.0000
G00 Z5.0000

(End cutting path id: path109411)


(Start cutting path id: path109411)
(Change tool to Cylindrical cutter)

G00 Z5.0000
G00 X73.9367 Y71.2972

G01 Z-4.0000 F 100.0000(Penetrate)
G02 X70.8070 Y69.5067 Z-4.0000 I -20.5099 J 32.2190 F 400.0000
G02 X67.7301 Y68.1006 Z-4.0000 I -17.5755 J 34.3917
G02 X64.5398 Y66.9643 Z-4.0000 I -14.9058 J 36.8030
G02 X61.3891 Y66.1195 Z-4.0000 I -12.8211 J 41.5198
G02 X58.1817 Y65.5055 Z-4.0000 I -10.3061 J 45.1493
G02 X55.0200 Y65.1099 Z-4.0000 I -8.3045 J 53.5373
G02 X51.8381 Y64.8922 Z-4.0000 I -5.6581 J 59.3361
G02 X48.7291 Y64.8276 Z-4.0000 I -3.1091 J 74.7746
G02 X45.7061 Y64.8933 Z-4.0000 I -0.0000 J 69.5312
G02 X42.6892 Y65.0867 Z-4.0000 I 3.2023 J 73.5858
G02 X39.6821 Y65.4020 Z-4.0000 I 6.4091 J 75.6339
G02 X36.6872 Y65.8335 Z-4.0000 I 10.0096 J 80.0663
G01 X36.6872 Y34.4953 Z-4.0000
G01 X262.3013 Y34.4953 Z-4.0000
G01 X262.3013 Y65.7211 Z-4.0000
G01 X246.2984 Y65.7211 Z-4.0000
G02 X242.5089 Y66.0567 Z-4.0000 I 0.0828 J 22.5012
G02 X238.8300 Y67.0258 Z-4.0000 I 3.8726 J 22.1669
G02 X235.1476 Y66.0561 Z-4.0000 I -7.5513 J 21.1974
G02 X231.3544 Y65.7211 Z-4.0000 I -3.8689 J 22.1672
G01 X217.6738 Y65.7211 Z-4.0000
G02 X216.3045 Y65.7726 Z-4.0000 I 0.1612 J 22.5020
G02 X214.9409 Y65.9074 Z-4.0000 I 1.5305 J 22.4502
G02 X213.6141 Y65.7748 Z-4.0000 I -2.8996 J 22.3147
G02 X212.2818 Y65.7211 Z-4.0000 I -1.5728 J 22.4472
G01 X187.9705 Y65.7211 Z-4.0000
G02 X185.8055 Y65.8297 Z-4.0000 I 0.0439 J 22.5087
G02 X183.6611 Y66.1461 Z-4.0000 I 2.2080 J 22.3913
G02 X181.5430 Y65.8322 Z-4.0000 I -4.3538 J 22.0775
G02 X179.4046 Y65.7211 Z-4.0000 I -2.2356 J 22.3905
G01 X164.2759 Y65.7211 Z-4.0000
G02 X161.4971 Y65.9076 Z-4.0000 I 0.1151 J 22.5031
G02 X158.7627 Y66.4360 Z-4.0000 I 2.8937 J 22.3152
G02 X156.0107 Y65.9055 Z-4.0000 I -5.6276 J 21.7873
G02 X153.2141 Y65.7211 Z-4.0000 I -2.8756 J 22.3177
G01 X129.5505 Y65.7211 Z-4.0000
G02 X126.8650 Y65.8873 Z-4.0000 I 0.0452 J 22.5050
G02 X124.2370 Y66.3684 Z-4.0000 I 2.7303 J 22.3357
G02 X121.6846 Y67.1575 Z-4.0000 I 5.3584 J 21.8551
G02 X119.2268 Y68.2523 Z-4.0000 I 7.9107 J 21.0656
G02 X116.7440 Y67.3104 Z-4.0000 I -14.5535 J 34.6195
G02 X114.2732 Y66.5579 Z-4.0000 I -13.1345 J 38.6954
G02 X111.7591 Y65.9585 Z-4.0000 I -11.2552 J 41.6352
G02 X109.2662 Y65.5095 Z-4.0000 I -9.9215 J 47.9381
G02 X106.7524 Y65.1853 Z-4.0000 I -7.9953 J 52.0796
G02 X104.2789 Y64.9763 Z-4.0000 I -6.4780 J 61.9298
G02 X101.7980 Y64.8615 Z-4.0000 I -4.4070 J 68.3873
G02 X99.3847 Y64.8276 Z-4.0000 I -2.4134 J 85.8308
G02 X96.2677 Y64.8887 Z-4.0000 I -0.0000 J 79.4457
G02 X93.0403 Y65.0994 Z-4.0000 I 2.4471 J 62.3233
G02 X89.8325 Y65.4856 Z-4.0000 I 5.1174 J 56.0153
G02 X86.5725 Y66.0915 Z-4.0000 I 6.9706 J 46.5775
G02 X83.3697 Y66.9330 Z-4.0000 I 9.4764 J 42.5819
G02 X80.1487 Y68.0691 Z-4.0000 I 11.2382 J 36.9970
G02 X77.0479 Y69.4890 Z-4.0000 I 13.8260 J 34.2904
G02 X73.9367 Y71.2972 Z-4.0000 I 16.1777 J 31.4158
G01 X73.9367 Y71.2972 Z-4.0000
G00 Z5.0000

(End cutting path id: path109411)


(Start cutting path id: path109411)
(Change tool to Cylindrical cutter)

G00 Z5.0000
G00 X73.9367 Y71.2972

G01 Z-5.0000 F 100.0000(Penetrate)
G02 X70.8070 Y69.5067 Z-5.0000 I -20.5099 J 32.2190 F 400.0000
G02 X67.7301 Y68.1006 Z-5.0000 I -17.5755 J 34.3917
G02 X64.5398 Y66.9643 Z-5.0000 I -14.9058 J 36.8030
G02 X61.3891 Y66.1195 Z-5.0000 I -12.8211 J 41.5198
G02 X58.1817 Y65.5055 Z-5.0000 I -10.3061 J 45.1493
G02 X55.0200 Y65.1099 Z-5.0000 I -8.3045 J 53.5373
G02 X51.8381 Y64.8922 Z-5.0000 I -5.6581 J 59.3361
G02 X48.7291 Y64.8276 Z-5.0000 I -3.1091 J 74.7746
G02 X45.7061 Y64.8933 Z-5.0000 I -0.0000 J 69.5312
G02 X42.6892 Y65.0867 Z-5.0000 I 3.2023 J 73.5858
G02 X39.6821 Y65.4020 Z-5.0000 I 6.4091 J 75.6339
G02 X36.6872 Y65.8335 Z-5.0000 I 10.0096 J 80.0663
G01 X36.6872 Y34.4953 Z-5.0000
G01 X262.3013 Y34.4953 Z-5.0000
G01 X262.3013 Y65.7211 Z-5.0000
G01 X246.2984 Y65.7211 Z-5.0000
G02 X242.5089 Y66.0567 Z-5.0000 I 0.0828 J 22.5012
G02 X238.8300 Y67.0258 Z-5.0000 I 3.8726 J 22.1669
G02 X235.1476 Y66.0561 Z-5.0000 I -7.5513 J 21.1974
G02 X231.3544 Y65.7211 Z-5.0000 I -3.8689 J 22.1672
G01 X217.6738 Y65.7211 Z-5.0000
G02 X216.3045 Y65.7726 Z-5.0000 I 0.1612 J 22.5020
G02 X214.9409 Y65.9074 Z-5.0000 I 1.5305 J 22.4502
G02 X213.6141 Y65.7748 Z-5.0000 I -2.8996 J 22.3147
G02 X212.2818 Y65.7211 Z-5.0000 I -1.5728 J 22.4472
G01 X187.9705 Y65.7211 Z-5.0000
G02 X185.8055 Y65.8297 Z-5.0000 I 0.0439 J 22.5087
G02 X183.6611 Y66.1461 Z-5.0000 I 2.2080 J 22.3913
G02 X181.5430 Y65.8322 Z-5.0000 I -4.3538 J 22.0775
G02 X179.4046 Y65.7211 Z-5.0000 I -2.2356 J 22.3905
G01 X164.2759 Y65.7211 Z-5.0000
G02 X161.4971 Y65.9076 Z-5.0000 I 0.1151 J 22.5031
G02 X158.7627 Y66.4360 Z-5.0000 I 2.8937 J 22.3152
G02 X156.0107 Y65.9055 Z-5.0000 I -5.6276 J 21.7873
G02 X153.2141 Y65.7211 Z-5.0000 I -2.8756 J 22.3177
G01 X129.5505 Y65.7211 Z-5.0000
G02 X126.8650 Y65.8873 Z-5.0000 I 0.0452 J 22.5050
G02 X124.2370 Y66.3684 Z-5.0000 I 2.7303 J 22.3357
G02 X121.6846 Y67.1575 Z-5.0000 I 5.3584 J 21.8551
G02 X119.2268 Y68.2523 Z-5.0000 I 7.9107 J 21.0656
G02 X116.7440 Y67.3104 Z-5.0000 I -14.5535 J 34.6195
G02 X114.2732 Y66.5579 Z-5.0000 I -13.1345 J 38.6954
G02 X111.7591 Y65.9585 Z-5.0000 I -11.2552 J 41.6352
G02 X109.2662 Y65.5095 Z-5.0000 I -9.9215 J 47.9381
G02 X106.7524 Y65.1853 Z-5.0000 I -7.9953 J 52.0796
G02 X104.2789 Y64.9763 Z-5.0000 I -6.4780 J 61.9298
G02 X101.7980 Y64.8615 Z-5.0000 I -4.4070 J 68.3873
G02 X99.3847 Y64.8276 Z-5.0000 I -2.4134 J 85.8308
G02 X96.2677 Y64.8887 Z-5.0000 I -0.0000 J 79.4457
G02 X93.0403 Y65.0994 Z-5.0000 I 2.4471 J 62.3233
G02 X89.8325 Y65.4856 Z-5.0000 I 5.1174 J 56.0153
G02 X86.5725 Y66.0915 Z-5.0000 I 6.9706 J 46.5775
G02 X83.3697 Y66.9330 Z-5.0000 I 9.4764 J 42.5819
G02 X80.1487 Y68.0691 Z-5.0000 I 11.2382 J 36.9970
G02 X77.0479 Y69.4890 Z-5.0000 I 13.8260 J 34.2904
G02 X73.9367 Y71.2972 Z-5.0000 I 16.1777 J 31.4158
G01 X73.9367 Y71.2972 Z-5.0000
G00 Z5.0000

(End cutting path id: path109411)


(Start cutting path id: path109409)
(Change tool to Cylindrical cutter)

G00 Z5.0000
G00 X32.6871 Y179.1221

G01 Z-2.0000 F 100.0000(Penetrate)
G01 X32.6871 Y151.0784 Z-2.0000 F 400.0000
G02 X40.1248 Y152.9949 Z-2.0000 I 13.5678 J -37.2647
G02 X47.3428 Y153.5561 Z-2.0000 I 7.2180 J -46.1348
G02 X52.9120 Y153.3289 Z-2.0000 I 0.0000 J -68.3635
G02 X58.5611 Y152.6588 Z-2.0000 I -6.3459 J -77.6376
G02 X62.3152 Y151.9689 Z-2.0000 I -10.4560 J -67.4581
G02 X66.1227 Y151.0944 Z-2.0000 I -25.3175 J -118.9585
G02 X69.8039 Y152.3058 Z-2.0000 I 7.5922 J -16.8723
G02 X73.6567 Y152.7238 Z-2.0000 I 3.9110 J -18.0838
G01 X97.3204 Y152.7238 Z-2.0000
G02 X100.3154 Y152.4705 Z-2.0000 I -0.0569 J -18.5021
G02 X103.2299 Y151.7355 Z-2.0000 I -3.0519 J -18.2483
G02 X106.1358 Y152.4690 Z-2.0000 I 5.9666 J -17.5134
G02 X109.1219 Y152.7238 Z-2.0000 I 3.0608 J -18.2468
G01 X125.1441 Y152.7238 Z-2.0000
G02 X126.2639 Y152.6819 Z-2.0000 I -0.1320 J -18.5024
G02 X127.3792 Y152.5722 Z-2.0000 I -1.2518 J -18.4592
G02 X128.4626 Y152.6800 Z-2.0000 I 2.3720 J -18.3494
G02 X129.5505 Y152.7238 Z-2.0000 I 1.2885 J -18.4565
G01 X155.8027 Y152.7238 Z-2.0000
G02 X162.1903 Y152.3396 Z-2.0000 I -0.0000 J -53.2878
G02 X168.7727 Y150.9765 Z-2.0000 I -4.7998 J -39.7527
G02 X172.5760 Y152.2761 Z-2.0000 I 7.8491 J -16.7544
G02 X176.5702 Y152.7238 Z-2.0000 I 4.0458 J -18.0541
G01 X198.6315 Y152.7238 Z-2.0000
G02 X201.4124 Y152.5127 Z-2.0000 I -0.0056 J -18.4949
G02 X204.1299 Y151.8860 Z-2.0000 I -2.7878 J -18.2929
G02 X206.8188 Y152.5084 Z-2.0000 I 5.5050 J -17.6638
G02 X209.5704 Y152.7238 Z-2.0000 I 2.8161 J -18.2864
G01 X222.7577 Y152.7238 Z-2.0000
G02 X226.8576 Y152.2513 Z-2.0000 I -0.0553 J -18.5022
G02 X230.7508 Y150.8817 Z-2.0000 I -4.1551 J -18.0291
G02 X234.6467 Y152.2519 Z-2.0000 I 8.0483 J -16.6596
G02 X238.7495 Y152.7238 Z-2.0000 I 4.1524 J -18.0299
G01 X246.1138 Y152.7238 Z-2.0000
G02 X256.4171 Y149.5887 Z-2.0000 I -0.0014 J -18.5026
G02 X263.2290 Y141.2470 Z-2.0000 I -10.3041 J -15.3666
G01 X266.3015 Y133.7593 Z-2.0000
G01 X266.3015 Y179.1221 Z-2.0000
G01 X32.6871 Y179.1221 Z-2.0000
G00 Z5.0000

(End cutting path id: path109409)


(Start cutting path id: path109409)
(Change tool to Cylindrical cutter)

G00 Z5.0000
G00 X32.6871 Y179.1221

G01 Z-4.0000 F 100.0000(Penetrate)
G01 X32.6871 Y151.0784 Z-4.0000 F 400.0000
G02 X40.1248 Y152.9949 Z-4.0000 I 13.5678 J -37.2647
G02 X47.3428 Y153.5561 Z-4.0000 I 7.2180 J -46.1348
G02 X52.9120 Y153.3289 Z-4.0000 I 0.0000 J -68.3635
G02 X58.5611 Y152.6588 Z-4.0000 I -6.3459 J -77.6376
G02 X62.3152 Y151.9689 Z-4.0000 I -10.4560 J -67.4581
G02 X66.1227 Y151.0944 Z-4.0000 I -25.3175 J -118.9585
G02 X69.8039 Y152.3058 Z-4.0000 I 7.5922 J -16.8723
G02 X73.6567 Y152.7238 Z-4.0000 I 3.9110 J -18.0838
G01 X97.3204 Y152.7238 Z-4.0000
G02 X100.3154 Y152.4705 Z-4.0000 I -0.0569 J -18.5021
G02 X103.2299 Y151.7355 Z-4.0000 I -3.0519 J -18.2483
G02 X106.1358 Y152.4690 Z-4.0000 I 5.9666 J -17.5134
G02 X109.1219 Y152.7238 Z-4.0000 I 3.0608 J -18.2468
G01 X125.1441 Y152.7238 Z-4.0000
G02 X126.2639 Y152.6819 Z-4.0000 I -0.1320 J -18.5024
G02 X127.3792 Y152.5722 Z-4.0000 I -1.2518 J -18.4592
G02 X128.4626 Y152.6800 Z-4.0000 I 2.3720 J -18.3494
G02 X129.5505 Y152.7238 Z-4.0000 I 1.2885 J -18.4565
G01 X155.8027 Y152.7238 Z-4.0000
G02 X162.1903 Y152.3396 Z-4.0000 I -0.0000 J -53.2878
G02 X168.7727 Y150.9765 Z-4.0000 I -4.7998 J -39.7527
G02 X172.5760 Y152.2761 Z-4.0000 I 7.8491 J -16.7544
G02 X176.5702 Y152.7238 Z-4.0000 I 4.0458 J -18.0541
G01 X198.6315 Y152.7238 Z-4.0000
G02 X201.4124 Y152.5127 Z-4.0000 I -0.0056 J -18.4949
G02 X204.1299 Y151.8860 Z-4.0000 I -2.7878 J -18.2929
G02 X206.8188 Y152.5084 Z-4.0000 I 5.5050 J -17.6638
G02 X209.5704 Y152.7238 Z-4.0000 I 2.8161 J -18.2864
G01 X222.7577 Y152.7238 Z-4.0000
G02 X226.8576 Y152.2513 Z-4.0000 I -0.0553 J -18.5022
G02 X230.7508 Y150.8817 Z-4.0000 I -4.1551 J -18.0291
G02 X234.6467 Y152.2519 Z-4.0000 I 8.0483 J -16.6596
G02 X238.7495 Y152.7238 Z-4.0000 I 4.1524 J -18.0299
G01 X246.1138 Y152.7238 Z-4.0000
G02 X256.4171 Y149.5887 Z-4.0000 I -0.0014 J -18.5026
G02 X263.2290 Y141.2470 Z-4.0000 I -10.3041 J -15.3666
G01 X266.3015 Y133.7593 Z-4.0000
G01 X266.3015 Y179.1221 Z-4.0000
G01 X32.6871 Y179.1221 Z-4.0000
G00 Z5.0000

(End cutting path id: path109409)


(Start cutting path id: path109409)
(Change tool to Cylindrical cutter)

G00 Z5.0000
G00 X32.6871 Y179.1221

G01 Z-5.0000 F 100.0000(Penetrate)
G01 X32.6871 Y151.0784 Z-5.0000 F 400.0000
G02 X40.1248 Y152.9949 Z-5.0000 I 13.5678 J -37.2647
G02 X47.3428 Y153.5561 Z-5.0000 I 7.2180 J -46.1348
G02 X52.9120 Y153.3289 Z-5.0000 I 0.0000 J -68.3635
G02 X58.5611 Y152.6588 Z-5.0000 I -6.3459 J -77.6376
G02 X62.3152 Y151.9689 Z-5.0000 I -10.4560 J -67.4581
G02 X66.1227 Y151.0944 Z-5.0000 I -25.3175 J -118.9585
G02 X69.8039 Y152.3058 Z-5.0000 I 7.5922 J -16.8723
G02 X73.6567 Y152.7238 Z-5.0000 I 3.9110 J -18.0838
G01 X97.3204 Y152.7238 Z-5.0000
G02 X100.3154 Y152.4705 Z-5.0000 I -0.0569 J -18.5021
G02 X103.2299 Y151.7355 Z-5.0000 I -3.0519 J -18.2483
G02 X106.1358 Y152.4690 Z-5.0000 I 5.9666 J -17.5134
G02 X109.1219 Y152.7238 Z-5.0000 I 3.0608 J -18.2468
G01 X125.1441 Y152.7238 Z-5.0000
G02 X126.2639 Y152.6819 Z-5.0000 I -0.1320 J -18.5024
G02 X127.3792 Y152.5722 Z-5.0000 I -1.2518 J -18.4592
G02 X128.4626 Y152.6800 Z-5.0000 I 2.3720 J -18.3494
G02 X129.5505 Y152.7238 Z-5.0000 I 1.2885 J -18.4565
G01 X155.8027 Y152.7238 Z-5.0000
G02 X162.1903 Y152.3396 Z-5.0000 I -0.0000 J -53.2878
G02 X168.7727 Y150.9765 Z-5.0000 I -4.7998 J -39.7527
G02 X172.5760 Y152.2761 Z-5.0000 I 7.8491 J -16.7544
G02 X176.5702 Y152.7238 Z-5.0000 I 4.0458 J -18.0541
G01 X198.6315 Y152.7238 Z-5.0000
G02 X201.4124 Y152.5127 Z-5.0000 I -0.0056 J -18.4949
G02 X204.1299 Y151.8860 Z-5.0000 I -2.7878 J -18.2929
G02 X206.8188 Y152.5084 Z-5.0000 I 5.5050 J -17.6638
G02 X209.5704 Y152.7238 Z-5.0000 I 2.8161 J -18.2864
G01 X222.7577 Y152.7238 Z-5.0000
G02 X226.8576 Y152.2513 Z-5.0000 I -0.0553 J -18.5022
G02 X230.7508 Y150.8817 Z-5.0000 I -4.1551 J -18.0291
G02 X234.6467 Y152.2519 Z-5.0000 I 8.0483 J -16.6596
G02 X238.7495 Y152.7238 Z-5.0000 I 4.1524 J -18.0299
G01 X246.1138 Y152.7238 Z-5.0000
G02 X256.4171 Y149.5887 Z-5.0000 I -0.0014 J -18.5026
G02 X263.2290 Y141.2470 Z-5.0000 I -10.3041 J -15.3666
G01 X266.3015 Y133.7593 Z-5.0000
G01 X266.3015 Y179.1221 Z-5.0000
G01 X32.6871 Y179.1221 Z-5.0000
G00 Z5.0000

(End cutting path id: path109409)


(Start cutting path id: path109409)
(Change tool to Cylindrical cutter)

G00 Z5.0000
G00 X74.0183 Y76.1677

G01 Z-2.0000 F 100.0000(Penetrate)
G02 X73.9952 Y76.1501 Z-2.0000 I -6.3309 J 8.2696 F 400.0000
G02 X73.9720 Y76.1325 Z-2.0000 I -20.9603 J 27.5379
G02 X70.9460 Y74.1069 Z-2.0000 I -20.3844 J 27.1793
G02 X67.9454 Y72.5217 Z-2.0000 I -17.2577 J 29.0355
G02 X64.7983 Y71.2401 Z-2.0000 I -14.6307 J 31.4230
G02 X61.6508 Y70.2851 Z-2.0000 I -12.6503 J 36.0273
G02 X58.4299 Y69.5940 Z-2.0000 I -10.2135 J 39.7479
G02 X55.2061 Y69.1460 Z-2.0000 I -8.3689 J 48.3980
G02 X51.9564 Y68.9011 Z-2.0000 I -5.7408 J 54.5031
G02 X48.7291 Y68.8277 Z-2.0000 I -3.2273 J 70.9272
G02 X45.6900 Y68.8930 Z-2.0000 I -0.0000 J 70.7542
G02 X42.6578 Y69.0887 Z-2.0000 I 3.0392 J 70.6897
G02 X39.6369 Y69.4144 Z-2.0000 I 6.0700 J 70.4800
G02 X36.6294 Y69.8701 Z-2.0000 I 9.0850 J 70.1091
G02 X34.6579 Y70.2690 Z-2.0000 I 6.1965 J 35.6921
G03 X32.6871 Y70.7245 Z-2.0000 I -709.4603 J -3065.5301
G01 X32.6871 Y30.4951 Z-2.0000
G01 X266.3015 Y30.4951 Z-2.0000
G01 X266.3015 Y69.7213 Z-2.0000
G01 X246.2984 Y69.7213 Z-2.0000
G02 X242.4728 Y70.1282 Z-2.0000 I 0.0338 J 18.5023
G02 X238.8140 Y71.3176 Z-2.0000 I 3.8593 J 18.0947
G02 X235.1674 Y70.1308 Z-2.0000 I -7.5183 J 16.9055
G02 X231.3544 Y69.7213 Z-2.0000 I -3.8717 J 18.0922
G01 X217.6738 Y69.7213 Z-2.0000
G02 X216.3326 Y69.7816 Z-2.0000 I 0.1597 J 18.4948
G02 X214.9993 Y69.9390 Z-2.0000 I 1.5016 J 18.4429
G02 X213.6446 Y69.7800 Z-2.0000 I -2.8324 J 18.2835
G02 X212.2818 Y69.7213 Z-2.0000 I -1.4776 J 18.4425
G01 X187.9705 Y69.7213 Z-2.0000
G02 X185.8125 Y69.8582 Z-2.0000 I 0.0911 J 18.5032
G02 X183.6853 Y70.2460 Z-2.0000 I 2.2488 J 18.3643
G02 X181.5603 Y69.8585 Z-2.0000 I -4.3763 J 17.9771
G02 X179.4046 Y69.7213 Z-2.0000 I -2.2512 J 18.3641
G01 X164.2759 Y69.7213 Z-2.0000
G02 X161.4641 Y69.9386 Z-2.0000 I 0.0166 J 18.5147
G02 X158.7180 Y70.5806 Z-2.0000 I 2.8258 J 18.2804
G02 X155.9986 Y69.9426 Z-2.0000 I -5.5736 J 17.6423
G02 X153.2141 Y69.7213 Z-2.0000 I -2.8542 J 18.2805
G01 X129.5505 Y69.7213 Z-2.0000
G02 X126.8493 Y69.9232 Z-2.0000 I 0.0260 J 18.5166
G02 X124.2338 Y70.5090 Z-2.0000 I 2.7242 J 18.2951
G02 X121.7304 Y71.4666 Z-2.0000 I 5.3412 J 17.7141
G02 X119.3679 Y72.7915 Z-2.0000 I 7.8446 J 16.7565
G02 X116.9411 Y71.7223 Z-2.0000 I -14.7000 J 30.0740
G02 X114.5001 Y70.8597 Z-2.0000 I -13.2861 J 33.7133
G02 X112.0028 Y70.1684 Z-2.0000 I -11.4382 J 36.4668
G02 X109.4955 Y69.6430 Z-2.0000 I -10.1459 J 42.1659
G02 X106.9605 Y69.2609 Z-2.0000 I -8.2226 J 45.9553
G02 X104.4313 Y69.0096 Z-2.0000 I -6.7045 J 54.6223
G02 X101.8921 Y68.8701 Z-2.0000 I -4.5780 J 60.1663
G02 X99.3847 Y68.8277 Z-2.0000 I -2.5074 J 74.1669
G02 X96.1490 Y68.8998 Z-2.0000 I 0.0000 J 72.6532
G02 X92.8598 Y69.1432 Z-2.0000 I 2.5055 J 56.2041
G02 X89.5961 Y69.5896 Z-2.0000 I 5.1809 J 50.0314
G02 X86.3360 Y70.2807 Z-2.0000 I 6.9596 J 40.8657
G02 X83.1507 Y71.2407 Z-2.0000 I 9.4053 J 36.9729
G02 X79.9950 Y72.5267 Z-2.0000 I 11.1079 J 31.7720
G02 X76.9942 Y74.1288 Z-2.0000 I 13.6674 J 29.2117
G02 X74.0183 Y76.1677 Z-2.0000 I 16.2081 J 26.8475
G01 X74.0183 Y76.1677 Z-2.0000
G00 Z5.0000

(End cutting path id: path109409)


(Start cutting path id: path109409)
(Change tool to Cylindrical cutter)

G00 Z5.0000
G00 X74.0183 Y76.1677

G01 Z-4.0000 F 100.0000(Penetrate)
G02 X73.9952 Y76.1501 Z-4.0000 I -6.3309 J 8.2696 F 400.0000
G02 X73.9720 Y76.1325 Z-4.0000 I -20.9603 J 27.5379
G02 X70.9460 Y74.1069 Z-4.0000 I -20.3844 J 27.1793
G02 X67.9454 Y72.5217 Z-4.0000 I -17.2577 J 29.0355
G02 X64.7983 Y71.2401 Z-4.0000 I -14.6307 J 31.4230
G02 X61.6508 Y70.2851 Z-4.0000 I -12.6503 J 36.0273
G02 X58.4299 Y69.5940 Z-4.0000 I -10.2135 J 39.7479
G02 X55.2061 Y69.1460 Z-4.0000 I -8.3689 J 48.3980
G02 X51.9564 Y68.9011 Z-4.0000 I -5.7408 J 54.5031
G02 X48.7291 Y68.8277 Z-4.0000 I -3.2273 J 70.9272
G02 X45.6900 Y68.8930 Z-4.0000 I -0.0000 J 70.7542
G02 X42.6578 Y69.0887 Z-4.0000 I 3.0392 J 70.6897
G02 X39.6369 Y69.4144 Z-4.0000 I 6.0700 J 70.4800
G02 X36.6294 Y69.8701 Z-4.0000 I 9.0850 J 70.1091
G02 X34.6579 Y70.2690 Z-4.0000 I 6.1965 J 35.6921
G03 X32.6871 Y70.7245 Z-4.0000 I -709.4603 J -3065.5301
G01 X32.6871 Y30.4951 Z-4.0000
G01 X266.3015 Y30.4951 Z-4.0000
G01 X266.3015 Y69.7213 Z-4.0000
G01 X246.2984 Y69.7213 Z-4.0000
G02 X242.4728 Y70.1282 Z-4.0000 I 0.0338 J 18.5023
G02 X238.8140 Y71.3176 Z-4.0000 I 3.8593 J 18.0947
G02 X235.1674 Y70.1308 Z-4.0000 I -7.5183 J 16.9055
G02 X231.3544 Y69.7213 Z-4.0000 I -3.8717 J 18.0922
G01 X217.6738 Y69.7213 Z-4.0000
G02 X216.3326 Y69.7816 Z-4.0000 I 0.1597 J 18.4948
G02 X214.9993 Y69.9390 Z-4.0000 I 1.5016 J 18.4429
G02 X213.6446 Y69.7800 Z-4.0000 I -2.8324 J 18.2835
G02 X212.2818 Y69.7213 Z-4.0000 I -1.4776 J 18.4425
G01 X187.9705 Y69.7213 Z-4.0000
G02 X185.8125 Y69.8582 Z-4.0000 I 0.0911 J 18.5032
G02 X183.6853 Y70.2460 Z-4.0000 I 2.2488 J 18.3643
G02 X181.5603 Y69.8585 Z-4.0000 I -4.3763 J 17.9771
G02 X179.4046 Y69.7213 Z-4.0000 I -2.2512 J 18.3641
G01 X164.2759 Y69.7213 Z-4.0000
G02 X161.4641 Y69.9386 Z-4.0000 I 0.0166 J 18.5147
G02 X158.7180 Y70.5806 Z-4.0000 I 2.8258 J 18.2804
G02 X155.9986 Y69.9426 Z-4.0000 I -5.5736 J 17.6423
G02 X153.2141 Y69.7213 Z-4.0000 I -2.8542 J 18.2805
G01 X129.5505 Y69.7213 Z-4.0000
G02 X126.8493 Y69.9232 Z-4.0000 I 0.0260 J 18.5166
G02 X124.2338 Y70.5090 Z-4.0000 I 2.7242 J 18.2951
G02 X121.7304 Y71.4666 Z-4.0000 I 5.3412 J 17.7141
G02 X119.3679 Y72.7915 Z-4.0000 I 7.8446 J 16.7565
G02 X116.9411 Y71.7223 Z-4.0000 I -14.7000 J 30.0740
G02 X114.5001 Y70.8597 Z-4.0000 I -13.2861 J 33.7133
G02 X112.0028 Y70.1684 Z-4.0000 I -11.4382 J 36.4668
G02 X109.4955 Y69.6430 Z-4.0000 I -10.1459 J 42.1659
G02 X106.9605 Y69.2609 Z-4.0000 I -8.2226 J 45.9553
G02 X104.4313 Y69.0096 Z-4.0000 I -6.7045 J 54.6223
G02 X101.8921 Y68.8701 Z-4.0000 I -4.5780 J 60.1663
G02 X99.3847 Y68.8277 Z-4.0000 I -2.5074 J 74.1669
G02 X96.1490 Y68.8998 Z-4.0000 I 0.0000 J 72.6532
G02 X92.8598 Y69.1432 Z-4.0000 I 2.5055 J 56.2041
G02 X89.5961 Y69.5896 Z-4.0000 I 5.1809 J 50.0314
G02 X86.3360 Y70.2807 Z-4.0000 I 6.9596 J 40.8657
G02 X83.1507 Y71.2407 Z-4.0000 I 9.4053 J 36.9729
G02 X79.9950 Y72.5267 Z-4.0000 I 11.1079 J 31.7720
G02 X76.9942 Y74.1288 Z-4.0000 I 13.6674 J 29.2117
G02 X74.0183 Y76.1677 Z-4.0000 I 16.2081 J 26.8475
G01 X74.0183 Y76.1677 Z-4.0000
G00 Z5.0000

(End cutting path id: path109409)


(Start cutting path id: path109409)
(Change tool to Cylindrical cutter)

G00 Z5.0000
G00 X74.0183 Y76.1677

G01 Z-5.0000 F 100.0000(Penetrate)
G02 X73.9952 Y76.1501 Z-5.0000 I -6.3309 J 8.2696 F 400.0000
G02 X73.9720 Y76.1325 Z-5.0000 I -20.9603 J 27.5379
G02 X70.9460 Y74.1069 Z-5.0000 I -20.3844 J 27.1793
G02 X67.9454 Y72.5217 Z-5.0000 I -17.2577 J 29.0355
G02 X64.7983 Y71.2401 Z-5.0000 I -14.6307 J 31.4230
G02 X61.6508 Y70.2851 Z-5.0000 I -12.6503 J 36.0273
G02 X58.4299 Y69.5940 Z-5.0000 I -10.2135 J 39.7479
G02 X55.2061 Y69.1460 Z-5.0000 I -8.3689 J 48.3980
G02 X51.9564 Y68.9011 Z-5.0000 I -5.7408 J 54.5031
G02 X48.7291 Y68.8277 Z-5.0000 I -3.2273 J 70.9272
G02 X45.6900 Y68.8930 Z-5.0000 I -0.0000 J 70.7542
G02 X42.6578 Y69.0887 Z-5.0000 I 3.0392 J 70.6897
G02 X39.6369 Y69.4144 Z-5.0000 I 6.0700 J 70.4800
G02 X36.6294 Y69.8701 Z-5.0000 I 9.0850 J 70.1091
G02 X34.6579 Y70.2690 Z-5.0000 I 6.1965 J 35.6921
G03 X32.6871 Y70.7245 Z-5.0000 I -709.4603 J -3065.5301
G01 X32.6871 Y30.4951 Z-5.0000
G01 X266.3015 Y30.4951 Z-5.0000
G01 X266.3015 Y69.7213 Z-5.0000
G01 X246.2984 Y69.7213 Z-5.0000
G02 X242.4728 Y70.1282 Z-5.0000 I 0.0338 J 18.5023
G02 X238.8140 Y71.3176 Z-5.0000 I 3.8593 J 18.0947
G02 X235.1674 Y70.1308 Z-5.0000 I -7.5183 J 16.9055
G02 X231.3544 Y69.7213 Z-5.0000 I -3.8717 J 18.0922
G01 X217.6738 Y69.7213 Z-5.0000
G02 X216.3326 Y69.7816 Z-5.0000 I 0.1597 J 18.4948
G02 X214.9993 Y69.9390 Z-5.0000 I 1.5016 J 18.4429
G02 X213.6446 Y69.7800 Z-5.0000 I -2.8324 J 18.2835
G02 X212.2818 Y69.7213 Z-5.0000 I -1.4776 J 18.4425
G01 X187.9705 Y69.7213 Z-5.0000
G02 X185.8125 Y69.8582 Z-5.0000 I 0.0911 J 18.5032
G02 X183.6853 Y70.2460 Z-5.0000 I 2.2488 J 18.3643
G02 X181.5603 Y69.8585 Z-5.0000 I -4.3763 J 17.9771
G02 X179.4046 Y69.7213 Z-5.0000 I -2.2512 J 18.3641
G01 X164.2759 Y69.7213 Z-5.0000
G02 X161.4641 Y69.9386 Z-5.0000 I 0.0166 J 18.5147
G02 X158.7180 Y70.5806 Z-5.0000 I 2.8258 J 18.2804
G02 X155.9986 Y69.9426 Z-5.0000 I -5.5736 J 17.6423
G02 X153.2141 Y69.7213 Z-5.0000 I -2.8542 J 18.2805
G01 X129.5505 Y69.7213 Z-5.0000
G02 X126.8493 Y69.9232 Z-5.0000 I 0.0260 J 18.5166
G02 X124.2338 Y70.5090 Z-5.0000 I 2.7242 J 18.2951
G02 X121.7304 Y71.4666 Z-5.0000 I 5.3412 J 17.7141
G02 X119.3679 Y72.7915 Z-5.0000 I 7.8446 J 16.7565
G02 X116.9411 Y71.7223 Z-5.0000 I -14.7000 J 30.0740
G02 X114.5001 Y70.8597 Z-5.0000 I -13.2861 J 33.7133
G02 X112.0028 Y70.1684 Z-5.0000 I -11.4382 J 36.4668
G02 X109.4955 Y69.6430 Z-5.0000 I -10.1459 J 42.1659
G02 X106.9605 Y69.2609 Z-5.0000 I -8.2226 J 45.9553
G02 X104.4313 Y69.0096 Z-5.0000 I -6.7045 J 54.6223
G02 X101.8921 Y68.8701 Z-5.0000 I -4.5780 J 60.1663
G02 X99.3847 Y68.8277 Z-5.0000 I -2.5074 J 74.1669
G02 X96.1490 Y68.8998 Z-5.0000 I 0.0000 J 72.6532
G02 X92.8598 Y69.1432 Z-5.0000 I 2.5055 J 56.2041
G02 X89.5961 Y69.5896 Z-5.0000 I 5.1809 J 50.0314
G02 X86.3360 Y70.2807 Z-5.0000 I 6.9596 J 40.8657
G02 X83.1507 Y71.2407 Z-5.0000 I 9.4053 J 36.9729
G02 X79.9950 Y72.5267 Z-5.0000 I 11.1079 J 31.7720
G02 X76.9942 Y74.1288 Z-5.0000 I 13.6674 J 29.2117
G02 X74.0183 Y76.1677 Z-5.0000 I 16.2081 J 26.8475
G01 X74.0183 Y76.1677 Z-5.0000
G00 Z5.0000

(End cutting path id: path109409)


(Start cutting path id: path109407)
(Change tool to Cylindrical cutter)

G00 Z5.0000
G00 X28.6874 Y183.1217

G01 Z-2.0000 F 100.0000(Penetrate)
G01 X28.6874 Y144.7521 Z-2.0000 F 400.0000
G02 X33.1212 Y146.9710 Z-2.0000 I 15.4688 J -25.3700
G02 X37.7448 Y148.4506 Z-2.0000 I 12.7465 J -31.8677
G02 X42.5485 Y149.2946 Z-2.0000 I 8.8842 J -36.4725
G02 X47.3428 Y149.5560 Z-2.0000 I 4.7943 J -43.8449
G02 X52.5782 Y149.3428 Z-2.0000 I 0.0000 J -64.3814
G02 X57.9482 Y148.7060 Z-2.0000 I -6.0059 J -73.6117
G02 X62.2014 Y147.9075 Z-2.0000 I -10.4202 J -67.2286
G02 X66.5664 Y146.8512 Z-2.0000 I -24.1715 J -109.4303
G02 X69.9912 Y148.2430 Z-2.0000 I 7.1276 J -12.6289
G02 X73.6567 Y148.7236 Z-2.0000 I 3.7027 J -14.0207
G01 X97.3204 Y148.7236 Z-2.0000
G02 X100.3419 Y148.3991 Z-2.0000 I -0.0293 J -14.5007
G02 X103.2294 Y147.4520 Z-2.0000 I -3.0510 J -14.1771
G02 X106.1088 Y148.3974 Z-2.0000 I 5.9385 J -13.2297
G02 X109.1219 Y148.7236 Z-2.0000 I 3.0591 J -14.1752
G01 X125.1441 Y148.7236 Z-2.0000
G02 X126.2359 Y148.6735 Z-2.0000 I -0.1196 J -14.5032
G02 X127.3208 Y148.5412 Z-2.0000 I -1.2111 J -14.4500
G02 X128.4321 Y148.6755 Z-2.0000 I 2.2940 J -14.3188
G02 X129.5505 Y148.7236 Z-2.0000 I 1.1827 J -14.4530
G01 X155.8027 Y148.7236 Z-2.0000
G02 X159.1804 Y148.6159 Z-2.0000 I -0.0000 J -53.0226
G02 X162.5541 Y148.2642 Z-2.0000 I -2.6918 J -42.1689
G02 X165.8794 Y147.6301 Z-2.0000 I -5.4774 J -37.7625
G02 X169.1580 Y146.6671 Z-2.0000 I -7.4531 J -31.4364
G02 X172.7253 Y148.1958 Z-2.0000 I 7.4443 J -12.4448
G02 X176.5702 Y148.7236 Z-2.0000 I 3.8771 J -13.9735
G01 X198.6315 Y148.7236 Z-2.0000
G02 X201.4202 Y148.4488 Z-2.0000 I -0.0218 J -14.5048
G02 X204.1040 Y147.6427 Z-2.0000 I -2.8096 J -14.2254
G02 X206.7848 Y148.4482 Z-2.0000 I 5.4939 J -13.4205
G02 X209.5704 Y148.7236 Z-2.0000 I 2.8131 J -14.2260
G01 X222.7577 Y148.7236 Z-2.0000
G02 X226.9292 Y148.1052 Z-2.0000 I -0.0183 J -14.5012
G02 X230.7464 Y146.3126 Z-2.0000 I -4.1900 J -13.8831
G02 X234.5705 Y148.1072 Z-2.0000 I 8.0071 J -12.0904
G02 X238.7495 Y148.7236 Z-2.0000 I 4.1830 J -13.8851
G01 X246.1138 Y148.7236 Z-2.0000
G02 X254.1892 Y146.2663 Z-2.0000 I -0.0014 J -14.5022
G02 X259.5281 Y139.7284 Z-2.0000 I -8.0762 J -12.0440
G01 X270.3016 Y113.4745 Z-2.0000
G01 X270.3016 Y183.1217 Z-2.0000
G01 X28.6874 Y183.1217 Z-2.0000
G00 Z5.0000

(End cutting path id: path109407)


(Start cutting path id: path109407)
(Change tool to Cylindrical cutter)

G00 Z5.0000
G00 X28.6874 Y183.1217

G01 Z-4.0000 F 100.0000(Penetrate)
G01 X28.6874 Y144.7521 Z-4.0000 F 400.0000
G02 X33.1212 Y146.9710 Z-4.0000 I 15.4688 J -25.3700
G02 X37.7448 Y148.4506 Z-4.0000 I 12.7465 J -31.8677
G02 X42.5485 Y149.2946 Z-4.0000 I 8.8842 J -36.4725
G02 X47.3428 Y149.5560 Z-4.0000 I 4.7943 J -43.8449
G02 X52.5782 Y149.3428 Z-4.0000 I 0.0000 J -64.3814
G02 X57.9482 Y148.7060 Z-4.0000 I -6.0059 J -73.6117
G02 X62.2014 Y147.9075 Z-4.0000 I -10.4202 J -67.2286
G02 X66.5664 Y146.8512 Z-4.0000 I -24.1715 J -109.4303
G02 X69.9912 Y148.2430 Z-4.0000 I 7.1276 J -12.6289
G02 X73.6567 Y148.7236 Z-4.0000 I 3.7027 J -14.0207
G01 X97.3204 Y148.7236 Z-4.0000
G02 X100.3419 Y148.3991 Z-4.0000 I -0.0293 J -14.5007
G02 X103.2294 Y147.4520 Z-4.0000 I -3.0510 J -14.1771
G02 X106.1088 Y148.3974 Z-4.0000 I 5.9385 J -13.2297
G02 X109.1219 Y148.7236 Z-4.0000 I 3.0591 J -14.1752
G01 X125.1441 Y148.7236 Z-4.0000
G02 X126.2359 Y148.6735 Z-4.0000 I -0.1196 J -14.5032
G02 X127.3208 Y148.5412 Z-4.0000 I -1.2111 J -14.4500
G02 X128.4321 Y148.6755 Z-4.0000 I 2.2940 J -14.3188
G02 X129.5505 Y148.7236 Z-4.0000 I 1.1827 J -14.4530
G01 X155.8027 Y148.7236 Z-4.0000
G02 X159.1804 Y148.6159 Z-4.0000 I -0.0000 J -53.0226
G02 X162.5541 Y148.2642 Z-4.0000 I -2.6918 J -42.1689
G02 X165.8794 Y147.6301 Z-4.0000 I -5.4774 J -37.7625
G02 X169.1580 Y146.6671 Z-4.0000 I -7.4531 J -31.4364
G02 X172.7253 Y148.1958 Z-4.0000 I 7.4443 J -12.4448
G02 X176.5702 Y148.7236 Z-4.0000 I 3.8771 J -13.9735
G01 X198.6315 Y148.7236 Z-4.0000
G02 X201.4202 Y148.4488 Z-4.0000 I -0.0218 J -14.5048
G02 X204.1040 Y147.6427 Z-4.0000 I -2.8096 J -14.2254
G02 X206.7848 Y148.4482 Z-4.0000 I 5.4939 J -13.4205
G02 X209.5704 Y148.7236 Z-4.0000 I 2.8131 J -14.2260
G01 X222.7577 Y148.7236 Z-4.0000
G02 X226.9292 Y148.1052 Z-4.0000 I -0.0183 J -14.5012
G02 X230.7464 Y146.3126 Z-4.0000 I -4.1900 J -13.8831
G02 X234.5705 Y148.1072 Z-4.0000 I 8.0071 J -12.0904
G02 X238.7495 Y148.7236 Z-4.0000 I 4.1830 J -13.8851
G01 X246.1138 Y148.7236 Z-4.0000
G02 X254.1892 Y146.2663 Z-4.0000 I -0.0014 J -14.5022
G02 X259.5281 Y139.7284 Z-4.0000 I -8.0762 J -12.0440
G01 X270.3016 Y113.4745 Z-4.0000
G01 X270.3016 Y183.1217 Z-4.0000
G01 X28.6874 Y183.1217 Z-4.0000
G00 Z5.0000

(End cutting path id: path109407)


(Start cutting path id: path109407)
(Change tool to Cylindrical cutter)

G00 Z5.0000
G00 X28.6874 Y183.1217

G01 Z-5.0000 F 100.0000(Penetrate)
G01 X28.6874 Y144.7521 Z-5.0000 F 400.0000
G02 X33.1212 Y146.9710 Z-5.0000 I 15.4688 J -25.3700
G02 X37.7448 Y148.4506 Z-5.0000 I 12.7465 J -31.8677
G02 X42.5485 Y149.2946 Z-5.0000 I 8.8842 J -36.4725
G02 X47.3428 Y149.5560 Z-5.0000 I 4.7943 J -43.8449
G02 X52.5782 Y149.3428 Z-5.0000 I 0.0000 J -64.3814
G02 X57.9482 Y148.7060 Z-5.0000 I -6.0059 J -73.6117
G02 X62.2014 Y147.9075 Z-5.0000 I -10.4202 J -67.2286
G02 X66.5664 Y146.8512 Z-5.0000 I -24.1715 J -109.4303
G02 X69.9912 Y148.2430 Z-5.0000 I 7.1276 J -12.6289
G02 X73.6567 Y148.7236 Z-5.0000 I 3.7027 J -14.0207
G01 X97.3204 Y148.7236 Z-5.0000
G02 X100.3419 Y148.3991 Z-5.0000 I -0.0293 J -14.5007
G02 X103.2294 Y147.4520 Z-5.0000 I -3.0510 J -14.1771
G02 X106.1088 Y148.3974 Z-5.0000 I 5.9385 J -13.2297
G02 X109.1219 Y148.7236 Z-5.0000 I 3.0591 J -14.1752
G01 X125.1441 Y148.7236 Z-5.0000
G02 X126.2359 Y148.6735 Z-5.0000 I -0.1196 J -14.5032
G02 X127.3208 Y148.5412 Z-5.0000 I -1.2111 J -14.4500
G02 X128.4321 Y148.6755 Z-5.0000 I 2.2940 J -14.3188
G02 X129.5505 Y148.7236 Z-5.0000 I 1.1827 J -14.4530
G01 X155.8027 Y148.7236 Z-5.0000
G02 X159.1804 Y148.6159 Z-5.0000 I -0.0000 J -53.0226
G02 X162.5541 Y148.2642 Z-5.0000 I -2.6918 J -42.1689
G02 X165.8794 Y147.6301 Z-5.0000 I -5.4774 J -37.7625
G02 X169.1580 Y146.6671 Z-5.0000 I -7.4531 J -31.4364
G02 X172.7253 Y148.1958 Z-5.0000 I 7.4443 J -12.4448
G02 X176.5702 Y148.7236 Z-5.0000 I 3.8771 J -13.9735
G01 X198.6315 Y148.7236 Z-5.0000
G02 X201.4202 Y148.4488 Z-5.0000 I -0.0218 J -14.5048
G02 X204.1040 Y147.6427 Z-5.0000 I -2.8096 J -14.2254
G02 X206.7848 Y148.4482 Z-5.0000 I 5.4939 J -13.4205
G02 X209.5704 Y148.7236 Z-5.0000 I 2.8131 J -14.2260
G01 X222.7577 Y148.7236 Z-5.0000
G02 X226.9292 Y148.1052 Z-5.0000 I -0.0183 J -14.5012
G02 X230.7464 Y146.3126 Z-5.0000 I -4.1900 J -13.8831
G02 X234.5705 Y148.1072 Z-5.0000 I 8.0071 J -12.0904
G02 X238.7495 Y148.7236 Z-5.0000 I 4.1830 J -13.8851
G01 X246.1138 Y148.7236 Z-5.0000
G02 X254.1892 Y146.2663 Z-5.0000 I -0.0014 J -14.5022
G02 X259.5281 Y139.7284 Z-5.0000 I -8.0762 J -12.0440
G01 X270.3016 Y113.4745 Z-5.0000
G01 X270.3016 Y183.1217 Z-5.0000
G01 X28.6874 Y183.1217 Z-5.0000
G00 Z5.0000

(End cutting path id: path109407)


(Start cutting path id: path109407)
(Change tool to Cylindrical cutter)

G00 Z5.0000
G00 X176.7257 Y142.6867

G01 Z-2.0000 F 100.0000(Penetrate)
G02 X176.7439 Y142.6713 Z-2.0000 I -0.0993 J -0.1357 F 400.0000
G03 X176.7621 Y142.6559 Z-2.0000 I 0.1191 J 0.1219
G03 X176.7902 Y142.6371 Z-2.0000 I 0.1988 J 0.2679
G02 X176.8183 Y142.6184 Z-2.0000 I -0.1684 J -0.2829
G01 X176.7257 Y142.6867 Z-2.0000
G00 Z5.0000

(End cutting path id: path109407)


(Start cutting path id: path109407)
(Change tool to Cylindrical cutter)

G00 Z5.0000
G00 X176.7257 Y142.6867

G01 Z-4.0000 F 100.0000(Penetrate)
G02 X176.7439 Y142.6713 Z-4.0000 I -0.0993 J -0.1357 F 400.0000
G03 X176.7621 Y142.6559 Z-4.0000 I 0.1191 J 0.1219
G03 X176.7902 Y142.6371 Z-4.0000 I 0.1988 J 0.2679
G02 X176.8183 Y142.6184 Z-4.0000 I -0.1684 J -0.2829
G01 X176.7257 Y142.6867 Z-4.0000
G00 Z5.0000

(End cutting path id: path109407)


(Start cutting path id: path109407)
(Change tool to Cylindrical cutter)

G00 Z5.0000
G00 X176.7257 Y142.6867

G01 Z-5.0000 F 100.0000(Penetrate)
G02 X176.7439 Y142.6713 Z-5.0000 I -0.0993 J -0.1357 F 400.0000
G03 X176.7621 Y142.6559 Z-5.0000 I 0.1191 J 0.1219
G03 X176.7902 Y142.6371 Z-5.0000 I 0.1988 J 0.2679
G02 X176.8183 Y142.6184 Z-5.0000 I -0.1684 J -0.2829
G01 X176.7257 Y142.6867 Z-5.0000
G00 Z5.0000

(End cutting path id: path109407)


(Start cutting path id: path109407)
(Change tool to Cylindrical cutter)

G00 Z5.0000
G00 X74.0089 Y81.4566

G01 Z-2.0000 F 100.0000(Penetrate)
G02 X72.8481 Y80.3687 Z-2.0000 I -16.7393 J 16.6981 F 400.0000
G02 X71.6194 Y79.3681 Z-2.0000 I -14.5563 J 16.6189
G02 X71.5957 Y79.3504 Z-2.0000 I -8.2191 J 10.9915
G02 X71.5720 Y79.3328 Z-2.0000 I -6.4129 J 8.6148
G02 X68.9311 Y77.5661 Z-2.0000 I -17.6927 J 23.5903
G02 X66.2676 Y76.1617 Z-2.0000 I -15.2378 J 25.6705
G02 X63.4744 Y75.0266 Z-2.0000 I -13.0176 J 28.0292
G02 X60.6307 Y74.1648 Z-2.0000 I -11.4490 J 32.6576
G02 X57.7214 Y73.5400 Z-2.0000 I -9.3124 J 36.2735
G02 X54.7538 Y73.1256 Z-2.0000 I -7.7427 J 44.6180
G02 X51.7626 Y72.8978 Z-2.0000 I -5.3415 J 50.3756
G02 X48.7291 Y72.8274 Z-2.0000 I -3.0335 J 65.3118
G02 X45.8612 Y72.8890 Z-2.0000 I 0.0000 J 66.7134
G02 X43.0012 Y73.0737 Z-2.0000 I 2.8670 J 66.6320
G02 X40.1517 Y73.3811 Z-2.0000 I 5.7290 J 66.4714
G02 X37.3134 Y73.8113 Z-2.0000 I 8.5922 J 66.2698
G02 X33.0159 Y74.7274 Z-2.0000 I 9.8574 J 56.7788
G02 X28.6874 Y75.9329 Z-2.0000 I 23.5231 J 92.8347
G01 X28.6874 Y26.4950 Z-2.0000
G01 X270.3016 Y26.4950 Z-2.0000
G01 X270.3016 Y73.9326 Z-2.0000
G02 X269.0736 Y73.7741 Z-2.0000 I -2.4686 J 14.2898
G02 X267.8366 Y73.7209 Z-2.0000 I -1.2407 J 14.4486
G01 X246.2984 Y73.7209 Z-2.0000
G02 X242.4214 Y74.2590 Z-2.0000 I 0.0368 J 14.5017
G02 X238.8295 Y75.8144 Z-2.0000 I 3.9138 J 13.9632
G02 X235.2346 Y74.2582 Z-2.0000 I -7.5057 J 12.4079
G02 X231.3544 Y73.7209 Z-2.0000 I -3.9109 J 13.9641
G01 X217.6738 Y73.7209 Z-2.0000
G02 X216.3166 Y73.7887 Z-2.0000 I 0.0452 J 14.5137
G02 X214.9718 Y73.9833 Z-2.0000 I 1.4008 J 14.4298
G02 X213.6329 Y73.7893 Z-2.0000 I -2.7466 J 14.2386
G02 X212.2818 Y73.7209 Z-2.0000 I -1.4078 J 14.4331
G01 X187.9705 Y73.7209 Z-2.0000
G02 X185.7929 Y73.8863 Z-2.0000 I 0.0056 J 14.4922
G02 X183.6649 Y74.3768 Z-2.0000 I 2.1850 J 14.3389
G02 X181.5593 Y73.8897 Z-2.0000 I -4.3124 J 13.8454
G02 X179.4046 Y73.7209 Z-2.0000 I -2.2067 J 14.3326
G01 X164.2759 Y73.7209 Z-2.0000
G02 X161.4520 Y74.0018 Z-2.0000 I 0.0172 J 14.5093
G02 X158.7368 Y74.8272 Z-2.0000 I 2.8391 J 14.2181
G02 X156.0297 Y74.0033 Z-2.0000 I -5.5554 J 13.3951
G02 X153.2141 Y73.7209 Z-2.0000 I -2.8483 J 14.2190
G01 X129.5505 Y73.7209 Z-2.0000
G02 X126.8551 Y73.9787 Z-2.0000 I 0.0273 J 14.5013
G02 X124.2973 Y74.7164 Z-2.0000 I 2.7227 J 14.2434
G02 X121.9175 Y75.9093 Z-2.0000 I 5.2805 J 13.5058
G02 X119.7620 Y77.5480 Z-2.0000 I 7.6605 J 12.3132
G02 X117.3980 Y76.2777 Z-2.0000 I -14.4559 J 24.0684
G02 X114.9831 Y75.2511 Z-2.0000 I -13.0571 J 27.3614
G02 X112.4875 Y74.4303 Z-2.0000 I -11.2804 J 30.0901
G02 X109.9354 Y73.8017 Z-2.0000 I -10.1498 J 35.7142
G02 X107.3438 Y73.3473 Z-2.0000 I -8.2828 J 39.6198
G02 X104.7066 Y73.0452 Z-2.0000 I -6.9041 J 48.6146
G02 X102.0555 Y72.8787 Z-2.0000 I -4.7535 J 54.4956
G02 X99.3847 Y72.8274 Z-2.0000 I -2.6708 J 69.4427
G02 X95.9556 Y72.9152 Z-2.0000 I 0.0000 J 66.9542
G02 X92.5570 Y73.2053 Z-2.0000 I 2.5758 J 50.2279
G02 X89.1941 Y73.7396 Z-2.0000 I 5.2568 J 43.9393
G02 X85.9160 Y74.5544 Z-2.0000 I 6.9157 J 34.8243
G02 X82.7431 Y75.6886 Z-2.0000 I 9.2874 J 30.9859
G02 X79.6654 Y77.1973 Z-2.0000 I 10.9467 J 26.2253
G02 X76.8022 Y79.0672 Z-2.0000 I 13.5235 J 23.8340
G02 X74.0089 Y81.4566 Z-2.0000 I 16.5023 J 22.1189
G01 X74.0089 Y81.4566 Z-2.0000
G00 Z5.0000

(End cutting path id: path109407)


(Start cutting path id: path109407)
(Change tool to Cylindrical cutter)

G00 Z5.0000
G00 X74.0089 Y81.4566

G01 Z-4.0000 F 100.0000(Penetrate)
G02 X72.8481 Y80.3687 Z-4.0000 I -16.7393 J 16.6981 F 400.0000
G02 X71.6194 Y79.3681 Z-4.0000 I -14.5563 J 16.6189
G02 X71.5957 Y79.3504 Z-4.0000 I -8.2191 J 10.9915
G02 X71.5720 Y79.3328 Z-4.0000 I -6.4129 J 8.6148
G02 X68.9311 Y77.5661 Z-4.0000 I -17.6927 J 23.5903
G02 X66.2676 Y76.1617 Z-4.0000 I -15.2378 J 25.6705
G02 X63.4744 Y75.0266 Z-4.0000 I -13.0176 J 28.0292
G02 X60.6307 Y74.1648 Z-4.0000 I -11.4490 J 32.6576
G02 X57.7214 Y73.5400 Z-4.0000 I -9.3124 J 36.2735
G02 X54.7538 Y73.1256 Z-4.0000 I -7.7427 J 44.6180
G02 X51.7626 Y72.8978 Z-4.0000 I -5.3415 J 50.3756
G02 X48.7291 Y72.8274 Z-4.0000 I -3.0335 J 65.3118
G02 X45.8612 Y72.8890 Z-4.0000 I 0.0000 J 66.7134
G02 X43.0012 Y73.0737 Z-4.0000 I 2.8670 J 66.6320
G02 X40.1517 Y73.3811 Z-4.0000 I 5.7290 J 66.4714
G02 X37.3134 Y73.8113 Z-4.0000 I 8.5922 J 66.2698
G02 X33.0159 Y74.7274 Z-4.0000 I 9.8574 J 56.7788
G02 X28.6874 Y75.9329 Z-4.0000 I 23.5231 J 92.8347
G01 X28.6874 Y26.4950 Z-4.0000
G01 X270.3016 Y26.4950 Z-4.0000
G01 X270.3016 Y73.9326 Z-4.0000
G02 X269.0736 Y73.7741 Z-4.0000 I -2.4686 J 14.2898
G02 X267.8366 Y73.7209 Z-4.0000 I -1.2407 J 14.4486
G01 X246.2984 Y73.7209 Z-4.0000
G02 X242.4214 Y74.2590 Z-4.0000 I 0.0368 J 14.5017
G02 X238.8295 Y75.8144 Z-4.0000 I 3.9138 J 13.9632
G02 X235.2346 Y74.2582 Z-4.0000 I -7.5057 J 12.4079
G02 X231.3544 Y73.7209 Z-4.0000 I -3.9109 J 13.9641
G01 X217.6738 Y73.7209 Z-4.0000
G02 X216.3166 Y73.7887 Z-4.0000 I 0.0452 J 14.5137
G02 X214.9718 Y73.9833 Z-4.0000 I 1.4008 J 14.4298
G02 X213.6329 Y73.7893 Z-4.0000 I -2.7466 J 14.2386
G02 X212.2818 Y73.7209 Z-4.0000 I -1.4078 J 14.4331
G01 X187.9705 Y73.7209 Z-4.0000
G02 X185.7929 Y73.8863 Z-4.0000 I 0.0056 J 14.4922
G02 X183.6649 Y74.3768 Z-4.0000 I 2.1850 J 14.3389
G02 X181.5593 Y73.8897 Z-4.0000 I -4.3124 J 13.8454
G02 X179.4046 Y73.7209 Z-4.0000 I -2.2067 J 14.3326
G01 X164.2759 Y73.7209 Z-4.0000
G02 X161.4520 Y74.0018 Z-4.0000 I 0.0172 J 14.5093
G02 X158.7368 Y74.8272 Z-4.0000 I 2.8391 J 14.2181
G02 X156.0297 Y74.0033 Z-4.0000 I -5.5554 J 13.3951
G02 X153.2141 Y73.7209 Z-4.0000 I -2.8483 J 14.2190
G01 X129.5505 Y73.7209 Z-4.0000
G02 X126.8551 Y73.9787 Z-4.0000 I 0.0273 J 14.5013
G02 X124.2973 Y74.7164 Z-4.0000 I 2.7227 J 14.2434
G02 X121.9175 Y75.9093 Z-4.0000 I 5.2805 J 13.5058
G02 X119.7620 Y77.5480 Z-4.0000 I 7.6605 J 12.3132
G02 X117.3980 Y76.2777 Z-4.0000 I -14.4559 J 24.0684
G02 X114.9831 Y75.2511 Z-4.0000 I -13.0571 J 27.3614
G02 X112.4875 Y74.4303 Z-4.0000 I -11.2804 J 30.0901
G02 X109.9354 Y73.8017 Z-4.0000 I -10.1498 J 35.7142
G02 X107.3438 Y73.3473 Z-4.0000 I -8.2828 J 39.6198
G02 X104.7066 Y73.0452 Z-4.0000 I -6.9041 J 48.6146
G02 X102.0555 Y72.8787 Z-4.0000 I -4.7535 J 54.4956
G02 X99.3847 Y72.8274 Z-4.0000 I -2.6708 J 69.4427
G02 X95.9556 Y72.9152 Z-4.0000 I 0.0000 J 66.9542
G02 X92.5570 Y73.2053 Z-4.0000 I 2.5758 J 50.2279
G02 X89.1941 Y73.7396 Z-4.0000 I 5.2568 J 43.9393
G02 X85.9160 Y74.5544 Z-4.0000 I 6.9157 J 34.8243
G02 X82.7431 Y75.6886 Z-4.0000 I 9.2874 J 30.9859
G02 X79.6654 Y77.1973 Z-4.0000 I 10.9467 J 26.2253
G02 X76.8022 Y79.0672 Z-4.0000 I 13.5235 J 23.8340
G02 X74.0089 Y81.4566 Z-4.0000 I 16.5023 J 22.1189
G01 X74.0089 Y81.4566 Z-4.0000
G00 Z5.0000

(End cutting path id: path109407)


(Start cutting path id: path109407)
(Change tool to Cylindrical cutter)

G00 Z5.0000
G00 X74.0089 Y81.4566

G01 Z-5.0000 F 100.0000(Penetrate)
G02 X72.8481 Y80.3687 Z-5.0000 I -16.7393 J 16.6981 F 400.0000
G02 X71.6194 Y79.3681 Z-5.0000 I -14.5563 J 16.6189
G02 X71.5957 Y79.3504 Z-5.0000 I -8.2191 J 10.9915
G02 X71.5720 Y79.3328 Z-5.0000 I -6.4129 J 8.6148
G02 X68.9311 Y77.5661 Z-5.0000 I -17.6927 J 23.5903
G02 X66.2676 Y76.1617 Z-5.0000 I -15.2378 J 25.6705
G02 X63.4744 Y75.0266 Z-5.0000 I -13.0176 J 28.0292
G02 X60.6307 Y74.1648 Z-5.0000 I -11.4490 J 32.6576
G02 X57.7214 Y73.5400 Z-5.0000 I -9.3124 J 36.2735
G02 X54.7538 Y73.1256 Z-5.0000 I -7.7427 J 44.6180
G02 X51.7626 Y72.8978 Z-5.0000 I -5.3415 J 50.3756
G02 X48.7291 Y72.8274 Z-5.0000 I -3.0335 J 65.3118
G02 X45.8612 Y72.8890 Z-5.0000 I 0.0000 J 66.7134
G02 X43.0012 Y73.0737 Z-5.0000 I 2.8670 J 66.6320
G02 X40.1517 Y73.3811 Z-5.0000 I 5.7290 J 66.4714
G02 X37.3134 Y73.8113 Z-5.0000 I 8.5922 J 66.2698
G02 X33.0159 Y74.7274 Z-5.0000 I 9.8574 J 56.7788
G02 X28.6874 Y75.9329 Z-5.0000 I 23.5231 J 92.8347
G01 X28.6874 Y26.4950 Z-5.0000
G01 X270.3016 Y26.4950 Z-5.0000
G01 X270.3016 Y73.9326 Z-5.0000
G02 X269.0736 Y73.7741 Z-5.0000 I -2.4686 J 14.2898
G02 X267.8366 Y73.7209 Z-5.0000 I -1.2407 J 14.4486
G01 X246.2984 Y73.7209 Z-5.0000
G02 X242.4214 Y74.2590 Z-5.0000 I 0.0368 J 14.5017
G02 X238.8295 Y75.8144 Z-5.0000 I 3.9138 J 13.9632
G02 X235.2346 Y74.2582 Z-5.0000 I -7.5057 J 12.4079
G02 X231.3544 Y73.7209 Z-5.0000 I -3.9109 J 13.9641
G01 X217.6738 Y73.7209 Z-5.0000
G02 X216.3166 Y73.7887 Z-5.0000 I 0.0452 J 14.5137
G02 X214.9718 Y73.9833 Z-5.0000 I 1.4008 J 14.4298
G02 X213.6329 Y73.7893 Z-5.0000 I -2.7466 J 14.2386
G02 X212.2818 Y73.7209 Z-5.0000 I -1.4078 J 14.4331
G01 X187.9705 Y73.7209 Z-5.0000
G02 X185.7929 Y73.8863 Z-5.0000 I 0.0056 J 14.4922
G02 X183.6649 Y74.3768 Z-5.0000 I 2.1850 J 14.3389
G02 X181.5593 Y73.8897 Z-5.0000 I -4.3124 J 13.8454
G02 X179.4046 Y73.7209 Z-5.0000 I -2.2067 J 14.3326
G01 X164.2759 Y73.7209 Z-5.0000
G02 X161.4520 Y74.0018 Z-5.0000 I 0.0172 J 14.5093
G02 X158.7368 Y74.8272 Z-5.0000 I 2.8391 J 14.2181
G02 X156.0297 Y74.0033 Z-5.0000 I -5.5554 J 13.3951
G02 X153.2141 Y73.7209 Z-5.0000 I -2.8483 J 14.2190
G01 X129.5505 Y73.7209 Z-5.0000
G02 X126.8551 Y73.9787 Z-5.0000 I 0.0273 J 14.5013
G02 X124.2973 Y74.7164 Z-5.0000 I 2.7227 J 14.2434
G02 X121.9175 Y75.9093 Z-5.0000 I 5.2805 J 13.5058
G02 X119.7620 Y77.5480 Z-5.0000 I 7.6605 J 12.3132
G02 X117.3980 Y76.2777 Z-5.0000 I -14.4559 J 24.0684
G02 X114.9831 Y75.2511 Z-5.0000 I -13.0571 J 27.3614
G02 X112.4875 Y74.4303 Z-5.0000 I -11.2804 J 30.0901
G02 X109.9354 Y73.8017 Z-5.0000 I -10.1498 J 35.7142
G02 X107.3438 Y73.3473 Z-5.0000 I -8.2828 J 39.6198
G02 X104.7066 Y73.0452 Z-5.0000 I -6.9041 J 48.6146
G02 X102.0555 Y72.8787 Z-5.0000 I -4.7535 J 54.4956
G02 X99.3847 Y72.8274 Z-5.0000 I -2.6708 J 69.4427
G02 X95.9556 Y72.9152 Z-5.0000 I 0.0000 J 66.9542
G02 X92.5570 Y73.2053 Z-5.0000 I 2.5758 J 50.2279
G02 X89.1941 Y73.7396 Z-5.0000 I 5.2568 J 43.9393
G02 X85.9160 Y74.5544 Z-5.0000 I 6.9157 J 34.8243
G02 X82.7431 Y75.6886 Z-5.0000 I 9.2874 J 30.9859
G02 X79.6654 Y77.1973 Z-5.0000 I 10.9467 J 26.2253
G02 X76.8022 Y79.0672 Z-5.0000 I 13.5235 J 23.8340
G02 X74.0089 Y81.4566 Z-5.0000 I 16.5023 J 22.1189
G01 X74.0089 Y81.4566 Z-5.0000
G00 Z5.0000

(End cutting path id: path109407)


(Start cutting path id: path109405)
(Change tool to Cylindrical cutter)

G00 Z5.0000
G00 X24.6873 Y187.1218

G01 Z-2.0000 F 100.0000(Penetrate)
G01 X24.6873 Y135.9354 Z-2.0000 F 400.0000
G02 X26.1746 Y137.6972 Z-2.0000 I 19.7579 J -15.1721
G02 X27.8468 Y139.2868 Z-2.0000 I 13.3848 J -12.4055
G02 X27.8476 Y139.2873 Z-2.0000 I 0.0479 J -0.0863
G01 X27.8485 Y139.2880 Z-2.0000
G02 X29.9621 Y140.8668 Z-2.0000 I 15.2578 J -18.2220
G02 X32.1804 Y142.1794 Z-2.0000 I 13.7907 J -20.7747
G02 X34.5231 Y143.2622 Z-2.0000 I 12.0646 J -23.0268
G02 X36.9653 Y144.1217 Z-2.0000 I 10.7907 J -26.7602
G02 X42.0321 Y145.2109 Z-2.0000 I 9.1759 J -30.3570
G02 X47.3428 Y145.5564 Z-2.0000 I 5.3107 J -40.6420
G02 X52.2441 Y145.3571 Z-2.0000 I 0.0000 J -60.3824
G02 X57.3347 Y144.7538 Z-2.0000 I -5.6692 J -69.6131
G02 X62.1915 Y143.8328 Z-2.0000 I -11.2559 J -72.6269
G02 X67.2632 Y142.5434 Z-2.0000 I -20.5420 J -91.4169
G02 X70.2798 Y144.1619 Z-2.0000 I 6.4064 J -8.3205
